!!!COM: Haydn, Franz Joseph
!!!OPR: Symphony in D Major
!!!OTL: Andante
!!!OMV: 2
!!!SCT: H I:104
!!!SCA: Thematisch-bibliographisches Werkevererzeichnis (A. van Hoboken)
!!!YOR: Dover Edition; reprint of Eulenburg Edition
!!!EED: Frances Bennion
!!!ENC: Frances Bennion
!!!CDT: 1732/3/31/-1809/5/31/
!!!OCY: Österreich
!!!YEC: Copyright (c) 1994, 2000 Center for Computer Assisted Research in the Humanities
!!!YEM: Rights to all derivative editions reserved.
!!!YEM: Refer to licensing agreement for further details.
!!!YEN: United States of America
**kern	**dynam	**kern	**dynam	**kern	**dynam	**kern	**dynam	**kern	**dynam	**kern	**dynam	**kern	**dynam	**kern	**dynam	**kern	**dynam	**kern	**dynam	**kern	**dynam
*I:Flauto 1, 2	*I:Flauto 1, 2	*I:Viola	*I:Viola	*I:Violoncello e Contrabasso	*I:Violoncello e Contrabasso	*I:Oboe 1, 2	*I:Oboe 1, 2	*I:Clarinetto 1, 2 in A	*I:Clarinetto 1, 2 in A	*I:Fagotto 1, 2	*I:Fagotto 1, 2	*I:Corno 1, 2 in G	*I:Corno 1, 2 in G	*I:Tromba 1 in D	*I:Tromba 1 in D	*I:Timpani in D, A	*I:Timpani in D, A	*I:Violino I	*I:Violino I	*I:Violino II	*I:Violino II
*>[A,A,B,B,C]	*	*>[A,A,B,B,C]	*	*>[A,A,B,B,C]	*	*>[A,A,B,B,C]	*	*>[A,A,B,B,C]	*	*>[A,A,B,B,C]	*	*>[A,A,B,B,C]	*	*>[A,A,B,B,C]	*	*>[A,A,B,B,C]	*	*>[A,A,B,B,C]	*	*>[A,A,B,B,C]	*
*>A	*	*>A	*	*>A	*	*>A	*	*>A	*	*>A	*	*>A	*	*>A	*	*>A	*	*>A	*	*>A	*
*clefG2	*	*clefC3	*	*clefF4	*	*clefG2	*	*clefG2	*	*clefF4	*	*clefG2	*	*clefG2	*	*clefF4	*	*clefG2	*	*clefG2	*
*k[f#]	*	*k[f#]	*	*k[f#]	*	*k[f#]	*	*k[b-]	*	*k[f#]	*	*k[]	*	*k[]	*	*k[]	*	*k[f#]	*	*k[f#]	*
*G:	*	*G:	*	*G:	*	*G:	*	*G:	*	*G:	*	*G:	*	*G:	*	*G:	*	*G:	*	*G:	*
*M2/4	*	*M2/4	*	*M2/4	*	*M2/4	*	*M2/4	*	*M2/4	*	*M2/4	*	*M2/4	*	*M2/4	*	*M2/4	*	*M2/4	*
! Andante	!	!	!	!	!	!	!	!	!	!	!	!	!	!	!	!	!	!	!	!	!
=1-	=1-	=1-	=1-	=1-	=1-	=1-	=1-	=1-	=1-	=1-	=1-	=1-	=1-	=1-	=1-	=1-	=1-	=1-	=1-	=1-	=1-
*	*	*	*	*	*	*^	*	*	*	*	*	*	*	*	*	*	*	*	*	*	*
2r	.	8G/	p	8G\	p	2r	2r	.	2r	.	2r	.	2r	.	2r	.	2r	.	(8..b\L	p	8d/	p
.	.	8r	.	8r	.	.	.	.	.	.	.	.	.	.	.	.	.	.	.	.	8r	.
.	.	.	.	.	.	.	.	.	.	.	.	.	.	.	.	.	.	.	32cc\Jkk)	.	.	.
.	.	8f#\	.	8D\	.	.	.	.	.	.	.	.	.	.	.	.	.	.	8a'\L	.	8c/	.
.	.	8r	.	8r	.	.	.	.	.	.	.	.	.	.	.	.	.	.	8dd'\J	.	8r	.
=2	=2	=2	=2	=2	=2	=2	=2	=2	=2	=2	=2	=2	=2	=2	=2	=2	=2	=2	=2	=2	=2	=2
2r	.	8g\	.	8E\	.	2r	2r	.	2r	.	2r	.	2r	.	2r	.	2r	.	8g/	.	8B/	.
.	.	8r	.	8r	.	.	.	.	.	.	.	.	.	.	.	.	.	.	8r	.	8r	.
.	.	8r	.	8r	.	.	.	.	.	.	.	.	.	.	.	.	.	.	8r	.	8r	.
.	.	(8ez\	z	(8Cz/	z	.	.	.	.	.	.	.	.	.	.	.	.	.	(8eez\	z	(8gz/	z
=3	=3	=3	=3	=3	=3	=3	=3	=3	=3	=3	=3	=3	=3	=3	=3	=3	=3	=3	=3	=3	=3	=3
2r	.	8A/)	.	8c\)	.	2r	2r	.	2r	.	2r	.	2r	.	2r	.	2r	.	8f#/)	.	8d/)	.
.	.	8d'\L	p	8B'\L	p	.	.	.	.	.	.	.	.	.	.	.	.	.	8g'/L	p	8d'/L	p
.	.	8c'\J	.	8A'\	.	.	.	.	.	.	.	.	.	.	.	.	.	.	8a'/	.	8f#'/	.
.	.	16B/LL	.	8G'\J	.	.	.	.	.	.	.	.	.	.	.	.	.	.	8b'/J	.	8g'/J	.
.	.	16G/JJ	.	.	.	.	.	.	.	.	.	.	.	.	.	.	.	.	.	.	.	.
=4	=4	=4	=4	=4	=4	=4	=4	=4	=4	=4	=4	=4	=4	=4	=4	=4	=4	=4	=4	=4	=4	=4
2r	.	4D/	.	4D\	.	2r	2r	.	2r	.	2r	.	2r	.	2r	.	2r	.	8cc'/L	.	8a'/L	.
.	.	.	.	.	.	.	.	.	.	.	.	.	.	.	.	.	.	.	&(16b/L)	.	&(16g/L)	.
.	.	.	.	.	.	.	.	.	.	.	.	.	.	.	.	.	.	.	32a/L	.	32f#/L	.
.	.	.	.	.	.	.	.	.	.	.	.	.	.	.	.	.	.	.	32b/JJJ&)	.	32g/JJJ&)	.
.	.	4r	.	4r	.	.	.	.	.	.	.	.	.	.	.	.	.	.	8a/	.	8f#/	.
.	.	.	.	.	.	.	.	.	.	.	.	.	.	.	.	.	.	.	8r	.	8r	.
=5	=5	=5	=5	=5	=5	=5	=5	=5	=5	=5	=5	=5	=5	=5	=5	=5	=5	=5	=5	=5	=5	=5
2r	.	8D/	.	8G\	.	2r	2r	.	2r	.	2r	.	2r	.	2r	.	2r	.	(8..b\L	.	8d/	.
.	.	8r	.	8r	.	.	.	.	.	.	.	.	.	.	.	.	.	.	.	.	8r	.
.	.	.	.	.	.	.	.	.	.	.	.	.	.	.	.	.	.	.	32cc\Jkk)	.	.	.
.	.	8F#/	.	8D\	.	.	.	.	.	.	.	.	.	.	.	.	.	.	8a'\L	.	8c/	.
.	.	8r	.	8r	.	.	.	.	.	.	.	.	.	.	.	.	.	.	8dd'\J	.	8r	.
=6	=6	=6	=6	=6	=6	=6	=6	=6	=6	=6	=6	=6	=6	=6	=6	=6	=6	=6	=6	=6	=6	=6
2r	.	(2G/	.	(2E\	.	2r	2r	.	2r	.	2r	.	2r	.	2r	.	2r	.	8g'/L	.	(2c#/	.
.	.	.	.	.	.	.	.	.	.	.	.	.	.	.	.	.	.	.	8b'/	.	.	.
.	.	.	.	.	.	.	.	.	.	.	.	.	.	.	.	.	.	.	8e'/J	.	.	.
.	.	.	.	.	.	.	.	.	.	.	.	.	.	.	.	.	.	.	(8b-z/	z	.	.
=7	=7	=7	=7	=7	=7	=7	=7	=7	=7	=7	=7	=7	=7	=7	=7	=7	=7	=7	=7	=7	=7	=7
2r	.	8F#/)	.	8F#\)	.	2r	2r	.	2r	.	2r	.	2r	.	2r	.	2r	.	8d/)	.	8d/)	.
.	.	8G'/L	p	8G'\L	p	.	.	.	.	.	.	.	.	.	.	.	.	.	8g'/L	p	8d'/Lxx	p
.	.	8A'/	.	8A'\	.	.	.	.	.	.	.	.	.	.	.	.	.	.	8f#'/	.	8d'/	.
.	.	8G'/J	.	8AA'\J	.	.	.	.	.	.	.	.	.	.	.	.	.	.	8e'/J	.	8c#'/J	.
=8	=8	=8	=8	=8	=8	=8	=8	=8	=8	=8	=8	=8	=8	=8	=8	=8	=8	=8	=8	=8	=8	=8
2r	.	4F#/	.	8r	.	2r	2r	.	2r	.	2r	.	2r	.	2r	.	2r	.	4d/	.	4d/	.
.	.	.	.	8AA'/L	.	.	.	.	.	.	.	.	.	.	.	.	.	.	.	.	.	.
.	.	4r	.	8DD'/J	.	.	.	.	.	.	.	.	.	.	.	.	.	.	4r	.	4r	.
.	.	.	.	8r	.	.	.	.	.	.	.	.	.	.	.	.	.	.	.	.	.	.
=9:!!:	=9:!!:	=9:!!:	=9:!!:	=9:!!:	=9:!!:	=9:!!:	=9:!!:	=9:!!:	=9:!!:	=9:!!:	=9:!!:	=9:!!:	=9:!!:	=9:!!:	=9:!!:	=9:!!:	=9:!!:	=9:!!:	=9:!!:	=9:!!:	=9:!!:	=9:!!:
*>B	*	*>B	*	*>B	*	*>B	*	*	*>B	*	*>B	*	*>B	*	*>B	*	*>B	*	*>B	*	*>B	*
!	!	!	!	! Vc.	!	!	!	!	!	!	!	!	!	!	!	!	!	!	!	!	!	!
2r	.	2r	.	(8..cn\L	.	2r	2r	.	2r	.	2r	.	2r	.	2r	.	2r	.	(8a/L	.	(4f#/	.
.	.	.	.	.	.	.	.	.	.	.	.	.	.	.	.	.	.	.	16d/Jk)	.	.	.
.	.	.	.	.	.	.	.	.	.	.	.	.	.	.	.	.	.	.	16r	.	.	.
.	.	.	.	32d\Jkk)	.	.	.	.	.	.	.	.	.	.	.	.	.	.	.	.	.	.
.	.	.	.	8B'\L	.	.	.	.	.	.	.	.	.	.	.	.	.	.	(8b/L	.	4g#/)	.
.	.	.	.	8e'\J	.	.	.	.	.	.	.	.	.	.	.	.	.	.	16d/Jk)	.	.	.
.	.	.	.	.	.	.	.	.	.	.	.	.	.	.	.	.	.	.	16r	.	.	.
=10	=10	=10	=10	=10	=10	=10	=10	=10	=10	=10	=10	=10	=10	=10	=10	=10	=10	=10	=10	=10	=10	=10
2r	.	2r	.	8A\	.	2r	2r	.	2r	.	2r	.	2r	.	2r	.	2r	.	8cc'\L	.	8a'\L	.
.	.	.	.	8r	.	.	.	.	.	.	.	.	.	.	.	.	.	.	8dd'\	.	8b'\	.
.	.	.	.	4r	.	.	.	.	.	.	.	.	.	.	.	.	.	.	8ee'\J	.	8cc'\J	.
.	.	.	.	.	.	.	.	.	.	.	.	.	.	.	.	.	.	.	8r	.	8r	.
=11	=11	=11	=11	=11	=11	=11	=11	=11	=11	=11	=11	=11	=11	=11	=11	=11	=11	=11	=11	=11	=11	=11
2r	.	(8..fnz\L	z	2r	.	2r	2r	.	2r	.	2r	.	2r	.	2r	.	2r	.	(8dd\L	.	(4b\	.
.	.	.	.	.	.	.	.	.	.	.	.	.	.	.	.	.	.	.	16g\Jk)	.	.	.
.	.	.	.	.	.	.	.	.	.	.	.	.	.	.	.	.	.	.	16r	.	.	.
.	.	32g\Jkk)	.	.	.	.	.	.	.	.	.	.	.	.	.	.	.	.	.	.	.	.
.	.	8e'\L	.	.	.	.	.	.	.	.	.	.	.	.	.	.	.	.	(8ee\L	.	4cc#\)	.
.	.	8a'\J	.	.	.	.	.	.	.	.	.	.	.	.	.	.	.	.	16g\Jk)	.	.	.
.	.	.	.	.	.	.	.	.	.	.	.	.	.	.	.	.	.	.	16r	.	.	.
=12	=12	=12	=12	=12	=12	=12	=12	=12	=12	=12	=12	=12	=12	=12	=12	=12	=12	=12	=12	=12	=12	=12
2r	.	8d\	.	2r	.	2r	2r	.	2r	.	2r	.	2r	.	2r	.	2r	.	8ffn'\L	.	8dd'\L	.
.	.	8r	.	.	.	.	.	.	.	.	.	.	.	.	.	.	.	.	8gg'\	.	8ee'\	.
.	.	8r	.	.	.	.	.	.	.	.	.	.	.	.	.	.	.	.	8aa'\	.	8ffn'\	.
.	.	8g\	.	.	.	.	.	.	.	.	.	.	.	.	.	.	.	.	8dd'\J	.	8b'\J	.
=13	=13	=13	=13	=13	=13	=13	=13	=13	=13	=13	=13	=13	=13	=13	=13	=13	=13	=13	=13	=13	=13	=13
2r	.	4c\	.	4r	.	2r	2r	.	2r	.	2r	.	2r	.	2r	.	2r	.	8ee'\L	.	8cc'\L	.
.	.	.	.	.	.	.	.	.	.	.	.	.	.	.	.	.	.	.	&(16ffn\L)	.	&(16dd\L)	.
.	.	.	.	.	.	.	.	.	.	.	.	.	.	.	.	.	.	.	32ee\L	.	32cc\L	.
.	.	.	.	.	.	.	.	.	.	.	.	.	.	.	.	.	.	.	32ff\JJJ&)	.	32dd\JJJ&)	.
.	.	8r	.	8r	.	.	.	.	.	.	.	.	.	.	.	.	.	.	8gg'\L	.	8ee'/L	.
!	!	!	!	! Bassi	!	!	!	!	!	!	!	!	!	!	!	!	!	!	!	!	!	!
.	.	8G#'/	.	8G#'\	.	.	.	.	.	.	.	.	.	.	.	.	.	.	(16ff\L	.	8B'/J	.
.	.	.	.	.	.	.	.	.	.	.	.	.	.	.	.	.	.	.	16ee\JJ)	.	.	.
=14	=14	=14	=14	=14	=14	=14	=14	=14	=14	=14	=14	=14	=14	=14	=14	=14	=14	=14	=14	=14	=14	=14
2r	.	8A'/L	.	8A'\L	.	2r	2r	.	2r	.	2r	.	2r	.	2r	.	2r	.	(16ee\LL	.	8c'/L	.
.	.	.	.	.	.	.	.	.	.	.	.	.	.	.	.	.	.	.	16dd\)	.	.	.
.	.	8B'/	.	8B'\	.	.	.	.	.	.	.	.	.	.	.	.	.	.	(16dd\	.	8d'/	.
.	.	.	.	.	.	.	.	.	.	.	.	.	.	.	.	.	.	.	16cc\JJ)	.	.	.
.	.	8c'/	.	8c'\	.	.	.	.	.	.	.	.	.	.	.	.	.	.	8cc'\L	.	8e'/	.
.	.	8G#'/J	.	8G#'\J	.	.	.	.	.	.	.	.	.	.	.	.	.	.	(16ffn\L	.	8B'/J	.
.	.	.	.	.	.	.	.	.	.	.	.	.	.	.	.	.	.	.	16ee\JJ)	.	.	.
=15	=15	=15	=15	=15	=15	=15	=15	=15	=15	=15	=15	=15	=15	=15	=15	=15	=15	=15	=15	=15	=15	=15
2r	.	8A'/L	.	8A'\L	.	2r	2r	.	2r	.	2r	.	2r	.	2r	.	2r	.	(16ee\LL	.	8c'/L	.
.	.	.	.	.	.	.	.	.	.	.	.	.	.	.	.	.	.	.	16dd\)	.	.	.
.	.	8B'/	.	8B'\	.	.	.	.	.	.	.	.	.	.	.	.	.	.	(16dd\	.	8e'/	.
.	.	.	.	.	.	.	.	.	.	.	.	.	.	.	.	.	.	.	16cc\JJ)	.	.	.
.	.	8c'/	.	8c'\	.	.	.	.	.	.	.	.	.	.	.	.	.	.	(16cc\LL	.	8e'/	.
.	.	.	.	.	.	.	.	.	.	.	.	.	.	.	.	.	.	.	16b\)	.	.	.
.	.	8c#'/J	.	8c#'\J	.	.	.	.	.	.	.	.	.	.	.	.	.	.	(16b\	.	8g'/J	.
.	.	.	.	.	.	.	.	.	.	.	.	.	.	.	.	.	.	.	16a\JJ)	.	.	.
=16	=16	=16	=16	=16	=16	=16	=16	=16	=16	=16	=16	=16	=16	=16	=16	=16	=16	=16	=16	=16	=16	=16
2r	.	4d\	.	4d\	.	2r	2r	.	2r	.	2r	.	2r	.	2r	.	2r	.	(8..a/L	.	4f#/	.
.	.	.	.	.	.	.	.	.	.	.	.	.	.	.	.	.	.	.	32b/Jkk)	.	.	.
.	.	4r	.	4r	.	.	.	.	.	.	.	.	.	.	.	.	.	.	8a'/L	.	4r	.
.	.	.	.	.	.	.	.	.	.	.	.	.	.	.	.	.	.	.	8a#'/J	.	.	.
=17	=17	=17	=17	=17	=17	=17	=17	=17	=17	=17	=17	=17	=17	=17	=17	=17	=17	=17	=17	=17	=17	=17
!	!	!	!	!	!	!	!	!	!	!	! 1.	!	!	!	!	!	!	!	!	!	!	!
2r	.	8g\	.	8G\	.	2r	2r	.	2r	.	(8..B\L	p	2r	.	2r	.	2r	.	(8..b\L	.	8d/	.
.	.	8r	.	8r	.	.	.	.	.	.	.	.	.	.	.	.	.	.	.	.	8r	.
.	.	.	.	.	.	.	.	.	.	.	32c\Jkk)	.	.	.	.	.	.	.	32cc\Jkk)	.	.	.
.	.	8f#\	.	8D\	.	.	.	.	.	.	8A'\L	.	.	.	.	.	.	.	8a'\L	.	8c/	.
.	.	8r	.	8r	.	.	.	.	.	.	8d'\J	.	.	.	.	.	.	.	8dd'\J	.	8r	.
=18	=18	=18	=18	=18	=18	=18	=18	=18	=18	=18	=18	=18	=18	=18	=18	=18	=18	=18	=18	=18	=18	=18
2r	.	8g\	.	8E\	.	2r	2r	.	2r	.	8G\	.	2r	.	2r	.	2r	.	8g/	.	8B/	.
.	.	8r	.	8r	.	.	.	.	.	.	8r	.	.	.	.	.	.	.	8r	.	8r	.
.	.	8r	.	8r	.	.	.	.	.	.	8r	.	.	.	.	.	.	.	8r	.	8r	.
.	.	(8ez\	z	(8Cz/	z	.	.	.	.	.	(8ez\	z	.	.	.	.	.	.	(8eez\	z	(8gz/	z
=19	=19	=19	=19	=19	=19	=19	=19	=19	=19	=19	=19	=19	=19	=19	=19	=19	=19	=19	=19	=19	=19	=19
2r	.	8A/)	.	8c\)	.	2r	2r	.	2r	.	8F#\)	.	2r	.	2r	.	2r	.	8f#/)	.	8d/)	.
.	.	8d'\L	p	8B'\L	p	.	.	.	.	.	8G'\L	p	.	.	.	.	.	.	8g'/L	p	8d'/L	p
.	.	8c'\J	.	8A'\	.	.	.	.	.	.	8A'\	.	.	.	.	.	.	.	8a'/	.	8f#'/	.
.	.	(16B/LL	.	8G'\J	.	.	.	.	.	.	8B'\J	.	.	.	.	.	.	.	8b'/J	.	8g'/J	.
.	.	16G/JJ)	.	.	.	.	.	.	.	.	.	.	.	.	.	.	.	.	.	.	.	.
=20	=20	=20	=20	=20	=20	=20	=20	=20	=20	=20	=20	=20	=20	=20	=20	=20	=20	=20	=20	=20	=20	=20
2r	.	4D/	.	4D\	.	2r	2r	.	2r	.	8c'\L	.	2r	.	2r	.	2r	.	8cc'/L	.	8a'/L	.
.	.	.	.	.	.	.	.	.	.	.	&(16B\L)	.	.	.	.	.	.	.	&(16b/L)	.	(32aP/	.
.	.	.	.	.	.	.	.	.	.	.	.	.	.	.	.	.	.	.	.	.	&(32gp/L)	.
.	.	.	.	.	.	.	.	.	.	.	32A\L	.	.	.	.	.	.	.	32a/L	.	32f#/L	.
.	.	.	.	.	.	.	.	.	.	.	32B\JJJ&)	.	.	.	.	.	.	.	32b/JJJ&)	.	32g/JJJ&)	.
.	.	4r	.	4r	.	.	.	.	.	.	8A'\L	.	.	.	.	.	.	.	8a'/L	.	8f#'/L	.
.	.	.	.	.	.	.	.	.	.	.	8B'\J	.	.	.	.	.	.	.	8b'/J	.	8g#'/J	.
=21	=21	=21	=21	=21	=21	=21	=21	=21	=21	=21	=21	=21	=21	=21	=21	=21	=21	=21	=21	=21	=21	=21
2r	.	2F#/	.	(4.D\	.	2r	2r	.	2r	.	(8..c\L	.	2r	.	2r	.	2r	.	(8..cc\L	.	(8..a/L	.
.	.	.	.	.	.	.	.	.	.	.	32d\Jkk)	.	.	.	.	.	.	.	32dd\Jkk)	.	32b/Jkk)	.
.	.	.	.	.	.	.	.	.	.	.	8c'\L	.	.	.	.	.	.	.	8cc'\L	.	8a'/L	.
.	.	.	.	8C/)	.	.	.	.	.	.	8c#'\J	.	.	.	.	.	.	.	8cc#'\J	.	8a'/J	.
=22	=22	=22	=22	=22	=22	=22	=22	=22	=22	=22	=22	=22	=22	=22	=22	=22	=22	=22	=22	=22	=22	=22
2r	.	8D/	.	(2BB/	.	2r	2r	.	2r	.	(8..d\L	.	2r	.	2r	.	2r	.	(8..dd\L	.	2g/	.
.	.	4d\	.	.	.	.	.	.	.	.	.	.	.	.	.	.	.	.	.	.	.	.
.	.	.	.	.	.	.	.	.	.	.	32e\Jkk)	.	.	.	.	.	.	.	32ee\Jkk)	.	.	.
.	.	.	.	.	.	.	.	.	.	.	8d'\L	.	.	.	.	.	.	.	8dd'\L	.	.	.
.	.	8d#\	.	.	.	.	.	.	.	.	8d#'\Jxx	.	.	.	.	.	.	.	8dd#'\J	.	.	.
=23	=23	=23	=23	=23	=23	=23	=23	=23	=23	=23	=23	=23	=23	=23	=23	=23	=23	=23	=23	=23	=23	=23
2r	.	2d#\	.	2C/)	.	2r	2r	.	2r	.	[2d#\	.	2r	.	2r	.	2r	.	2dd#\	.	2g/ 2G/	.
=24	=24	=24	=24	=24	=24	=24	=24	=24	=24	=24	=24	=24	=24	=24	=24	=24	=24	=24	=24	=24	=24	=24
2r	.	(4.f#z\	z	2Cz/	z	2r	2r	.	2r	.	4.d#z\] 4.A\	z	2r	.	2r	.	2r	.	(4.ff#z\	z	(4.d#z/ (4.An/	z
.	.	8e\)	.	.	.	.	.	.	.	.	8e\ 8G\	.	.	.	.	.	.	.	8ee\)	.	8e/ 8G/)	.
=25	=25	=25	=25	=25	=25	=25	=25	=25	=25	=25	=25	=25	=25	=25	=25	=25	=25	=25	=25	=25	=25	=25
*	*	*	*	*	*	*v	*v	*	*	*	*	*	*	*	*	*	*	*	*	*	*	*
2r;	.	2e;\	.	2C;/	.	2r;	.	2r;	.	2e;\ 2G\	.	2r;	.	2r;	.	2r;	.	2ee;\	.	2e;/ 2G/	.
=26	=26	=26	=26	=26	=26	=26	=26	=26	=26	=26	=26	=26	=26	=26	=26	=26	=26	=26	=26	=26	=26
*	*	*	*	*	*	*^	*	*	*	*	*	*	*	*	*	*	*	*	*	*	*
2r	.	(4.a\	p	(4.A\	p	2r	2r	.	2r	.	2r	.	2r	.	2r	.	2r	.	(8..ee\L	p	(8..cc\L	p
.	.	.	.	.	.	.	.	.	.	.	.	.	.	.	.	.	.	.	32ffn\Jkk)	.	32dd\Jkk)	.
.	.	.	.	.	.	.	.	.	.	.	.	.	.	.	.	.	.	.	8ee\L	.	8cc'\L	.
.	.	8g\)	.	8G\)	.	.	.	.	.	.	.	.	.	.	.	.	.	.	8ee'\J	.	8cc'\J	.
=27	=27	=27	=27	=27	=27	=27	=27	=27	=27	=27	=27	=27	=27	=27	=27	=27	=27	=27	=27	=27	=27	=27
2r	.	4.f#\	f	4.F#\	f	2r	2r	.	2r	.	2r	.	2r	.	2r	.	2r	.	(16dP/LL	.	4.a/ 4.d/	f
.	.	.	.	.	.	.	.	.	.	.	.	.	.	.	.	.	.	.	16ddP/JJ	.	.	.
.	.	.	.	.	.	.	.	.	.	.	.	.	.	.	.	.	.	.	4cccnp\)	f	.	.
.	.	8g\	p	8G\	p	.	.	.	.	.	.	.	.	.	.	.	.	.	8bb'\	p	8b'\	p
=28	=28	=28	=28	=28	=28	=28	=28	=28	=28	=28	=28	=28	=28	=28	=28	=28	=28	=28	=28	=28	=28	=28
2r	.	8c\	.	8C/	.	2r	2r	.	2r	.	2r	.	2r	.	2r	.	2r	.	8aa'\L	.	8cc'\L	.
.	.	8r	.	8r	.	.	.	.	.	.	.	.	.	.	.	.	.	.	8gg'\	.	8b'\	.
.	.	8d\	.	8D\	.	.	.	.	.	.	.	.	.	.	.	.	.	.	8ff#'\	.	8a'\	.
.	.	8r	.	8r	.	.	.	.	.	.	.	.	.	.	.	.	.	.	8aa'\J	.	8cc'\J	.
=29	=29	=29	=29	=29	=29	=29	=29	=29	=29	=29	=29	=29	=29	=29	=29	=29	=29	=29	=29	=29	=29	=29
2r	.	4.c#\	f	4.E\	f	2r	2r	.	2r	.	2r	.	2r	.	2r	.	2r	.	4.gg\	f	4.b\	f
.	.	8r	.	8r	.	.	.	.	.	.	.	.	.	.	.	.	.	.	8ff#\	p	8a/	p
=30	=30	=30	=30	=30	=30	=30	=30	=30	=30	=30	=30	=30	=30	=30	=30	=30	=30	=30	=30	=30	=30	=30
2r	.	4r	.	4r	.	2r	2r	.	2r	.	2r	.	2r	.	2r	.	2r	.	(8ee\L	.	(8g/L	.
.	.	.	.	.	.	.	.	.	.	.	.	.	.	.	.	.	.	.	8dd\	.	8f#/	.
.	.	8r	.	8r	.	.	.	.	.	.	.	.	.	.	.	.	.	.	8cc#\	.	8e/	.
.	.	8c#\	p	8c#\	p	.	.	.	.	.	.	.	.	.	.	.	.	.	8ee\J)	.	8g/J)	.
=31	=31	=31	=31	=31	=31	=31	=31	=31	=31	=31	=31	=31	=31	=31	=31	=31	=31	=31	=31	=31	=31	=31
2r	.	(8d/L	.	(8d\L	.	2r	2r	.	2r	.	2r	.	2r	.	2r	.	2r	.	(8dd\L	.	(8f#/L	.
.	.	8F#/	.	8F#\	.	.	.	.	.	.	.	.	.	.	.	.	.	.	8ccn\	.	8e-/	.
.	.	8G/	.	8G\	.	.	.	.	.	.	.	.	.	.	.	.	.	.	8b\	.	8d/	.
.	.	8E-/J)	.	8E-\J)	.	.	.	.	.	.	.	.	.	.	.	.	.	.	8a\J)	.	8c/J)	.
=32	=32	=32	=32	=32	=32	=32	=32	=32	=32	=32	=32	=32	=32	=32	=32	=32	=32	=32	=32	=32	=32	=32
2r	.	(8D/L	.	(8D/L	.	2r	2r	.	2r	.	2r	.	2r	.	2r	.	2r	.	8g#/L	.	(8B/L	.
.	.	8C#/	.	8C#/	.	.	.	.	.	.	.	.	.	.	.	.	.	.	8gn/J	.	8B-/	.
!	!	!	!	!	!	!	!	!	!	!	!	!	!	!	!	!	!	!	! (16aP/LL	!	!	!
!	!	!	!	!	!	!	!	!	!	!	!	!	!	!	!	!	!	!	! 16gP/	!	!	!
!	!	!	!	!	!	!	!	!	!	!	!	!	!	!	!	!	!	!	! 16f#P/JJ	!	!	!
.	.	8D/)	.	8D/)	.	.	.	.	.	.	.	.	.	.	.	.	.	.	8gp/L	.	8A/	.
.	.	8D'/J	.	8D'/J	.	.	.	.	.	.	.	.	.	.	.	.	.	.	16a/L	.	8c/J)	.
.	.	.	.	.	.	.	.	.	.	.	.	.	.	.	.	.	.	.	16f#/JJ)	.	.	.
=33	=33	=33	=33	=33	=33	=33	=33	=33	=33	=33	=33	=33	=33	=33	=33	=33	=33	=33	=33	=33	=33	=33
!	!	!	!	!	!	!	!	!	!	!	! 1.	!	!	!	!	!	!	!	!	!	!	!
2r	.	(8D/L	.	[2GG/	.	2r	2r	.	2r	.	(8G\L	p	2r	.	2r	.	2r	.	4.g/	.	(8B/L	.
.	.	8B/	.	.	.	.	.	.	.	.	8B\	.	.	.	.	.	.	.	.	.	8d/	.
.	.	8d/	.	.	.	.	.	.	.	.	8d\	.	.	.	.	.	.	.	.	.	8B/	.
.	.	8B/J)	.	.	.	.	.	.	.	.	8B\J)	.	.	.	.	.	.	.	(16b\LL	.	8d/J)	.
.	.	.	.	.	.	.	.	.	.	.	.	.	.	.	.	.	.	.	16dd\JJ)	.	.	.
=34	=34	=34	=34	=34	=34	=34	=34	=34	=34	=34	=34	=34	=34	=34	=34	=34	=34	=34	=34	=34	=34	=34
2r	.	2c\	.	2GG/_	.	2r	2r	.	2r	.	2c\	.	2r	.	2r	.	2r	.	(16dd\LL	.	(4e/	.
.	.	.	.	.	.	.	.	.	.	.	.	.	.	.	.	.	.	.	16cc\)	.	.	.
.	.	.	.	.	.	.	.	.	.	.	.	.	.	.	.	.	.	.	(16cc\	.	.	.
.	.	.	.	.	.	.	.	.	.	.	.	.	.	.	.	.	.	.	16b\JJ)	.	.	.
.	.	.	.	.	.	.	.	.	.	.	.	.	.	.	.	.	.	.	(16b/LL	.	4f#/)	.
.	.	.	.	.	.	.	.	.	.	.	.	.	.	.	.	.	.	.	16a/)	.	.	.
.	.	.	.	.	.	.	.	.	.	.	.	.	.	.	.	.	.	.	(16a/	.	.	.
.	.	.	.	.	.	.	.	.	.	.	.	.	.	.	.	.	.	.	16g/JJ)	.	.	.
=35	=35	=35	=35	=35	=35	=35	=35	=35	=35	=35	=35	=35	=35	=35	=35	=35	=35	=35	=35	=35	=35	=35
2r	.	(4B/	.	2GG/_	.	2r	2r	.	2r	.	(4B\	.	2r	.	2r	.	2r	.	4.g/	.	(8g/L	.
.	.	.	.	.	.	.	.	.	.	.	.	.	.	.	.	.	.	.	.	.	8d/	.
.	.	8d\L	.	.	.	.	.	.	.	.	8d\L	.	.	.	.	.	.	.	.	.	8B/	.
.	.	8B\J)	.	.	.	.	.	.	.	.	8B\J)	.	.	.	.	.	.	.	(16b\LL	.	8d/J)	.
.	.	.	.	.	.	.	.	.	.	.	.	.	.	.	.	.	.	.	16dd\JJ)	.	.	.
=36	=36	=36	=36	=36	=36	=36	=36	=36	=36	=36	=36	=36	=36	=36	=36	=36	=36	=36	=36	=36	=36	=36
2r	.	2c\	.	2GG/]	.	2r	2r	.	2r	.	2c\	.	2r	.	2r	.	2r	.	(16dd\LL	.	(4e/	.
.	.	.	.	.	.	.	.	.	.	.	.	.	.	.	.	.	.	.	16cc\)	.	.	.
.	.	.	.	.	.	.	.	.	.	.	.	.	.	.	.	.	.	.	(16cc\	.	.	.
.	.	.	.	.	.	.	.	.	.	.	.	.	.	.	.	.	.	.	16b\JJ)	.	.	.
.	.	.	.	.	.	.	.	.	.	.	.	.	.	.	.	.	.	.	(16b/LL	.	4f#/)	.
.	.	.	.	.	.	.	.	.	.	.	.	.	.	.	.	.	.	.	16a/)	.	.	.
.	.	.	.	.	.	.	.	.	.	.	.	.	.	.	.	.	.	.	(16a/	.	.	.
.	.	.	.	.	.	.	.	.	.	.	.	.	.	.	.	.	.	.	16g/JJ)	.	.	.
=37	=37	=37	=37	=37	=37	=37	=37	=37	=37	=37	=37	=37	=37	=37	=37	=37	=37	=37	=37	=37	=37	=37
2r	.	4B/	.	(16G\LL	.	2r	2r	.	2r	.	4B\	.	2r	.	2r	.	2r	.	4g/	.	4g/	.
.	.	.	.	16D\)	.	.	.	.	.	.	.	.	.	.	.	.	.	.	.	.	.	.
.	.	.	.	(16D\	.	.	.	.	.	.	.	.	.	.	.	.	.	.	.	.	.	.
.	.	.	.	16BB\JJ)	.	.	.	.	.	.	.	.	.	.	.	.	.	.	.	.	.	.
.	.	4r	.	8GG/	.	.	.	.	.	.	4r	.	.	.	.	.	.	.	4r	.	4r	.
.	.	.	.	8r	.	.	.	.	.	.	.	.	.	.	.	.	.	.	.	.	.	.
=38:|!	=38:|!	=38:|!	=38:|!	=38:|!	=38:|!	=38:|!	=38:|!	=38:|!	=38:|!	=38:|!	=38:|!	=38:|!	=38:|!	=38:|!	=38:|!	=38:|!	=38:|!	=38:|!	=38:|!	=38:|!	=38:|!	=38:|!
*>C	*	*>C	*	*>C	*	*>C	*	*	*>C	*	*>C	*	*>C	*	*>C	*	*>C	*	*>C	*	*>C	*
*k[b-e-]	*	*k[b-e-]	*	*k[b-e-]	*	*k[b-e-]	*	*	*	*	*k[b-e-]	*	*	*	*	*	*	*	*k[b-e-]	*	*k[b-e-]	*
*g:	*	*g:	*	*g:	*	*g:	*	*	*	*	*g:	*	*	*	*	*	*	*	*g:	*	*g:	*
! 1.	!	!	!	!	!	!	!	!	!	!	!	!	!	!	!	!	!	!	!	!	!	!
(8..bb-\L	p	2r	.	2r	.	2r	[2dd\	p	2r	.	4G\	p	2r	.	2r	.	2r	.	2r	.	2r	.
32ccc\Jkk)	.	.	.	.	.	.	.	.	.	.	.	.	.	.	.	.	.	.	.	.	.	.
8aa'\L	.	.	.	.	.	.	.	.	.	.	4d\	.	.	.	.	.	.	.	.	.	.	.
8ddd'\J	.	.	.	.	.	.	.	.	.	.	.	.	.	.	.	.	.	.	.	.	.	.
=39	=39	=39	=39	=39	=39	=39	=39	=39	=39	=39	=39	=39	=39	=39	=39	=39	=39	=39	=39	=39	=39	=39
4.gg\	.	2r	.	2r	.	4r	8dd\L]	.	2r	.	4.e-\	.	2r	.	2r	.	2r	.	2r	.	2r	.
.	.	.	.	.	.	.	8g\J	.	.	.	.	.	.	.	.	.	.	.	.	.	.	.
.	.	.	.	.	.	8r	[4cc\	.	.	.	.	.	.	.	.	.	.	.	.	.	.	.
(8eee-z\	z	.	.	.	.	(8ggz/	.	z	.	.	8c\	.	.	.	.	.	.	.	.	.	.	.
=40	=40	=40	=40	=40	=40	=40	=40	=40	=40	=40	=40	=40	=40	=40	=40	=40	=40	=40	=40	=40	=40	=40
8ff#\)	.	2r	.	2r	.	8ee-/L)	8cc\L]	.	2r	.	[2d\	.	2r	.	2r	.	2r	.	2r	.	2r	.
(8gg'\L	p	.	.	.	.	(8dd'/	(8b-'\	p	.	.	.	.	.	.	.	.	.	.	.	.	.	.
8aa'\	.	.	.	.	.	8cc'/	8f#'\	.	.	.	.	.	.	.	.	.	.	.	.	.	.	.
8bb-'\J)	.	.	.	.	.	8cc#'/J)	8g'\J)	.	.	.	.	.	.	.	.	.	.	.	.	.	.	.
=41	=41	=41	=41	=41	=41	=41	=41	=41	=41	=41	=41	=41	=41	=41	=41	=41	=41	=41	=41	=41	=41	=41
(4bb-\	.	2r	.	2r	.	(4cc#/	(4g\	.	2r	.	4.d\]	.	2r	.	2r	.	2r	.	2r	.	2r	.
8aa\)	.	.	.	.	.	8dd/)	8f#\)	.	.	.	.	.	.	.	.	.	.	.	.	.	.	.
8r	.	.	.	.	.	8r	8ryy	.	.	.	8r	.	.	.	.	.	.	.	.	.	.	.
*	*	*	*	*	*	*	*	*	*	*	*clefC4	*	*	*	*	*	*	*	*	*	*	*
=42	=42	=42	=42	=42	=42	=42	=42	=42	=42	=42	=42	=42	=42	=42	=42	=42	=42	=42	=42	=42	=42	=42
! zu 2	!	!	!	!	!	!	!	!	!	!	!	!	! zu 2	!	!	!	!	!	!	!	!	!
*	*	*	*	*	*	*	*	*	*^	*	*^	*	*	*	*	*	*	*	*	*	*	*
2ffn\	ff	16D'\LL	ff	16D'\LL	ff	2aa\	2ffn\	ff	2ff/	2ff\	ff	2d/	2d\	ff	2g/	ff	2cc/ 2c/	ff	4D\	ff	8.aa\L	ff	2fn/ 2A/	ff
.	.	16fn'\	.	16A'\	.	.	.	.	.	.	.	.	.	.	.	.	.	.	.	.	.	.	.	.
.	.	16d'\	.	16Fn'\	.	.	.	.	.	.	.	.	.	.	.	.	.	.	.	.	.	.	.	.
.	.	16f'\JJ	.	16d'\JJ	.	.	.	.	.	.	.	.	.	.	.	.	.	.	.	.	(32ffn\LL	.	.	.
.	.	.	.	.	.	.	.	.	.	.	.	.	.	.	.	.	.	.	.	.	32gg\JJJ)	.	.	.
.	.	16D'\LL	.	16D'\LL	.	.	.	.	.	.	.	.	.	.	.	.	.	.	8D\L	.	8aa\L	.	.	.
.	.	16f'\	.	16A'\	.	.	.	.	.	.	.	.	.	.	.	.	.	.	.	.	.	.	.	.
.	.	16d'\	.	16F'\	.	.	.	.	.	.	.	.	.	.	.	.	.	.	8D\J	.	8d/J	.	.	.
.	.	16f'\JJ	.	16d'\JJ	.	.	.	.	.	.	.	.	.	.	.	.	.	.	.	.	.	.	.	.
=43	=43	=43	=43	=43	=43	=43	=43	=43	=43	=43	=43	=43	=43	=43	=43	=43	=43	=43	=43	=43	=43	=43	=43	=43
8.bb-\L	.	8.e\L	.	2A\	.	8.bb-/L	8.bb-\L	.	2gg/	(4ff\	.	2e/	(4d\	.	2dd\	.	2dd\ 2g\	.	4AA/	.	(4d/	.	16e'\LL	.
.	.	.	.	.	.	.	.	.	.	.	.	.	.	.	.	.	.	.	.	.	.	.	16b-'\	.
.	.	.	.	.	.	.	.	.	.	.	.	.	.	.	.	.	.	.	.	.	.	.	16g'\	.
(32bb-\LL	.	(32g\LL	.	.	.	(32bb-/LL	(32bb-\LL	.	.	.	.	.	.	.	.	.	.	.	.	.	.	.	16ee'\JJ	.
32aa\JJJ)	.	32a\JJJ)	.	.	.	32aa/JJJ)	32aa\JJJ)	.	.	.	.	.	.	.	.	.	.	.	.	.	.	.	.	.
16gg'\LL	.	8b-'\L	.	.	.	16gg'/LL	16gg'\LL	.	.	4ee\)	.	.	4c#\)	.	.	.	.	.	8AA/L	.	4c#/)	.	16e'\LL	.
(32gg\L	.	.	.	.	.	(32gg/L	(32gg\L	.	.	.	.	.	.	.	.	.	.	.	.	.	.	.	16b-'\	.
32ffn\JJJ)	.	.	.	.	.	32ffn/JJJ)	32ffn\JJJ)	.	.	.	.	.	.	.	.	.	.	.	.	.	.	.	.	.
16ee'\LL	.	8b-'\J	.	.	.	16ee'/LL	16ee'\LL	.	.	.	.	.	.	.	.	.	.	.	8AA/J	.	.	.	16g'\	.
(32ee\L	.	.	.	.	.	(32ee/L	(32ee\L	.	.	.	.	.	.	.	.	.	.	.	.	.	.	.	16ee'\JJ	.
32dd\JJJ)	.	.	.	.	.	32dd/JJJ)	32dd\JJJ)	.	.	.	.	.	.	.	.	.	.	.	.	.	.	.	.	.
=44	=44	=44	=44	=44	=44	=44	=44	=44	=44	=44	=44	=44	=44	=44	=44	=44	=44	=44	=44	=44	=44	=44	=44	=44
*	*	*	*	*	*	*	*	*	*v	*v	*	*	*	*	*	*	*	*	*	*	*	*	*	*
*	*	*	*	*	*	*	*	*	*	*	*v	*v	*	*	*	*	*	*	*	*	*	*	*
8cc#\	.	16A\LL	.	16AA\LL	.	(16cc#/LL	8cc#\	.	2gg\ 2ee\	.	2e\ 2c#\	.	2dd\	.	2dd\ 2g\	.	16AA/LL	.	8.eee\L	.	2g/ 2A/	.
.	.	16e\	.	16E\	.	16ee/JJ)	.	.	.	.	.	.	.	.	.	.	16AA/	.	.	.	.	.
4ccc#\	.	16c#\	.	16C#\	.	4gg\	4ee\	.	.	.	.	.	.	.	.	.	16AA/	.	.	.	.	.
.	.	16e\JJ	.	16A\JJ	.	.	.	.	.	.	.	.	.	.	.	.	16AA/	.	(32ccc#\LL	.	.	.
.	.	.	.	.	.	.	.	.	.	.	.	.	.	.	.	.	.	.	32ddd\JJJ)	.	.	.
.	.	16A\LL	.	16AA\LL	.	.	.	.	.	.	.	.	.	.	.	.	16AA/	.	8eee\L	.	.	.
.	.	16e\	.	16E\	.	.	.	.	.	.	.	.	.	.	.	.	16AA/	.	.	.	.	.
8ccc#\	.	16c#\	.	16C#\	.	8gg\	8ee\	.	.	.	.	.	.	.	.	.	16AA/	.	(16A/L	.	.	.
.	.	16e\JJ	.	16A\JJ	.	.	.	.	.	.	.	.	.	.	.	.	16AA/JJ	.	16g/JJ)	.	.	.
=45	=45	=45	=45	=45	=45	=45	=45	=45	=45	=45	=45	=45	=45	=45	=45	=45	=45	=45	=45	=45	=45	=45
8.ddd\L	.	16A\LL	.	2D\	.	8.ddd/L	8.dd\L	.	(4bb-\ 4gg\	.	(4g\ 4e\	.	2g/	.	2cc/ 2c/	.	4D\	.	(4g/	.	16A/LL	.
.	.	16e\	.	.	.	.	.	.	.	.	.	.	.	.	.	.	.	.	.	.	16e/	.
.	.	16A\	.	.	.	.	.	.	.	.	.	.	.	.	.	.	.	.	.	.	16A/	.
(32aa\LL	.	16a\JJ	.	.	.	(32aa/LL	(32aa\LL	.	.	.	.	.	.	.	.	.	.	.	.	.	16a/JJ	.
32gg\JJJ)	.	.	.	.	.	32gg/JJJ)	32gg\JJJ)	.	.	.	.	.	.	.	.	.	.	.	.	.	.	.
16ffn'\LL	.	16A\LL	.	.	.	16ffn'/LL	16ffn'\LL	.	4aa-\ 4ff\)	.	4fn\ 4d\)	.	.	.	.	.	4r	.	4fn/)	.	16A/LL	.
(32aa\L	.	16fn\	.	.	.	(32aa/L	(32aa\L	.	.	.	.	.	.	.	.	.	.	.	.	.	16fn/	.
32gg\JJJ)	.	.	.	.	.	32gg/JJJ)	32gg\JJJ)	.	.	.	.	.	.	.	.	.	.	.	.	.	.	.
16ff'\LL	.	16d\	.	.	.	16ff'/LL	16ff'\LL	.	.	.	.	.	.	.	.	.	.	.	.	.	16d/	.
(32ff\L	.	16a\JJ	.	.	.	(32ff/L	(32ff\L	.	.	.	.	.	.	.	.	.	.	.	.	.	16a/JJ	.
32ee\JJJ)	.	.	.	.	.	32ee/JJJ)	32ee\JJJ)	.	.	.	.	.	.	.	.	.	.	.	.	.	.	.
=46	=46	=46	=46	=46	=46	=46	=46	=46	=46	=46	=46	=46	=46	=46	=46	=46	=46	=46	=46	=46	=46	=46
!	!	!	!	!	!	!	!	!	!	!	! zu 2	!	!	!	!	!	!	!	!	!	!	!
8dd\L	.	16d\LL	.	16D\LL	.	4dd/	4dd\	.	2r	.	2fn\	.	2r	.	2r	.	2r	.	(8.ffnz\L	z	16fn\LL	.
.	.	16b-\	.	16B-\	.	.	.	.	.	.	.	.	.	.	.	.	.	.	.	.	16dd\	.
8ffn\J	.	16fn\	.	16Fn\	.	.	.	.	.	.	.	.	.	.	.	.	.	.	.	.	16b-\	.
.	.	16dd\JJ	.	16d\JJ	.	.	.	.	.	.	.	.	.	.	.	.	.	.	32gg\LL	.	16ffn\JJ	.
.	.	.	.	.	.	.	.	.	.	.	.	.	.	.	.	.	.	.	32aa\JJJ)	.	.	.
(8.bb-\L	.	16d\LL	.	16D\LL	.	[4bb-/	4ffn\	.	.	.	.	.	.	.	.	.	.	.	(8.bb-z\L	z	16f\LL	.
.	.	16b-\	.	16B-\	.	.	.	.	.	.	.	.	.	.	.	.	.	.	.	.	16dd\	.
.	.	16f\	.	16F\	.	.	.	.	.	.	.	.	.	.	.	.	.	.	.	.	16b-\	.
32ccc\LL	.	16dd\JJ	.	16d\JJ	.	.	.	.	.	.	.	.	.	.	.	.	.	.	32ccc\LL	.	16ff\JJ	.
32ddd\JJJ)	.	.	.	.	.	.	.	.	.	.	.	.	.	.	.	.	.	.	32ddd\JJJ)	.	.	.
=47	=47	=47	=47	=47	=47	=47	=47	=47	=47	=47	=47	=47	=47	=47	=47	=47	=47	=47	=47	=47	=47	=47
2eee-\	.	16c\LL	.	16C\LL	.	4bb-/]	4ee-\	.	2r	.	4g\	.	2r	.	2r	.	2r	.	([8eee-z\L	z	16e-\LL	.
.	.	16g\	.	16G\	.	.	.	.	.	.	.	.	.	.	.	.	.	.	.	.	16b-\	.
.	.	16e-\	.	16E-\	.	.	.	.	.	.	.	.	.	.	.	.	.	.	32eee-\LL]	.	16g\	.
.	.	.	.	.	.	.	.	.	.	.	.	.	.	.	.	.	.	.	32ddd\	.	.	.
.	.	16cc\JJ	.	16c\JJ	.	.	.	.	.	.	.	.	.	.	.	.	.	.	32ccc\	.	16ee-\JJ	.
.	.	.	.	.	.	.	.	.	.	.	.	.	.	.	.	.	.	.	32bb-\JJJ)	.	.	.
.	.	16fn\LL	.	16Fn\LL	.	4aa/	4cc\	.	.	.	4fn\	.	.	.	.	.	.	.	8aa\L	.	16fn\LL	.
.	.	16cc\	.	16c\	.	.	.	.	.	.	.	.	.	.	.	.	.	.	.	.	16ee-\	.
.	.	16a\	.	16A\	.	.	.	.	.	.	.	.	.	.	.	.	.	.	(16ccc\L	.	16cc\	.
.	.	16ffn\JJ	.	16fn\JJ	.	.	.	.	.	.	.	.	.	.	.	.	.	.	16ee-\JJ)	.	16ee-\JJ	.
*	*	*	*	*	*	*	*	*	*	*	*clefF4	*	*	*	*	*	*	*	*	*	*	*
=48	=48	=48	=48	=48	=48	=48	=48	=48	=48	=48	=48	=48	=48	=48	=48	=48	=48	=48	=48	=48	=48	=48
16ddd\LK	.	16b-\LL	.	16B-\LL	.	16bb-/LK	16dd\LK	.	2r	.	16B-\LL	.	2r	.	2r	.	2r	.	(32dd\LLL	.	(32dd\LLL	.
.	.	.	.	.	.	.	.	.	.	.	.	.	.	.	.	.	.	.	32ffn\	.	32ffn\	.
(8gg\	.	16dd\	.	16d\	.	(8gg/	(8gg\	.	.	.	16d\	.	.	.	.	.	.	.	32gg\	.	32gg\	.
.	.	.	.	.	.	.	.	.	.	.	.	.	.	.	.	.	.	.	32ff\	.	32ff\	.
.	.	16a\	.	16A\	.	.	.	.	.	.	16A\	.	.	.	.	.	.	.	32gg\	.	32gg\	.
.	.	.	.	.	.	.	.	.	.	.	.	.	.	.	.	.	.	.	32ff\	.	32ff\	.
16ffn\Jk)	.	16cc\JJ	.	16c\JJ	.	16ffn/Jk)	16ffn\Jk)	.	.	.	16c\JJ	.	.	.	.	.	.	.	32gg\	.	32gg\	.
.	.	.	.	.	.	.	.	.	.	.	.	.	.	.	.	.	.	.	32ff\JJJ)	.	32ff\JJJ)	.
16r	.	16g\LL	.	16G\LL	.	16r	16ryy	.	.	.	16G\LL	.	.	.	.	.	.	.	(32b-\LLL	.	(32b-\LLL	.
.	.	.	.	.	.	.	.	.	.	.	.	.	.	.	.	.	.	.	32dd\	.	32dd\	.
(8ee-\L	.	16b-\	.	16B-\	.	(8ee-/L	(8ee-\L	.	.	.	16B-\	.	.	.	.	.	.	.	32ee-\	.	32ee-\	.
.	.	.	.	.	.	.	.	.	.	.	.	.	.	.	.	.	.	.	32dd\	.	32ddn\	.
.	.	16fn\	.	16Fn\	.	.	.	.	.	.	16Fn\	.	.	.	.	.	.	.	32ee-\	.	32ee-\	.
.	.	.	.	.	.	.	.	.	.	.	.	.	.	.	.	.	.	.	32dd\	.	32ddn\	.
16dd\Jk)	.	16a\JJ	.	16A\JJ	.	16dd/Jk)	16dd\Jk)	.	.	.	16A\JJ	.	.	.	.	.	.	.	32ee-\	.	32ee-\	.
.	.	.	.	.	.	.	.	.	.	.	.	.	.	.	.	.	.	.	32dd\JJJ)	.	32ddn\JJJ)	.
=49	=49	=49	=49	=49	=49	=49	=49	=49	=49	=49	=49	=49	=49	=49	=49	=49	=49	=49	=49	=49	=49	=49
16r	.	16e-\LL	.	16E-\LL	.	16r	16ryy	.	2r	.	16E-\LL	.	2r	.	2r	.	2r	.	(32g\LLL	.	(32g\LLL	.
.	.	.	.	.	.	.	.	.	.	.	.	.	.	.	.	.	.	.	32b-\	.	32b-\	.
(8cc\L	.	16g\	.	16G\	.	(8cc/L	(8cc\L	.	.	.	16G\	.	.	.	.	.	.	.	32cc\	.	32cc\	.
.	.	.	.	.	.	.	.	.	.	.	.	.	.	.	.	.	.	.	32b-\	.	32b-\	.
.	.	16d\	.	16D\	.	.	.	.	.	.	16D\	.	.	.	.	.	.	.	32cc\	.	32cc\	.
.	.	.	.	.	.	.	.	.	.	.	.	.	.	.	.	.	.	.	32b-\	.	32b-\	.
16b-\Jk)	.	16fn\JJ	.	16Fn\JJ	.	16b-/Jk)	16b-\Jk)	.	.	.	16Fn\JJ	.	.	.	.	.	.	.	32cc\	.	32cc\	.
.	.	.	.	.	.	.	.	.	.	.	.	.	.	.	.	.	.	.	32b-\JJJ)	.	32b-\JJJ)	.
16a\LL	.	16c\LL	.	16C\LL	.	16a/LL	16a\LL	.	.	.	16C\LL	.	.	.	.	.	.	.	(32a\LLL	.	(32a\LLL	.
.	.	.	.	.	.	.	.	.	.	.	.	.	.	.	.	.	.	.	32ee-\)	.	32ee-\)	.
16ee-\	.	16c\	.	16c\	.	16ee-/	16ee-\	.	.	.	16C\	.	.	.	.	.	.	.	32ee-'\	.	32ee-'\	.
.	.	.	.	.	.	.	.	.	.	.	.	.	.	.	.	.	.	.	32ee-'\JJJ	.	32ee-'\JJJ	.
16ee-\	.	16g\	.	16BB-\	.	16ee-/	16ee-\	.	.	.	16c\	.	.	.	.	.	.	.	(32g\LLL	.	(32g\LLL	.
.	.	.	.	.	.	.	.	.	.	.	.	.	.	.	.	.	.	.	32ee-\)	.	32ee-\)	.
16ee-\JJ	.	16g\JJ	.	16B-\JJ	.	16ee-/JJ	16ee-\JJ	.	.	.	16c\JJ	.	.	.	.	.	.	.	32ee-'\	.	32ee-'\	.
.	.	.	.	.	.	.	.	.	.	.	.	.	.	.	.	.	.	.	32ee-'\JJJ	.	32ee-'\JJJ	.
=50	=50	=50	=50	=50	=50	=50	=50	=50	=50	=50	=50	=50	=50	=50	=50	=50	=50	=50	=50	=50	=50	=50
2ccc\	.	16fn\LL	.	16AA/LL	.	2ee-\	2fn\	.	2r	.	2e-\ 2c\	.	2r	.	2r	.	2r	.	(32fn/LLL	.	(32fn/LLL	.
.	.	.	.	.	.	.	.	.	.	.	.	.	.	.	.	.	.	.	32g/)	.	32g/)	.
.	.	16cc\ 16f\	.	16AA/	.	.	.	.	.	.	.	.	.	.	.	.	.	.	32a'/	.	32a'/	.
.	.	.	.	.	.	.	.	.	.	.	.	.	.	.	.	.	.	.	32b-'/JJJ	.	32b-'/JJJ	.
.	.	16cc\ 16f\	.	16AA/	.	.	.	.	.	.	.	.	.	.	.	.	.	.	(32a\LLL	.	(32a\LLL	.
.	.	.	.	.	.	.	.	.	.	.	.	.	.	.	.	.	.	.	32b-\)	.	32b-\)	.
.	.	16cc\ 16f\JJ	.	16AA/JJ	.	.	.	.	.	.	.	.	.	.	.	.	.	.	32cc'\	.	32cc'\	.
.	.	.	.	.	.	.	.	.	.	.	.	.	.	.	.	.	.	.	32dd'\JJJ	.	32dd'\JJJ	.
.	.	16cc\ 16f\LL	.	16AA/LL	.	.	.	.	.	.	.	.	.	.	.	.	.	.	32ee-'\LLL	.	32ee-'\LLL	.
.	.	.	.	.	.	.	.	.	.	.	.	.	.	.	.	.	.	.	32dd'\	.	32ddn'\	.
.	.	16cc\ 16f\	.	16AA/	.	.	.	.	.	.	.	.	.	.	.	.	.	.	32cc'\	.	32cc'\	.
.	.	.	.	.	.	.	.	.	.	.	.	.	.	.	.	.	.	.	32b-'\JJJ	.	32b-'\JJJ	.
.	.	16cc\ 16f\	.	16AA/	.	.	.	.	.	.	.	.	.	.	.	.	.	.	32a'/LLL	.	32a'/LLL	.
.	.	.	.	.	.	.	.	.	.	.	.	.	.	.	.	.	.	.	32g'/	.	32g'/	.
.	.	16cc\ 16f\JJ	.	16AA/JJ	.	.	.	.	.	.	.	.	.	.	.	.	.	.	32f'/	.	32f'/	.
.	.	.	.	.	.	.	.	.	.	.	.	.	.	.	.	.	.	.	32e-'/JJJ	.	32e-'/JJJ	.
=51	=51	=51	=51	=51	=51	=51	=51	=51	=51	=51	=51	=51	=51	=51	=51	=51	=51	=51	=51	=51	=51	=51
[2bb-\	.	16dd\ 16fn\LL	.	16BB-/LL	.	4dd/	4dd\	.	2r	.	4d\ 4B-\	.	2r	.	2r	.	2r	.	(32d\LLL	.	(32d\LLL	.
.	.	.	.	.	.	.	.	.	.	.	.	.	.	.	.	.	.	.	32b-\	.	32b-\	.
.	.	16dd\ 16f\	.	16BB-/	.	.	.	.	.	.	.	.	.	.	.	.	.	.	32dd\	.	32dd\	.
.	.	.	.	.	.	.	.	.	.	.	.	.	.	.	.	.	.	.	32b-\JJJ	.	32b-\JJJ	.
.	.	16dd\ 16f\	.	16BB-/	.	.	.	.	.	.	.	.	.	.	.	.	.	.	32dd\LLL	.	32dd\LLL	.
.	.	.	.	.	.	.	.	.	.	.	.	.	.	.	.	.	.	.	32b-\	.	32b-\	.
.	.	16dd\ 16f\JJ	.	16BB-/JJ	.	.	.	.	.	.	.	.	.	.	.	.	.	.	32dd\	.	32dd\	.
.	.	.	.	.	.	.	.	.	.	.	.	.	.	.	.	.	.	.	32b-\JJJ)	.	32b-\JJJ)	.
!	!	!	!	!	!	!	!	!	!	!	! zu 2	!	!	!	!	!	!	!	!	!	!	!
.	.	16b-\LL	.	16G\LL	.	4ee-/	4ee-\	.	.	.	4B-\	.	.	.	.	.	.	.	(32e-\LLL	.	(32e-\LLL	.
.	.	.	.	.	.	.	.	.	.	.	.	.	.	.	.	.	.	.	32b-\	.	32b-\	.
.	.	16b-\	.	16G\	.	.	.	.	.	.	.	.	.	.	.	.	.	.	32ee-\	.	32ee-\	.
.	.	.	.	.	.	.	.	.	.	.	.	.	.	.	.	.	.	.	32b-\JJJ	.	32b-\JJJ	.
.	.	16b-\	.	16G\	.	.	.	.	.	.	.	.	.	.	.	.	.	.	32ee-\LLL	.	32ee-\LLL	.
.	.	.	.	.	.	.	.	.	.	.	.	.	.	.	.	.	.	.	32b-\	.	32b-\	.
.	.	16b-\JJ	.	16G\JJ	.	.	.	.	.	.	.	.	.	.	.	.	.	.	32ee-\	.	32ee-\	.
.	.	.	.	.	.	.	.	.	.	.	.	.	.	.	.	.	.	.	32b-\JJJ)	.	32b-\JJJ)	.
=52	=52	=52	=52	=52	=52	=52	=52	=52	=52	=52	=52	=52	=52	=52	=52	=52	=52	=52	=52	=52	=52	=52
2bb-\]	.	16b-\LL	.	16D\LL	.	4ffn/	4ffn\	.	2r	.	2B-\	.	2r	.	2r	.	2r	.	(32d\LLL	.	(32d\LLL	.
.	.	.	.	.	.	.	.	.	.	.	.	.	.	.	.	.	.	.	32b-\	.	32b-\	.
.	.	16b-\	.	16D\	.	.	.	.	.	.	.	.	.	.	.	.	.	.	32ffn\	.	32ffn\	.
.	.	.	.	.	.	.	.	.	.	.	.	.	.	.	.	.	.	.	32b-\JJJ	.	32b-\JJJ	.
.	.	16b-\	.	16D\	.	.	.	.	.	.	.	.	.	.	.	.	.	.	32ff\LLL	.	32ff\LLL	.
.	.	.	.	.	.	.	.	.	.	.	.	.	.	.	.	.	.	.	32b-\	.	32b-\	.
.	.	16b-\	.	16D\JJ	.	.	.	.	.	.	.	.	.	.	.	.	.	.	32ff\	.	32ff\	.
.	.	.	.	.	.	.	.	.	.	.	.	.	.	.	.	.	.	.	32b-\JJJ)	.	32b-\JJJ)	.
.	.	16b-\	.	16E-\LL	.	8gg/L	8gg\L	.	.	.	.	.	.	.	.	.	.	.	(32gg\LLL	.	(32gg\LLL	.
.	.	.	.	.	.	.	.	.	.	.	.	.	.	.	.	.	.	.	32b-\	.	32b-\	.
.	.	16b-\	.	16E-\	.	.	.	.	.	.	.	.	.	.	.	.	.	.	32gg\	.	32gg\	.
.	.	.	.	.	.	.	.	.	.	.	.	.	.	.	.	.	.	.	32b-\JJJ	.	32b-\JJJ	.
.	.	16b-\	.	16D\	.	8aa-/J	8ff\J	.	.	.	.	.	.	.	.	.	.	.	32aa-\LLL	.	32aa-\LLL	.
.	.	.	.	.	.	.	.	.	.	.	.	.	.	.	.	.	.	.	32b-\	.	32b-\	.
.	.	16b-\JJ	.	16D\JJ	.	.	.	.	.	.	.	.	.	.	.	.	.	.	32aa-\	.	32aa-\	.
.	.	.	.	.	.	.	.	.	.	.	.	.	.	.	.	.	.	.	32b-\JJJ)	.	32b-\JJJ)	.
=53	=53	=53	=53	=53	=53	=53	=53	=53	=53	=53	=53	=53	=53	=53	=53	=53	=53	=53	=53	=53	=53	=53
(4bb-\	.	16b-\LL	.	16E-\LL	.	(4gg/	(4gg\	.	2r	.	2E-\	.	2r	.	2r	.	2r	.	(32e-\LLL	.	(32e-\LLL	.
.	.	.	.	.	.	.	.	.	.	.	.	.	.	.	.	.	.	.	32b-\	.	32b-\	.
.	.	16b-\	.	16E-\	.	.	.	.	.	.	.	.	.	.	.	.	.	.	32gg\	.	32gg\	.
.	.	.	.	.	.	.	.	.	.	.	.	.	.	.	.	.	.	.	32b-\JJJ)	.	32b-\JJJ)	.
.	.	16b-\	.	16E-\	.	.	.	.	.	.	.	.	.	.	.	.	.	.	(32e-\LLL	.	(32e-\LLL	.
.	.	.	.	.	.	.	.	.	.	.	.	.	.	.	.	.	.	.	32b-\	.	32b-\	.
.	.	16b-\JJ	.	16E-\	.	.	.	.	.	.	.	.	.	.	.	.	.	.	32gg\	.	32gg\	.
.	.	.	.	.	.	.	.	.	.	.	.	.	.	.	.	.	.	.	32b-\JJJ)	.	32b-\JJJ)	.
4ffn\)	.	16cc\LL	.	16E-\	.	4aan/)	4cc\)	.	.	.	.	.	.	.	.	.	.	.	(32e-\LLL	.	(32e-\LLL	.
.	.	.	.	.	.	.	.	.	.	.	.	.	.	.	.	.	.	.	32cc\	.	32cc\	.
.	.	16cc\	.	16E-\	.	.	.	.	.	.	.	.	.	.	.	.	.	.	32aan\	.	32aan\	.
.	.	.	.	.	.	.	.	.	.	.	.	.	.	.	.	.	.	.	32cc\JJJ)	.	32cc\JJJ)	.
.	.	16cc\	.	16E-\	.	.	.	.	.	.	.	.	.	.	.	.	.	.	(32e-\LLL	.	(32e-\LLL	.
.	.	.	.	.	.	.	.	.	.	.	.	.	.	.	.	.	.	.	32cc\	.	32cc\	.
.	.	16cc\JJ	.	16E-\JJ	.	.	.	.	.	.	.	.	.	.	.	.	.	.	32aa\	.	32aa\	.
.	.	.	.	.	.	.	.	.	.	.	.	.	.	.	.	.	.	.	32cc\JJJ)	.	32cc\JJJ)	.
=54	=54	=54	=54	=54	=54	=54	=54	=54	=54	=54	=54	=54	=54	=54	=54	=54	=54	=54	=54	=54	=54	=54
(8fffn\L	.	16fn\LL	.	16D\LL	.	(8bb-/L	(4b-\	.	2r	.	8D\L	.	2r	.	2r	.	2r	.	(32d\LLL	.	(32d\LLL	.
.	.	.	.	.	.	.	.	.	.	.	.	.	.	.	.	.	.	.	32b-\	.	32b-\	.
.	.	16f\	.	16D\	.	.	.	.	.	.	.	.	.	.	.	.	.	.	32bb-\	.	32bb-\	.
.	.	.	.	.	.	.	.	.	.	.	.	.	.	.	.	.	.	.	32b-\JJJ)	.	32b-\JJJ)	.
8eee-\	.	16b-\	.	16E-\	.	8gg/	.	.	.	.	8E-\	.	.	.	.	.	.	.	(32e-\LLL	.	(32e-\LLL	.
.	.	.	.	.	.	.	.	.	.	.	.	.	.	.	.	.	.	.	32b-\	.	32b-\	.
.	.	16b-\JJ	.	16E-\JJ	.	.	.	.	.	.	.	.	.	.	.	.	.	.	32gg\	.	32gg\	.
.	.	.	.	.	.	.	.	.	.	.	.	.	.	.	.	.	.	.	32b-\JJJ)	.	32b-\JJJ)	.
8ddd\	.	16b-\LL	.	16Fn\LL	.	8ffn/	8dd\L)	.	.	.	8Fn\	.	.	.	.	.	.	.	(32fn\LLL	.	(32fn\LLL	.
.	.	.	.	.	.	.	.	.	.	.	.	.	.	.	.	.	.	.	32dd\	.	32dd\	.
.	.	16b-\	.	16F\	.	.	.	.	.	.	.	.	.	.	.	.	.	.	32ffn\	.	32ffn\	.
.	.	.	.	.	.	.	.	.	.	.	.	.	.	.	.	.	.	.	32dd\JJJ)	.	32dd\JJJ)	.
8ccc\J)	.	16f\	.	16E-\	.	8aa/J)	8cc\J	.	.	.	8E-\J	.	.	.	.	.	.	.	(32f\LLL	.	(32f\LLL	.
.	.	.	.	.	.	.	.	.	.	.	.	.	.	.	.	.	.	.	32cc\	.	32cc\	.
.	.	16f\JJ	.	16E-\JJ	.	.	.	.	.	.	.	.	.	.	.	.	.	.	32aa\	.	32aa\	.
.	.	.	.	.	.	.	.	.	.	.	.	.	.	.	.	.	.	.	32cc\JJJ)	.	32cc\JJJ)	.
=55	=55	=55	=55	=55	=55	=55	=55	=55	=55	=55	=55	=55	=55	=55	=55	=55	=55	=55	=55	=55	=55	=55
(8fffn\L	.	16fn\LL	.	16D\LL	.	(8bb-/L	(4b-\	.	2r	.	8D/L	.	2r	.	2r	.	2r	.	(32d\LLL	.	(32d\LLL	.
.	.	.	.	.	.	.	.	.	.	.	.	.	.	.	.	.	.	.	32b-\	.	32b-\	.
.	.	16f\	.	16D\	.	.	.	.	.	.	.	.	.	.	.	.	.	.	32bb-\	.	32bb-\	.
.	.	.	.	.	.	.	.	.	.	.	.	.	.	.	.	.	.	.	32b-\JJJ)	.	32b-\JJJ)	.
8eee-\	.	16b-\	.	16E-\	.	8gg/	.	.	.	.	8E-/	.	.	.	.	.	.	.	(32e-\LLL	.	(32e-\LLL	.
.	.	.	.	.	.	.	.	.	.	.	.	.	.	.	.	.	.	.	32b-\	.	32b-\	.
.	.	16b-\JJ	.	16E-\JJ	.	.	.	.	.	.	.	.	.	.	.	.	.	.	32gg\	.	32gg\	.
.	.	.	.	.	.	.	.	.	.	.	.	.	.	.	.	.	.	.	32b-\JJJ)	.	32b-\JJJ)	.
8ddd\	.	16b-\LL	.	16Fn\LL	.	8ffn/	8dd\L)	.	.	.	8Fn/	.	.	.	.	.	.	.	(32fn\LLL	.	(32fn\LLL	.
.	.	.	.	.	.	.	.	.	.	.	.	.	.	.	.	.	.	.	32dd\	.	32dd\	.
.	.	16b-\	.	16F\	.	.	.	.	.	.	.	.	.	.	.	.	.	.	32ffn\	.	32ffn\	.
.	.	.	.	.	.	.	.	.	.	.	.	.	.	.	.	.	.	.	32dd\JJJ)	.	32dd\JJJ)	.
8ccc\J)	.	16e-\	.	16F\	.	8aa/J)	8cc\J	.	.	.	8FFn/J	.	.	.	.	.	.	.	(32f\LLL	.	(32f\LLL	.
.	.	.	.	.	.	.	.	.	.	.	.	.	.	.	.	.	.	.	32cc\	.	32cc\	.
.	.	16e-\JJ	.	16F\JJ	.	.	.	.	.	.	.	.	.	.	.	.	.	.	32aa\	.	32aa\	.
.	.	.	.	.	.	.	.	.	.	.	.	.	.	.	.	.	.	.	32cc\JJJ)	.	32cc\JJJ)	.
=56	=56	=56	=56	=56	=56	=56	=56	=56	=56	=56	=56	=56	=56	=56	=56	=56	=56	=56	=56	=56	=56	=56
2r	.	2r	.	2r	.	2r	2r	.	2r	.	2r	.	2r	.	2r	.	2r	.	2r	.	2r	.
=57	=57	=57	=57	=57	=57	=57	=57	=57	=57	=57	=57	=57	=57	=57	=57	=57	=57	=57	=57	=57	=57	=57
2r	.	(4B-/	p	(4B-\	p	2r	2r	.	2r	.	2r	.	2r	.	2r	.	2r	.	(8..dd\L	p	[2fn/	p
.	.	.	.	.	.	.	.	.	.	.	.	.	.	.	.	.	.	.	32ee-\Jkk)	.	.	.
.	.	4A/)	.	4A\)	.	.	.	.	.	.	.	.	.	.	.	.	.	.	8cc'\L	.	.	.
.	.	.	.	.	.	.	.	.	.	.	.	.	.	.	.	.	.	.	8ffn'\J	.	.	.
=58	=58	=58	=58	=58	=58	=58	=58	=58	=58	=58	=58	=58	=58	=58	=58	=58	=58	=58	=58	=58	=58	=58
2r	.	(2G/	.	(2G\	.	2r	2r	.	2r	.	2r	.	2r	.	2r	.	2r	.	8b-\	.	8f/L]	.
.	.	.	.	.	.	.	.	.	.	.	.	.	.	.	.	.	.	.	8r	.	8B-/J	.
.	.	.	.	.	.	.	.	.	.	.	.	.	.	.	.	.	.	.	8r	.	[4e-z/	z
.	.	.	.	.	.	.	.	.	.	.	.	.	.	.	.	.	.	.	(8ggz\	z	.	.
=59	=59	=59	=59	=59	=59	=59	=59	=59	=59	=59	=59	=59	=59	=59	=59	=59	=59	=59	=59	=59	=59	=59
2r	.	8G-/L)	.	8G-\L)	.	2r	2r	.	2r	.	2r	.	2r	.	2r	.	2r	.	8a/L)	.	8e-/L]	.
.	.	8Fn/	.	8Fn\	.	.	.	.	.	.	.	.	.	.	.	.	.	.	8b-/	p	8d/	p
.	.	8E-/	.	8E-\	.	.	.	.	.	.	.	.	.	.	.	.	.	.	8cc/	.	8c/	.
.	.	8F/J	.	8F\J	.	.	.	.	.	.	.	.	.	.	.	.	.	.	8a/J	.	8e-/J	.
=60	=60	=60	=60	=60	=60	=60	=60	=60	=60	=60	=60	=60	=60	=60	=60	=60	=60	=60	=60	=60	=60	=60
! zu 2	!	!	!	!	!	!	!	!	!	!	!	!	!	!	!	!	!	!	! (8b-P/	!	!	!
4.dd\	f	2B-/	f	16BB-\LL	.	(8..ffn/L	2dd\	f	2r	.	2B-\	f	4g/ 4G/	f	4cc/ 4c/	f	4D\	.	&(8..ffnp\L)	f	4d/ 4B-/	f
.	.	.	.	16Fn\	.	.	.	.	.	.	.	.	.	.	.	.	.	.	.	.	.	.
.	.	.	.	16B-\	.	.	.	.	.	.	.	.	.	.	.	.	.	.	.	.	.	.
.	.	.	.	16F\JJ	.	.	.	.	.	.	.	.	.	.	.	.	.	.	.	.	.	.
.	.	.	.	.	.	32gg/Jkk)	.	.	.	.	.	.	.	.	.	.	.	.	32gg\Jkk&)	.	.	.
.	.	.	.	16B-\LL	.	8ff'/L	.	.	.	.	.	.	4r	.	4r	.	4r	.	8ff'\L	.	4r	.
.	.	.	.	16F\	.	.	.	.	.	.	.	.	.	.	.	.	.	.	.	.	.	.
8b-\	.	.	.	16D\	.	8bb-'/J	.	.	.	.	.	.	.	.	.	.	.	.	8bb-'\J	.	.	.
.	.	.	.	16BB-\JJ	.	.	.	.	.	.	.	.	.	.	.	.	.	.	.	.	.	.
=61	=61	=61	=61	=61	=61	=61	=61	=61	=61	=61	=61	=61	=61	=61	=61	=61	=61	=61	=61	=61	=61	=61
*	*	*	*	*^	*	*	*	*	*	*	*	*	*	*	*	*	*	*	*	*	*	*
16fn\LL	.	16Fn/LL	.	16Fn/LL	4FF\	.	(4bb-/	(8..cc\L	.	2r	.	16Fn\LL	.	2r	.	2r	.	2r	.	(4bb-\	.	(8..ccz\L	z
16cc\	.	16c/	.	16c/	.	.	.	.	.	.	.	16c\	.	.	.	.	.	.	.	.	.	.	.
16ffn\	.	16fn/	.	16fn/	.	.	.	.	.	.	.	16fn\	.	.	.	.	.	.	.	.	.	.	.
16cc\JJ	.	16c/JJ	.	16c/JJ	.	.	.	.	.	.	.	16c\JJ	.	.	.	.	.	.	.	.	.	.	.
.	.	.	.	.	.	.	.	32dd\Jkk)	.	.	.	.	.	.	.	.	.	.	.	.	.	32dd\Jkk)	.
16ff\LL	.	16f/LL	.	16f/LL	4r	.	4aa/)	8cc'\L	.	.	.	16f\LL	.	.	.	.	.	.	.	4aa\)	.	8cc'\L	.
16cc\	.	16c/	.	16c/	.	.	.	.	.	.	.	16c\	.	.	.	.	.	.	.	.	.	.	.
16a\	.	16A/	.	16A/	.	.	.	8ffn'\J	.	.	.	16A\	.	.	.	.	.	.	.	.	.	8ffn'\J	.
16f\JJ	.	16F/JJ	.	16F/JJ	.	.	.	.	.	.	.	16F\JJ	.	.	.	.	.	.	.	.	.	.	.
=62	=62	=62	=62	=62	=62	=62	=62	=62	=62	=62	=62	=62	=62	=62	=62	=62	=62	=62	=62	=62	=62	=62	=62
4cc\	.	2C/	.	16C/LL	16C\LL	.	(8..gg/L	(4ffn\	.	2r	.	2C/	.	2r	.	2r	.	2r	.	(8..gg\L	.	(4ffn\	.
.	.	.	.	16G/	16G\	.	.	.	.	.	.	.	.	.	.	.	.	.	.	.	.	.	.
.	.	.	.	16c/	16c\	.	.	.	.	.	.	.	.	.	.	.	.	.	.	.	.	.	.
.	.	.	.	16G/JJ	16G\JJ	.	.	.	.	.	.	.	.	.	.	.	.	.	.	.	.	.	.
.	.	.	.	.	.	.	32aa-/Jkk)	.	.	.	.	.	.	.	.	.	.	.	.	32aa-\Jkk)	.	.	.
4r	.	.	.	16c/LL	16c\LL	.	8gg'/L	4ee-\)	.	.	.	.	.	.	.	.	.	.	.	8gg'\L	.	4ee-\)	.
.	.	.	.	16G/	16G\	.	.	.	.	.	.	.	.	.	.	.	.	.	.	.	.	.	.
.	.	.	.	16E-/	16E-\	.	8ccc'/J	.	.	.	.	.	.	.	.	.	.	.	.	8ccc'\J	.	.	.
.	.	.	.	16C/JJ	16C\JJ	.	.	.	.	.	.	.	.	.	.	.	.	.	.	.	.	.	.
=63	=63	=63	=63	=63	=63	=63	=63	=63	=63	=63	=63	=63	=63	=63	=63	=63	=63	=63	=63	=63	=63	=63	=63
16g\LL	.	16G/LL	.	16G/LL	4GG\	.	(4ccc/	(8..dd\L	.	2r	.	16G\LL	.	2r	.	2r	.	2r	.	(4ccc\	.	(8..dd\L	.
16dd\	.	16d/	.	16d/	.	.	.	.	.	.	.	16d\	.	.	.	.	.	.	.	.	.	.	.
16gg\	.	16g/	.	16g/	.	.	.	.	.	.	.	16g\	.	.	.	.	.	.	.	.	.	.	.
16dd\JJ	.	16d/JJ	.	16d/JJ	.	.	.	.	.	.	.	16d\JJ	.	.	.	.	.	.	.	.	.	.	.
.	.	.	.	.	.	.	.	32ee-\Jkk)	.	.	.	.	.	.	.	.	.	.	.	.	.	32ee-\Jkk)	.
16gg\LL	.	16g/LL	.	16g/LL	4r	.	4bb-/)	8dd'\L	.	.	.	16g\LL	.	.	.	.	.	.	.	4bb-\)	.	8ddn'\L	.
16dd\	.	16d/	.	16d/	.	.	.	.	.	.	.	16d\	.	.	.	.	.	.	.	.	.	.	.
16b-\	.	16B-/	.	16B-/	.	.	.	8gg'\J	.	.	.	16B-\	.	.	.	.	.	.	.	.	.	8gg'\J	.
16g\JJ	.	16G/JJ	.	16G/JJ	.	.	.	.	.	.	.	16G\JJ	.	.	.	.	.	.	.	.	.	.	.
=64	=64	=64	=64	=64	=64	=64	=64	=64	=64	=64	=64	=64	=64	=64	=64	=64	=64	=64	=64	=64	=64	=64	=64
*	*	*	*	*v	*v	*	*	*	*	*	*	*	*	*	*	*	*	*	*	*	*	*	*
!	!	!	!	! zu 2	!	!	!	!	!	!	!	!	!	!	!	!	!	!	!	!	!	!
!	!	!	!	!	!	!	!	!	!	!	!	!	!	!	!	!	!	!	!	!	!	!
4dd\	.	4.D/	.	16D\LL	.	(8..aan/L	(4gg\	.	2r	.	2D\	.	4g/ 4G/	.	4cc/ 4c/	.	4D\	.	(8..aan\L	.	(4gg\	.
.	.	.	.	16A\	.	.	.	.	.	.	.	.	.	.	.	.	.	.	.	.	.	.
.	.	.	.	16d\	.	.	.	.	.	.	.	.	.	.	.	.	.	.	.	.	.	.
.	.	.	.	16A\JJ	.	.	.	.	.	.	.	.	.	.	.	.	.	.	.	.	.	.
.	.	.	.	.	.	32bb-/Jkk)	.	.	.	.	.	.	.	.	.	.	.	.	32bb-\Jkk)	.	.	.
16r	.	.	.	16d\LL	.	8aa'/L	4ff#\)	.	.	.	.	.	4r	.	4r	.	4r	.	8aa'\L	.	4ff#\)	.
16ddd\LL	.	.	.	16A\	.	.	.	.	.	.	.	.	.	.	.	.	.	.	.	.	.	.
16ddd\	.	8d\	.	16F#\	.	8ddd'/J	.	.	.	.	.	.	.	.	.	.	.	.	8ddd'\J	.	.	.
16ddd\JJ	.	.	.	16D\JJ	.	.	.	.	.	.	.	.	.	.	.	.	.	.	.	.	.	.
=65	=65	=65	=65	=65	=65	=65	=65	=65	=65	=65	=65	=65	=65	=65	=65	=65	=65	=65	=65	=65	=65	=65
(16dddz\LL	z	(16e-z\LL	z	(16E-z\LL	z	(16dddz/LL	(4gg\	z	2r	.	(16E-z\LL	z	2r	.	2r	.	2r	.	(16dddz\LL	z	(16ggz\LL	z
16ccc\)	.	16ee-\)	.	16e-\)	.	16ccc/)	.	.	.	.	16e-\)	.	.	.	.	.	.	.	16ccc\)	.	16g\)	.
16ccc'\	.	16ee-'\	.	16e-'\	.	16ccc'/	.	.	.	.	16e-'\	.	.	.	.	.	.	.	16ccc'\	.	16g'\	.
16ccc'\JJ	.	16ee-'\JJ	.	16e-'\JJ	.	16ccc'/JJ	.	.	.	.	16e-'\JJ	.	.	.	.	.	.	.	16ccc'\JJ	.	16g'\JJ	.
(16cccz\LL	z	(16dz\LL	z	(16Dz\LL	z	(16cccz/LL	4ffn\)	z	.	.	(16Dz\LL	z	.	.	.	.	.	.	(16cccz\LL	z	(16fnz\LL	z
16bb-\)	.	16dd\)	.	16d\)	.	16bb-/)	.	.	.	.	16d\)	.	.	.	.	.	.	.	16bb-\)	.	16ffn\)	.
16bb-'\	.	16dd'\	.	16d'\	.	16bb-'/	.	.	.	.	16d'\	.	.	.	.	.	.	.	16bb-'\	.	16ff'\	.
16bb-'\JJ	.	16dd'\JJ	.	16d'\JJ	.	16bb-'/JJ	.	.	.	.	16d'\JJ	.	.	.	.	.	.	.	16bb-'\JJ	.	16ff'\JJ	.
=66	=66	=66	=66	=66	=66	=66	=66	=66	=66	=66	=66	=66	=66	=66	=66	=66	=66	=66	=66	=66	=66	=66
(16bb-z\LL	z	(16cz\LL	z	(16Cz\LL	z	(16bb-z/LL	(4ee-\	z	2r	.	(16Cz\LL	z	2r	.	2r	.	2r	.	(16bb-z\LL	z	(16ee-z/LL	z
16aa\)	.	16cc\)	.	16c\)	.	16aa/)	.	.	.	.	16c\)	.	.	.	.	.	.	.	16aa\)	.	16e-/)	.
16aa'\	.	16cc'\	.	16c'\	.	16aa'/	.	.	.	.	16c'\	.	.	.	.	.	.	.	16aa'\	.	16e-'/	.
16aa'\JJ	.	16cc'\JJ	.	16c'\JJ	.	16aa'/JJ	.	.	.	.	16c'\JJ	.	.	.	.	.	.	.	16aa'\JJ	.	16e-'/JJ	.
(16aaz\LL	z	(16B-z\LL	z	(16BB-z\LL	z	(16aaz/LL	4dd\)	z	.	.	(16BB-z\LL	z	.	.	.	.	.	.	(16aaz\LL	z	(16dnz/LL	z
16gg\)	.	16b-\)	.	16B-\)	.	16gg/)	.	.	.	.	16B-\)	.	.	.	.	.	.	.	16gg\)	.	16ddn/)	.
16gg'\	.	16b-'\	.	16B-'\	.	16gg'/	.	.	.	.	16B-'\	.	.	.	.	.	.	.	16gg'\	.	16dd'/	.
16gg'\JJ	.	16b-'\JJ	.	16B-'\JJ	.	16gg'/JJ	.	.	.	.	16B-'\JJ	.	.	.	.	.	.	.	16gg'\JJ	.	16dd'/JJ	.
=67	=67	=67	=67	=67	=67	=67	=67	=67	=67	=67	=67	=67	=67	=67	=67	=67	=67	=67	=67	=67	=67	=67
8ff#\L	.	16cc\LL	.	16c\LL	.	8ff#\L	8a\L	.	[2ff\ [2f\	f	16c\LL	.	2g/ 4G/	f	2cc/ 2c/	f	32D\LLL	f	8ff#'\ 8a\L	.	8a/ 8d'/L	.
.	.	.	.	.	.	.	.	.	.	.	.	.	.	.	.	.	32D\	.	.	.	.	.
.	.	16d\	.	16D\	.	.	.	.	.	.	16D\	.	.	.	.	.	32D\	.	.	.	.	.
.	.	.	.	.	.	.	.	.	.	.	.	.	.	.	.	.	32D\	.	.	.	.	.
8gg\J	.	16b-\	.	16B-\	.	8gg\J	8b-\J	.	.	.	16B-\	.	.	.	.	.	32D\	.	8ggn'\ 8b-\J	.	8b-/ 8d'/J	.
.	.	.	.	.	.	.	.	.	.	.	.	.	.	.	.	.	32D\	.	.	.	.	.
.	.	16d\JJ	.	16D\JJ	.	.	.	.	.	.	16D\JJ	.	.	.	.	.	32D\	.	.	.	.	.
.	.	.	.	.	.	.	.	.	.	.	.	.	.	.	.	.	32D\	.	.	.	.	.
8ccc\L	.	16f#\LL	.	16F#\LL	.	8ccc\L	8aa\L	.	.	.	16F#\LL	.	.	.	.	.	32D\	.	8ccc'\ 8dd\L	.	8aa'\ 8cc\L	.
.	.	.	.	.	.	.	.	.	.	.	.	.	.	.	.	.	32D\	.	.	.	.	.
.	.	16d\	.	16D\	.	.	.	.	.	.	16D\	.	.	.	.	.	32D\	.	.	.	.	.
.	.	.	.	.	.	.	.	.	.	.	.	.	.	.	.	.	32D\	.	.	.	.	.
8bb-\J	.	16g\	.	16G\	.	8bb-\J	8gg\J	.	.	.	16G\	.	.	.	.	.	32D\	.	8bb-'\ 8dd\J	.	8gg'\ 8b-\J	.
.	.	.	.	.	.	.	.	.	.	.	.	.	.	.	.	.	32D\	.	.	.	.	.
.	.	16d\JJ	.	16D\JJ	.	.	.	.	.	.	16D\JJ	.	.	.	.	.	32D\	.	.	.	.	.
.	.	.	.	.	.	.	.	.	.	.	.	.	.	.	.	.	32D\JJJ	.	.	.	.	.
=68	=68	=68	=68	=68	=68	=68	=68	=68	=68	=68	=68	=68	=68	=68	=68	=68	=68	=68	=68	=68	=68	=68
!	!	!	!	!	!	!	!	!	!	!	!	!	! zu 2	!	!	!	!	!	!	!	!	!
16aa'\LL	.	8dd\	.	8d\	.	8.aa\L	8.ff#\L	.	2ff\ 2f\]	.	2d\	.	8..g/L	.	8..cc/ 8..c/L	.	32D\LLL	.	16aa'\ 16dd\LL	.	8ff#/ 8a/ 8d/	.
.	.	.	.	.	.	.	.	.	.	.	.	.	.	.	.	.	32D\	.	.	.	.	.
16aa'\	.	.	.	.	.	.	.	.	.	.	.	.	.	.	.	.	32D\	.	16aa'\	.	.	.
.	.	.	.	.	.	.	.	.	.	.	.	.	.	.	.	.	32D\	.	.	.	.	.
16ff#'\	.	8r	.	8r	.	.	.	.	.	.	.	.	.	.	.	.	32D\	.	16ff#'\	.	8r	.
.	.	.	.	.	.	.	.	.	.	.	.	.	.	.	.	.	32D\	.	.	.	.	.
16ddd'\JJ	.	.	.	.	.	16ff#\Jk	16dd\Jk	.	.	.	.	.	.	.	.	.	32D\	.	16ddd'\JJ	.	.	.
.	.	.	.	.	.	.	.	.	.	.	.	.	32g/Jkk	.	32cc/ 32c/Jkk	.	32D\	.	.	.	.	.
16a'\LL	.	8d\	.	8D\	.	8.aa\L	8.ff#\L	.	.	.	.	.	16g/LL	.	16cc/ 16c/LL	.	32D\	.	16a'\LL	.	8ff#/ 8a/ 8d/	.
.	.	.	.	.	.	.	.	.	.	.	.	.	.	.	.	.	32D\	.	.	.	.	.
16ff#'\	.	.	.	.	.	.	.	.	.	.	.	.	16g/	.	16cc/ 16c/	.	32D\	.	16ff#'\	.	.	.
.	.	.	.	.	.	.	.	.	.	.	.	.	.	.	.	.	32D\	.	.	.	.	.
16dd'\	.	8r	.	8r	.	.	.	.	.	.	.	.	16g/	.	16cc/ 16c/	.	32D\	.	16dd'\	.	8r	.
.	.	.	.	.	.	.	.	.	.	.	.	.	.	.	.	.	32D\	.	.	.	.	.
16aa'\JJ	.	.	.	.	.	16ff#\Jk	16dd\Jk	.	.	.	.	.	16g/JJ	.	16cc/ 16c/JJ	.	32D\	.	16aa'\JJ	.	.	.
.	.	.	.	.	.	.	.	.	.	.	.	.	.	.	.	.	32D\JJJ	.	.	.	.	.
=69	=69	=69	=69	=69	=69	=69	=69	=69	=69	=69	=69	=69	=69	=69	=69	=69	=69	=69	=69	=69	=69	=69
16f#'\LL	.	8d\	.	8D\	.	8.aa\L	8.ff#\L	.	[2ff\ 2f\	.	2d\	.	8..g/L	.	8..cc/ 8..c/L	.	32D\LLL	.	16f#'\LL	.	8ff#/ 8a/ 8d/	.
.	.	.	.	.	.	.	.	.	.	.	.	.	.	.	.	.	32D\	.	.	.	.	.
16dd'\	.	.	.	.	.	.	.	.	.	.	.	.	.	.	.	.	32D\	.	16dd'\	.	.	.
.	.	.	.	.	.	.	.	.	.	.	.	.	.	.	.	.	32D\	.	.	.	.	.
16a'\	.	8r	.	8r	.	.	.	.	.	.	.	.	.	.	.	.	32D\	.	16a'\	.	8r	.
.	.	.	.	.	.	.	.	.	.	.	.	.	.	.	.	.	32D\	.	.	.	.	.
16ff#'\JJ	.	.	.	.	.	16ff#\Jk	16dd\Jk	.	.	.	.	.	.	.	.	.	32D\	.	16ff#'\JJ	.	.	.
.	.	.	.	.	.	.	.	.	.	.	.	.	32g/Jkk	.	32cc/ 32c/Jkk	.	32D\	.	.	.	.	.
16d'/LL	.	8d\	.	8D\	.	8.aa\L	8.ff#\L	.	.	.	.	.	16g/LL	.	16cc/ 16c/LL	.	32D\	.	16d'/LL	.	8ff#/ 8a/ 8d/	.
.	.	.	.	.	.	.	.	.	.	.	.	.	.	.	.	.	32D\	.	.	.	.	.
16a'/	.	.	.	.	.	.	.	.	.	.	.	.	16g/	.	16cc/ 16c/	.	32D\	.	16a'/	.	.	.
.	.	.	.	.	.	.	.	.	.	.	.	.	.	.	.	.	32D\	.	.	.	.	.
16f#'/	.	8r	.	8r	.	.	.	.	.	.	.	.	16g/	.	16cc/ 16c/	.	32D\	.	16f#'/	.	8r	.
.	.	.	.	.	.	.	.	.	.	.	.	.	.	.	.	.	32D\	.	.	.	.	.
16dd'/JJ	.	.	.	.	.	16ff#\Jk	16dd\Jk	.	.	.	.	.	16g/JJ	.	16cc/ 16c/JJ	.	32D\	.	16dd'/JJ	.	.	.
.	.	.	.	.	.	.	.	.	.	.	.	.	.	.	.	.	32D\JJJ	.	.	.	.	.
=70	=70	=70	=70	=70	=70	=70	=70	=70	=70	=70	=70	=70	=70	=70	=70	=70	=70	=70	=70	=70	=70	=70
8d/	.	4d\	.	4D\	.	8dd/	8ff#\	.	8ff\ 8f\]	.	4d\	.	4g/	.	4cc/ 4cn	.	4D\	.	16d'/LL	f	4ff#/ 4a/ 4d/	.
.	.	.	.	.	.	.	.	.	.	.	.	.	.	.	.	.	.	.	16a'/	.	.	.
8r	.	.	.	.	.	32ryy	8r	.	8r	.	.	.	.	.	.	.	.	.	16f#'/	.	.	.
.	.	.	.	.	.	32ryy	.	.	.	.	.	.	.	.	.	.	.	.	.	.	.	.
.	.	.	.	.	.	32ryy	.	.	.	.	.	.	.	.	.	.	.	.	16dd'/JJ	.	.	.
.	.	.	.	.	.	32ryy	.	.	.	.	.	.	.	.	.	.	.	.	.	.	.	.
4r	.	4r	.	4r	.	32ryy	4r	.	4r	.	4r	.	4r	.	4r	.	4r	.	16d'/LL	.	4r	.
.	.	.	.	.	.	32ryy	.	.	.	.	.	.	.	.	.	.	.	.	.	.	.	.
.	.	.	.	.	.	32ryy	.	.	.	.	.	.	.	.	.	.	.	.	16a'/	.	.	.
.	.	.	.	.	.	32ryy	.	.	.	.	.	.	.	.	.	.	.	.	.	.	.	.
.	.	.	.	.	.	32ryy	.	.	.	.	.	.	.	.	.	.	.	.	16f#'/	.	.	.
.	.	.	.	.	.	32ryy	.	.	.	.	.	.	.	.	.	.	.	.	.	.	.	.
.	.	.	.	.	.	32ryy	.	.	.	.	.	.	.	.	.	.	.	.	16dd'/JJ	.	.	.
.	.	.	.	.	.	32ryy	.	.	.	.	.	.	.	.	.	.	.	.	.	.	.	.
=71	=71	=71	=71	=71	=71	=71	=71	=71	=71	=71	=71	=71	=71	=71	=71	=71	=71	=71	=71	=71	=71	=71
2r	.	2r	.	2r	.	2r	2r	.	2r	.	2r	.	2r	.	2r	.	2r	.	16d'/LL	.	2r	.
.	.	.	.	.	.	.	.	.	.	.	.	.	.	.	.	.	.	.	16a'/	.	.	.
.	.	.	.	.	.	.	.	.	.	.	.	.	.	.	.	.	.	.	16f#'/	.	.	.
.	.	.	.	.	.	.	.	.	.	.	.	.	.	.	.	.	.	.	16dd'/JJ	.	.	.
.	.	.	.	.	.	.	.	.	.	.	.	.	.	.	.	.	.	.	16d'/LL	.	.	.
.	.	.	.	.	.	.	.	.	.	.	.	.	.	.	.	.	.	.	16a'/	.	.	.
.	.	.	.	.	.	.	.	.	.	.	.	.	.	.	.	.	.	.	16f#'/	.	.	.
.	.	.	.	.	.	.	.	.	.	.	.	.	.	.	.	.	.	.	16dd'/JJ	.	.	.
=72	=72	=72	=72	=72	=72	=72	=72	=72	=72	=72	=72	=72	=72	=72	=72	=72	=72	=72	=72	=72	=72	=72
2r	.	2r	.	2r	.	2r	2r	.	2r	.	2r	.	2r	.	2r	.	2r	.	16d/LL	.	2r	.
.	.	.	.	.	.	.	.	.	.	.	.	.	.	.	.	.	.	.	16a/	.	.	.
.	.	.	.	.	.	.	.	.	.	.	.	.	.	.	.	.	.	.	16f#/	.	.	.
.	.	.	.	.	.	.	.	.	.	.	.	.	.	.	.	.	.	.	16ccn/JJ	.	.	.
.	.	.	.	.	.	.	.	.	.	.	.	.	.	.	.	.	.	.	16d/LL	.	.	.
.	.	.	.	.	.	.	.	.	.	.	.	.	.	.	.	.	.	.	16a/	.	.	.
.	.	.	.	.	.	.	.	.	.	.	.	.	.	.	.	.	.	.	16f#/	.	.	.
.	.	.	.	.	.	.	.	.	.	.	.	.	.	.	.	.	.	.	16cc/JJ	.	.	.
=73	=73	=73	=73	=73	=73	=73	=73	=73	=73	=73	=73	=73	=73	=73	=73	=73	=73	=73	=73	=73	=73	=73
!	!	!	!	!	!	!	!	!	!	!	! 1.	!	!	!	!	!	!	!	!	!	!	!
2r	.	2r	.	2r	.	2r	2r	.	2r	.	16D\LL	p	2r	.	2r	.	2r	.	16d/LL	pp	2r	.
.	.	.	.	.	.	.	.	.	.	.	16A\	.	.	.	.	.	.	.	16a/	.	.	.
.	.	.	.	.	.	.	.	.	.	.	16F#\	.	.	.	.	.	.	.	16f#/	.	.	.
.	.	.	.	.	.	.	.	.	.	.	16A\JJ	.	.	.	.	.	.	.	16cc/JJ	.	.	.
.	.	.	.	.	.	.	.	.	.	.	16D\LL	.	.	.	.	.	.	.	16d/LL	.	.	.
.	.	.	.	.	.	.	.	.	.	.	16A\	.	.	.	.	.	.	.	16a/	.	.	.
.	.	.	.	.	.	.	.	.	.	.	16F#\	.	.	.	.	.	.	.	16f#/	.	.	.
.	.	.	.	.	.	.	.	.	.	.	16c\JJ	.	.	.	.	.	.	.	16cc/JJ	.	.	.
=74||	=74||	=74||	=74||	=74||	=74||	=74||	=74||	=74||	=74||	=74||	=74||	=74||	=74||	=74||	=74||	=74||	=74||	=74||	=74||	=74||	=74||	=74||
*k[f#]	*	*k[f#]	*	*k[f#]	*	*	*	*	*	*	*k[f#]	*	*	*	*	*	*	*	*k[f#]	*	*k[f#]	*
*G:	*	*G:	*	*G:	*	*	*	*	*	*	*G:	*	*	*	*	*	*	*	*G:	*	*G:	*
! 1.	!	!	!	!	!	!	!	!	!	!	!	!	!	!	!	!	!	!	!	!	!	!
*	*	*	*	*	*	*v	*v	*	*	*	*	*	*	*	*	*	*	*	*	*	*	*
*	*	*	*	*	*	*k[f#]	*	*	*	*	*	*	*	*	*	*	*	*	*	*	*
*	*	*	*	*	*	*G/e:	*	*	*	*	*	*	*	*	*	*	*	*	*	*	*
(8..bbn\L	p	8g\	p	8G\	p	2r	.	2r	.	16D\LL	.	2r	.	2r	.	2r	.	(8..b\L	p	16d'/LL	p
.	.	.	.	.	.	.	.	.	.	16Bn\	.	.	.	.	.	.	.	.	.	16b'/	.
.	.	8r	.	8r	.	.	.	.	.	16G\	.	.	.	.	.	.	.	.	.	16g'/	.
.	.	.	.	.	.	.	.	.	.	16B\JJ	.	.	.	.	.	.	.	.	.	16b'/JJ	.
32ccc\Jkk)	.	.	.	.	.	.	.	.	.	.	.	.	.	.	.	.	.	32cc\Jkk)	.	.	.
8aa'\L	.	8f#\	.	8D\	.	.	.	.	.	16C\LL	.	.	.	.	.	.	.	8a'\L	.	16c'/LL	.
.	.	.	.	.	.	.	.	.	.	16A\	.	.	.	.	.	.	.	.	.	16a'/	.
8ddd'\J	.	8r	.	8r	.	.	.	.	.	16F#\	.	.	.	.	.	.	.	8dd'\J	.	16f#'/	.
.	.	.	.	.	.	.	.	.	.	16A\JJ	.	.	.	.	.	.	.	.	.	16a'/JJ	.
=75	=75	=75	=75	=75	=75	=75	=75	=75	=75	=75	=75	=75	=75	=75	=75	=75	=75	=75	=75	=75	=75
*	*	*	*	*	*	*^	*	*	*	*	*	*	*	*	*	*	*	*	*	*	*
8gg\	.	8g\	.	8E\	.	2r	2r	.	2r	.	8BB/	.	2r	.	2r	.	2r	.	8g/	.	8B/	.
8r	.	8r	.	8r	.	.	.	.	.	.	8r	.	.	.	.	.	.	.	8r	.	8r	.
8r	.	8r	.	8r	.	.	.	.	.	.	4r	.	.	.	.	.	.	.	8r	.	8r	.
(8eeez\	z	(8ez\	z	(8Cz/	z	.	.	.	.	.	.	.	.	.	.	.	.	.	(8eez\	z	(8gz/	z
=76	=76	=76	=76	=76	=76	=76	=76	=76	=76	=76	=76	=76	=76	=76	=76	=76	=76	=76	=76	=76	=76	=76
8ff#\)	.	8A/)	.	8c\)	.	2r	2r	.	2r	.	2r	.	2r	.	2r	.	2r	.	8f#/)	.	8d/)	.
8gg'\L	p	8d'\L	p	8B'\L	p	.	.	.	.	.	.	.	.	.	.	.	.	.	8g'/L	p	8d'/L	p
8aa'\	.	8c'\J	.	8A'\	.	.	.	.	.	.	.	.	.	.	.	.	.	.	8a'/	.	8f#'/	.
8bb'\J	.	(16B/LL	.	8G'\J	.	.	.	.	.	.	.	.	.	.	.	.	.	.	8b'/J	.	8g'/J	.
.	.	16G/JJ)	.	.	.	.	.	.	.	.	.	.	.	.	.	.	.	.	.	.	.	.
=77	=77	=77	=77	=77	=77	=77	=77	=77	=77	=77	=77	=77	=77	=77	=77	=77	=77	=77	=77	=77	=77	=77
8ccc\L	.	4D/	.	4D\	.	2r	2r	.	2r	.	2r	.	2r	.	2r	.	2r	.	8cc'/L	.	8a'/L	.
&(16bb\L)	.	.	.	.	.	.	.	.	.	.	.	.	.	.	.	.	.	.	&(16b/L)	.	&(16g/L)	.
32aa\L	.	.	.	.	.	.	.	.	.	.	.	.	.	.	.	.	.	.	32a/L	.	32f#/L	.
32bb\JJJ&)	.	.	.	.	.	.	.	.	.	.	.	.	.	.	.	.	.	.	32b/JJJ&)	.	32g/JJJ&)	.
8aa\	.	4r	.	4r	.	.	.	.	.	.	.	.	.	.	.	.	.	.	8a/	.	8f#/	.
8r	.	.	.	.	.	.	.	.	.	.	.	.	.	.	.	.	.	.	8r	.	8r	.
=78	=78	=78	=78	=78	=78	=78	=78	=78	=78	=78	=78	=78	=78	=78	=78	=78	=78	=78	=78	=78	=78	=78
(8..bb\L	.	8D/	.	8G\	.	2r	2r	.	2r	.	2r	.	2r	.	2r	.	2r	.	(8..b\L	.	8d/	.
.	.	8r	.	8r	.	.	.	.	.	.	.	.	.	.	.	.	.	.	.	.	8r	.
32ccc\Jkk)	.	.	.	.	.	.	.	.	.	.	.	.	.	.	.	.	.	.	32cc\Jkk)	.	.	.
8aa'\L	.	8F#/	.	8D\	.	.	.	.	.	.	.	.	.	.	.	.	.	.	8a'\L	.	8c/	.
8ddd'\J	.	8r	.	8r	.	.	.	.	.	.	.	.	.	.	.	.	.	.	8dd'\J	.	8r	.
=79	=79	=79	=79	=79	=79	=79	=79	=79	=79	=79	=79	=79	=79	=79	=79	=79	=79	=79	=79	=79	=79	=79
8gg'\L	.	(2G/	.	(2E\	.	2r	2r	.	2r	.	2r	.	2r	.	2r	.	2r	.	8g'/L	.	(2c#/	.
8bb'\	.	.	.	.	.	.	.	.	.	.	.	.	.	.	.	.	.	.	8b'/	.	.	.
8ee'\J	.	.	.	.	.	.	.	.	.	.	.	.	.	.	.	.	.	.	8e'/J	.	.	.
(8bb-z\	z	.	.	.	.	.	.	.	.	.	.	.	.	.	.	.	.	.	(8b-z/	z	.	.
=80	=80	=80	=80	=80	=80	=80	=80	=80	=80	=80	=80	=80	=80	=80	=80	=80	=80	=80	=80	=80	=80	=80
8dd\)	.	8F#/)	.	8F#\)	.	2r	2r	.	2r	.	2r	.	2r	.	2r	.	2r	.	8d/)	.	8d/)	.
8gg'\L	p	8G'/L	.	8G'\L	.	.	.	.	.	.	.	.	.	.	.	.	.	.	8g'/L	p	8d'/L	.
8ff#'\	.	8A'/	.	8A'\	.	.	.	.	.	.	.	.	.	.	.	.	.	.	8f#'/	.	8d'/	.
8ee'\J	.	8G'/J	.	8AA'\J	.	.	.	.	.	.	.	.	.	.	.	.	.	.	8e'/J	.	8c#'/J	.
=81	=81	=81	=81	=81	=81	=81	=81	=81	=81	=81	=81	=81	=81	=81	=81	=81	=81	=81	=81	=81	=81	=81
4dd\	.	4F#/	.	8r	.	2r	2r	.	2r	.	2r	.	2r	.	2r	.	2r	.	4d/	.	4d/	.
.	.	.	.	8AA'/L	.	.	.	.	.	.	.	.	.	.	.	.	.	.	.	.	.	.
4r	.	4r	.	8DD'/J	.	.	.	.	.	.	.	.	.	.	.	.	.	.	4r	.	4r	.
.	.	.	.	8r	.	.	.	.	.	.	.	.	.	.	.	.	.	.	.	.	.	.
=82	=82	=82	=82	=82	=82	=82	=82	=82	=82	=82	=82	=82	=82	=82	=82	=82	=82	=82	=82	=82	=82	=82
(8..bb\L	.	(4D/	.	(4G\	.	2r	2r	.	2r	.	2r	.	2r	.	2r	.	2r	.	(8..b\L	.	(4d/	.
32ccc\Jkk)	.	.	.	.	.	.	.	.	.	.	.	.	.	.	.	.	.	.	32cc\Jkk)	.	.	.
16.aa\LL	.	4F#/)	.	4D\)	.	.	.	.	.	.	.	.	.	.	.	.	.	.	16.a\LL	.	4cn/)	.
32ddd'\k	.	.	.	.	.	.	.	.	.	.	.	.	.	.	.	.	.	.	32dd'\k	.	.	.
16.ddd'\	.	.	.	.	.	.	.	.	.	.	.	.	.	.	.	.	.	.	16.dd'\	.	.	.
32ddd'\JJk	.	.	.	.	.	.	.	.	.	.	.	.	.	.	.	.	.	.	32dd'\JJk	.	.	.
=83	=83	=83	=83	=83	=83	=83	=83	=83	=83	=83	=83	=83	=83	=83	=83	=83	=83	=83	=83	=83	=83	=83
16.ddd\LL	.	[4G/	.	[4E\	.	2r	2r	.	2r	.	2r	.	2r	.	2r	.	2r	.	16.dd\LL	.	(4B/	.
32gg\k	.	.	.	.	.	.	.	.	.	.	.	.	.	.	.	.	.	.	32g\k	.	.	.
16.gg\	.	.	.	.	.	.	.	.	.	.	.	.	.	.	.	.	.	.	16.g\	.	.	.
32gg\JJk	.	.	.	.	.	.	.	.	.	.	.	.	.	.	.	.	.	.	32g\JJk	.	.	.
16.gg\LL	.	16.G/LL]	.	16.E/LL]	.	.	.	.	.	.	.	.	.	.	.	.	.	.	16.g\LL	.	16.c/LL)	.
32eee\k	.	32cz/k	z	32Cz/k	z	.	.	.	.	.	.	.	.	.	.	.	.	.	32eez\k	z	32gz/k	z
16.eee\	.	16.c/	.	16.C/	.	.	.	.	.	.	.	.	.	.	.	.	.	.	16.ee\	.	16.g/	.
32eee\JJk	.	32c/JJk	.	32C/JJk	.	.	.	.	.	.	.	.	.	.	.	.	.	.	32ee\JJk	.	32g/JJk	.
=84	=84	=84	=84	=84	=84	=84	=84	=84	=84	=84	=84	=84	=84	=84	=84	=84	=84	=84	=84	=84	=84	=84
!	!	!	!	!	!	!	!	!	!	!	! zu 2	!	!	!	!	!	!	!	!	!	!	!
16.ff#\LL	p	8A'/L	p	8c'\L	p	2r	2r	.	2r	.	2d\	p	2r	.	2r	.	2r	.	16.f#/LL	p	16.f#/LL	p
32dd\k	.	.	.	.	.	.	.	.	.	.	.	.	.	.	.	.	.	.	32d/k	.	32d/k	.
16.gg\	.	8G'/	.	8B'\	.	.	.	.	.	.	.	.	.	.	.	.	.	.	16.g/	.	16.g/	.
32dd\JJk	.	.	.	.	.	.	.	.	.	.	.	.	.	.	.	.	.	.	32d/JJk	.	32d/JJk	.
16.aa\LL	.	8c'/	.	8A'\	.	.	.	.	.	.	.	.	.	.	.	.	.	.	16.a/LL	.	16.f#/LL	.
32dd\k	.	.	.	.	.	.	.	.	.	.	.	.	.	.	.	.	.	.	32d/k	.	32d/k	.
16.bb\	.	8B'/J	.	8G'\J	.	.	.	.	.	.	.	.	.	.	.	.	.	.	16.b/	.	16.g/	.
32dd\JJk	.	.	.	.	.	.	.	.	.	.	.	.	.	.	.	.	.	.	32d/JJk	.	32d/JJk	.
=85	=85	=85	=85	=85	=85	=85	=85	=85	=85	=85	=85	=85	=85	=85	=85	=85	=85	=85	=85	=85	=85	=85
8ccc\L	.	4D/	.	4D\	.	2r	2r	.	2r	.	8c\L	.	2r	.	2r	.	2r	.	8cc/L	.	8a/L	.
&(16bb\L)	.	.	.	.	.	.	.	.	.	.	&(16B\L)	.	.	.	.	.	.	.	&(16b/L)	.	&(16g/L)	.
32aa\L	.	.	.	.	.	.	.	.	.	.	32A\L	.	.	.	.	.	.	.	32a/L	.	32f#/L	.
32bb\JJJ&)	.	.	.	.	.	.	.	.	.	.	32B\JJJ&)	.	.	.	.	.	.	.	32b/JJJ&)	.	32g/JJJ&)	.
(8aa\L	.	4r	.	4r	.	.	.	.	.	.	(8A\L	.	.	.	.	.	.	.	(8a/L	.	8f#/	.
8aa#\J)	.	.	.	.	.	.	.	.	.	.	8A#\J)	.	.	.	.	.	.	.	8a#/J)	.	8r	.
=86	=86	=86	=86	=86	=86	=86	=86	=86	=86	=86	=86	=86	=86	=86	=86	=86	=86	=86	=86	=86	=86	=86
(8..bb\L	.	(4G/	.	2r	.	2r	2r	.	2r	.	(8..B\L	.	2r	.	2r	.	2r	.	(8..b\L	.	[4d/	.
32ccc\Jkk)	.	.	.	.	.	.	.	.	.	.	32c\Jkk)	.	.	.	.	.	.	.	32cc\Jkk)	.	.	.
16.aa\LL	.	16.F#/LL)	.	.	.	.	.	.	.	.	16.A\LL	.	.	.	.	.	.	.	16.a\LL	.	16.d/LL]	.
32ddd'\k	.	32f#'/k	.	.	.	.	.	.	.	.	32f#'\k	.	.	.	.	.	.	.	32dd'\k	.	32a'/k	.
16.ddd'\	.	16.f#'/	.	.	.	.	.	.	.	.	16.f#'\	.	.	.	.	.	.	.	16.dd'\	.	16.a'/	.
32ddd'\JJk	.	32f#'/JJk	.	.	.	.	.	.	.	.	32f#'\JJk	.	.	.	.	.	.	.	32dd'\JJk	.	32a'/JJk	.
=87	=87	=87	=87	=87	=87	=87	=87	=87	=87	=87	=87	=87	=87	=87	=87	=87	=87	=87	=87	=87	=87	=87
*^	*	*	*	*	*	*	*	*	*	*	*	*	*^	*	*^	*	*	*	*	*	*	*
*	*	*	*	*	*	*	*v	*v	*	*	*	*	*	*	*	*	*	*	*	*	*	*	*	*	*
16.ddd'/LL	4r	.	8..e\L	.	4r	.	4r	.	4r	.	(8..e\L	.	4r	32ryy	.	4r	32ryy	.	4r	.	16.dd'\LL	.	8..g/L	.
.	.	.	.	.	.	.	.	.	.	.	.	.	.	32ryy	.	.	32ryy	.	.	.	.	.	.	.
.	.	.	.	.	.	.	.	.	.	.	.	.	.	32ryy	.	.	32ryy	.	.	.	.	.	.	.
32ccc#'/k	.	.	.	.	.	.	.	.	.	.	.	.	.	32ryy	.	.	32ryy	.	.	.	32cc#'\k	.	.	.
16.ccc#'/	.	.	.	.	.	.	.	.	.	.	.	.	.	32ryy	.	.	32ryy	.	.	.	16.cc#'\	.	.	.
.	.	.	.	.	.	.	.	.	.	.	.	.	.	32ryy	.	.	32ryy	.	.	.	.	.	.	.
.	.	.	.	.	.	.	.	.	.	.	.	.	.	32ryy	.	.	32ryy	.	.	.	.	.	.	.
32bb-'/JJk	.	.	32c#'\Jkk	.	.	.	.	.	.	.	32c#\Jkk)	.	.	32ryy	.	.	32ryy	.	.	.	32b-'\JJk	.	32e'/Jkk	.
16.bb-'/LL	8r	.	16.c#'\LL	.	8r	.	8r	.	8r	.	16.c#'\LL	.	8r	32ryy	.	8r	32ryy	.	8r	.	16.b-'/LL	.	16.e'/LL	.
.	.	.	.	.	.	.	.	.	.	.	.	.	.	32ryy	.	.	32ryy	.	.	.	.	.	.	.
.	.	.	.	.	.	.	.	.	.	.	.	.	.	32ryy	.	.	32ryy	.	.	.	.	.	.	.
32aa'/k	.	.	32c#'\k	.	.	.	.	.	.	.	32c#'\k	.	.	32ryy	.	.	32ryy	.	.	.	32a'/k	.	32e'/k	.
16.aa'/	16.r	.	16.c#'\	.	16.r	.	16.r	.	16.r	.	16.c#'\	.	16.r	32ryy	.	16.r	32ryy	.	16.r	.	16.a'/	.	16.e'/	.
.	.	.	.	.	.	.	.	.	.	.	.	.	.	32ryy	.	.	32ryy	.	.	.	.	.	.	.
.	.	.	.	.	.	.	.	.	.	.	.	.	.	32ryy	.	.	32ryy	.	.	.	.	.	.	.
32gg'/JJk	32gg'\	ff	32e'\JJk	ff	32C#'/	ff	32gg'\ 32ee\	ff	32bb-'\ 32gg\	ff	32e'\JJk	ff	32dd'/	32dd'\	ff	32g'/	32g'\	ff	32AA'/	ff	32g'/JJk	ff	32e'/JJk	ff
=88	=88	=88	=88	=88	=88	=88	=88	=88	=88	=88	=88	=88	=88	=88	=88	=88	=88	=88	=88	=88	=88	=88	=88	=88
*v	*v	*	*	*	*	*	*^	*	*	*	*	*	*	*	*	*	*	*	*	*	*	*	*	*
! zu 2	!	!	!	!	!	!	!	!	!	!	!	!	!	!	!	!	!	!	!	!	!	!	!	!
!	!	!	!	!	!	!	!	!	!	!	!	!	!	!	!	!	!	!	!	!	!	!	!	!
16.gg'\LL	.	16.A'/LL	.	16.C#'/LL	.	16.gg'\LL	16.ee\LL	.	16.bb-'\ 16.gg\LL	.	16.A'\LL	.	16.dd'/LL	16.dd'\LL	.	16.g'/LL	16.g'\LL	.	16.AA'/LL	.	16.g'/LL	.	16.e'/LL	.
32ff#'\k	.	32A'/k	.	32D'/k	.	32ff#'\k	32dd\k	.	32aa'\ 32ff\k	.	32A'\k	.	32dd'/k	32dd'\k	.	32cc'/k	32c'\k	.	32D'/k	.	32f#'/k	.	32d'/k	.
16.ff#'\	.	16.A'/	.	16.D'/	.	16.ff#'\	16.dd\	.	16.aa'\ 16.ff\	.	16.A'\	.	16.dd'/	16.dd'\	.	16.cc'/	16.c'\	.	16.D'/	.	16.f#'/	.	16.d'/	.
32ee'\JJk	.	32G'/JJk	.	32GG'/JJk	.	32ee'\JJk	32g\JJk	.	32gg'\ 32b-\JJk	.	32G'\JJk	.	32dd'/JJk	32dd'\JJk	.	32cc'/JJk	32c'\JJk	.	32D'/JJk	.	32e'/JJk	.	32B'/JJk	.
16.ee'\LL	.	16.G'/LL	.	16.GG'/LL	.	16.ee'\LL	16.g\LL	.	16.gg'\ 16.b-\LL	.	16.G'\LL	.	16.ee'/LL	16.ee'\LL	.	16.cc'/LL	16.c'\LL	.	16.D'/LL	.	16.e'/LL	.	16.B'/LL	.
32dd'\k	.	32F#'/k	.	32AA'/k	.	32dd'\k	32f#\k	.	32ff'\ 32a\k	.	32F#'\k	.	32dd'/k	32g'\k	.	32g'/k	32g'\k	.	32AA'/k	.	32d'/k	.	32A'/k	.
16.dd'\	.	16.F#'/	.	16.AA'/	.	16.dd'\	16.f#\	.	16.ff'\ 16.a\	.	16.F#'\	.	16.dd'/	16.g'\	.	16.g'/	16.g'\	.	16.AA'/	.	16.d'/	.	16.A'/	.
32cc#'\JJk	.	32E'/JJk	.	32AA'/JJk	.	32cc#'\JJk	32e\JJk	.	32ee'\ 32g\JJk	.	32E'\JJk	.	32dd'/JJk	32dd'\JJk	.	32g'/JJk	32g'\JJk	.	32AA'/JJk	.	32c#'/JJk	.	32c#'/JJk	.
=89	=89	=89	=89	=89	=89	=89	=89	=89	=89	=89	=89	=89	=89	=89	=89	=89	=89	=89	=89	=89	=89	=89	=89	=89
*	*	*	*	*	*	*v	*v	*	*	*	*	*	*	*	*	*	*	*	*	*	*	*	*	*
16.cc#'\LL	.	16.E'/LL	.	16.AA'/LL	.	16.cc#/ 16.e'/LL	.	16.ee'\ 16.g\LL	.	16.E'\LL	.	16.dd'/LL	16.dd'\LL	.	16.g'/LL	16.g'\LL	.	16.AA'/LL	.	16.c#'/LL	.	16.c#'/LL	.
32dd'\k	.	32F#'/k	.	32DD'/k	.	32dd/ 32f#'/k	.	32ff'\ 32a\k	.	32D'\k	.	32dd'/k	32g'\k	.	32cc'/k	32c'\k	.	32D'/k	.	32d'/k	.	32d'/k	.
16.dd'\	.	16.F#'/	.	16.DD'/	.	16.dd/ 16.f#'/	.	16.ff'\ 16.a\	.	16.D'\	.	16.dd'/	16.g'\	.	16.cc'/	16.c'\	.	16.D'/	.	16.d'/	.	16.d'/	.
32dd'\JJk	.	32F#'/JJk	.	32DD'/JJk	.	32dd/ 32f#'/JJk	.	32ff'\ 32a\JJk	.	32D'\JJk	.	32dd'/JJk	32g'\JJk	.	32cc'/JJk	32c'\JJk	.	32D'/JJk	.	32d'/JJk	.	32d'/JJk	.
8dd'\	.	8F#'/	.	8DD'/	.	8dd/ 8f#'/	.	8ff'\ 8a\	.	8D'\	.	8dd'/	8g'\	.	8cc'/	8c'\	.	8D'\	.	8d'/	.	8d'/	.
8r;	.	8r;	.	8r;	.	8r;	.	8r;	.	8r;	.	8ryy	8r;	.	8ryy	8r;	.	8r;	.	8r;	.	8r;	.
=90	=90	=90	=90	=90	=90	=90	=90	=90	=90	=90	=90	=90	=90	=90	=90	=90	=90	=90	=90	=90	=90	=90	=90
!	!	!	!	! Vc.	!	!	!	!	!	!	!	!	!	!	!	!	!	!	!	!	!	!	!
*	*	*	*	*	*	*^	*	*	*	*	*	*	*	*	*	*	*	*	*	*	*	*	*
*	*	*	*	*	*	*	*	*	*	*	*	*	*v	*v	*	*	*	*	*	*	*	*	*	*
*	*	*	*	*	*	*	*	*	*	*	*	*	*	*	*v	*v	*	*	*	*	*	*	*
2r	.	2r	.	(8..cn\L	p	2r	2r	.	2r	.	2r	.	2r	.	2r	.	2r	.	(8a/L	.	(4f#/	p
.	.	.	.	.	.	.	.	.	.	.	.	.	.	.	.	.	.	.	16d/L)	.	.	.
.	.	.	.	.	.	.	.	.	.	.	.	.	.	.	.	.	.	.	32r	.	.	.
.	.	.	.	32d\Jkk)	.	.	.	.	.	.	.	.	.	.	.	.	.	.	32a'/JJk	.	.	.
.	.	.	.	8B'\L	.	.	.	.	.	.	.	.	.	.	.	.	.	.	(8b/L	.	4g#/)	.
.	.	.	.	8e'\J	.	.	.	.	.	.	.	.	.	.	.	.	.	.	16d/L)	.	.	.
.	.	.	.	.	.	.	.	.	.	.	.	.	.	.	.	.	.	.	32r	.	.	.
.	.	.	.	.	.	.	.	.	.	.	.	.	.	.	.	.	.	.	32b'/JJk	.	.	.
=91	=91	=91	=91	=91	=91	=91	=91	=91	=91	=91	=91	=91	=91	=91	=91	=91	=91	=91	=91	=91	=91	=91
2r	.	2r	.	4A\	.	2r	2r	.	2r	.	2r	.	2r	.	2r	.	2r	.	8cc\L	.	8a/L	.
.	.	.	.	.	.	.	.	.	.	.	.	.	.	.	.	.	.	.	&(16dd\L)	.	&(16b/L)	.
.	.	.	.	.	.	.	.	.	.	.	.	.	.	.	.	.	.	.	32cc\L	.	32a/L	.
.	.	.	.	.	.	.	.	.	.	.	.	.	.	.	.	.	.	.	32dd\JJJ&)	.	32b/JJJ&)	.
.	.	.	.	4r	.	.	.	.	.	.	.	.	.	.	.	.	.	.	8ee\	.	8cc\	.
.	.	.	.	.	.	.	.	.	.	.	.	.	.	.	.	.	.	.	8r	.	8r	.
=92	=92	=92	=92	=92	=92	=92	=92	=92	=92	=92	=92	=92	=92	=92	=92	=92	=92	=92	=92	=92	=92	=92
2r	.	(8..fnz\L	z	2r	.	2r	2r	.	2r	.	2r	.	2r	.	2r	.	2r	.	(8dd\L	.	(4b\	.
.	.	.	.	.	.	.	.	.	.	.	.	.	.	.	.	.	.	.	16g\L)	.	.	.
.	.	.	.	.	.	.	.	.	.	.	.	.	.	.	.	.	.	.	32r	.	.	.
.	.	32g\Jkk)	.	.	.	.	.	.	.	.	.	.	.	.	.	.	.	.	32dd'\JJk	.	.	.
.	.	8e'\L	.	.	.	.	.	.	.	.	.	.	.	.	.	.	.	.	(8ee\L	.	4cc#\)	.
.	.	8a'\J	.	.	.	.	.	.	.	.	.	.	.	.	.	.	.	.	16g\L)	.	.	.
.	.	.	.	.	.	.	.	.	.	.	.	.	.	.	.	.	.	.	32r	.	.	.
.	.	.	.	.	.	.	.	.	.	.	.	.	.	.	.	.	.	.	32ee'\JJk	.	.	.
=93	=93	=93	=93	=93	=93	=93	=93	=93	=93	=93	=93	=93	=93	=93	=93	=93	=93	=93	=93	=93	=93	=93
2r	.	4d\	.	2r	.	2r	2r	.	2r	.	2r	.	2r	.	2r	.	2r	.	8ffn\L	.	8dd\L	.
.	.	.	.	.	.	.	.	.	.	.	.	.	.	.	.	.	.	.	&(16gg\L)	.	&(16ee\L)	.
.	.	.	.	.	.	.	.	.	.	.	.	.	.	.	.	.	.	.	32ff\L	.	32dd\L	.
.	.	.	.	.	.	.	.	.	.	.	.	.	.	.	.	.	.	.	32gg\JJJ&)	.	32ee\JJJ&)	.
.	.	8r	.	.	.	.	.	.	.	.	.	.	.	.	.	.	.	.	8aa'\L	.	8ffn'\Lxx	.
.	.	8g\	p	.	.	.	.	.	.	.	.	.	.	.	.	.	.	.	8dd'\J	.	8b'\J	.
=94	=94	=94	=94	=94	=94	=94	=94	=94	=94	=94	=94	=94	=94	=94	=94	=94	=94	=94	=94	=94	=94	=94
2r	.	4c\	.	4r	.	2r	2r	.	2r	.	2r	.	2r	.	2r	.	2r	.	8ee\L	.	8cc\L	.
.	.	.	.	.	.	.	.	.	.	.	.	.	.	.	.	.	.	.	&(16ffn\L)	.	&(16dd\L)	.
.	.	.	.	.	.	.	.	.	.	.	.	.	.	.	.	.	.	.	32ee\L	.	32cc\L	.
.	.	.	.	.	.	.	.	.	.	.	.	.	.	.	.	.	.	.	32ff\JJJ&)	.	32dd\JJJ&)	.
.	.	8r	.	8r	.	.	.	.	.	.	.	.	.	.	.	.	.	.	8gg'\L	.	8ee'/L	.
!	!	!	!	! Bassi	!	!	!	!	!	!	!	!	!	!	!	!	!	!	!	!	!	!
.	.	8G#'/	.	8G#'\xx	p	.	.	.	.	.	.	.	.	.	.	.	.	.	(16.ff\L	.	8B'/J	.
.	.	.	.	.	.	.	.	.	.	.	.	.	.	.	.	.	.	.	32ee\JJk)	.	.	.
=95	=95	=95	=95	=95	=95	=95	=95	=95	=95	=95	=95	=95	=95	=95	=95	=95	=95	=95	=95	=95	=95	=95
2r	.	8A'/L	.	8A'\L	.	2r	2r	.	2r	.	2r	.	2r	.	2r	.	2r	.	(16.ee\LL	.	8c'/L	.
.	.	.	.	.	.	.	.	.	.	.	.	.	.	.	.	.	.	.	32dd\k)	.	.	.
.	.	8B'/	.	8B'\	.	.	.	.	.	.	.	.	.	.	.	.	.	.	(16.dd\	.	8d'/	.
.	.	.	.	.	.	.	.	.	.	.	.	.	.	.	.	.	.	.	32cc\JJk)	.	.	.
.	.	8c'/	.	8c'\	.	.	.	.	.	.	.	.	.	.	.	.	.	.	8cc\L	.	8e'/	.
.	.	8G#'/J	.	8G#'\J	.	.	.	.	.	.	.	.	.	.	.	.	.	.	(24gg\L	.	8B'/J	.
.	.	.	.	.	.	.	.	.	.	.	.	.	.	.	.	.	.	.	24ffn\)	.	.	.
.	.	.	.	.	.	.	.	.	.	.	.	.	.	.	.	.	.	.	24ee'\JJ	.	.	.
=96	=96	=96	=96	=96	=96	=96	=96	=96	=96	=96	=96	=96	=96	=96	=96	=96	=96	=96	=96	=96	=96	=96
2r	.	8A'\L	.	8A'\L	.	2r	2r	.	2r	.	2r	.	2r	.	2r	.	2r	.	(24ffn\LL	.	8c'/L	.
.	.	.	.	.	.	.	.	.	.	.	.	.	.	.	.	.	.	.	24ee\)	.	.	.
.	.	.	.	.	.	.	.	.	.	.	.	.	.	.	.	.	.	.	24dd'\JJ	.	.	.
.	.	8B'\	.	8B'\	.	.	.	.	.	.	.	.	.	.	.	.	.	.	(24ee\LL	.	8d'/	.
.	.	.	.	.	.	.	.	.	.	.	.	.	.	.	.	.	.	.	24dd\)	.	.	.
.	.	.	.	.	.	.	.	.	.	.	.	.	.	.	.	.	.	.	24cc'\JJ	.	.	.
.	.	8c'\	.	8c'\	.	.	.	.	.	.	.	.	.	.	.	.	.	.	(24dd\LL	.	8e'/	.
.	.	.	.	.	.	.	.	.	.	.	.	.	.	.	.	.	.	.	24cc\)	.	.	.
.	.	.	.	.	.	.	.	.	.	.	.	.	.	.	.	.	.	.	24b'\JJ	.	.	.
.	.	8e'\J	.	8c#'\J	.	.	.	.	.	.	.	.	.	.	.	.	.	.	(24cc\LL	.	8g'/J	.
.	.	.	.	.	.	.	.	.	.	.	.	.	.	.	.	.	.	.	24b\)	.	.	.
.	.	.	.	.	.	.	.	.	.	.	.	.	.	.	.	.	.	.	24a'\JJ	.	.	.
=97	=97	=97	=97	=97	=97	=97	=97	=97	=97	=97	=97	=97	=97	=97	=97	=97	=97	=97	=97	=97	=97	=97
2r	.	4d\	.	4d\	.	2r	2r	.	2r	.	2r	.	2r	.	2r	.	2r	.	(8..a/L	.	4f#/	.
.	.	.	.	.	.	.	.	.	.	.	.	.	.	.	.	.	.	.	32b/Jkk)	.	.	.
.	.	4r	.	4r	.	.	.	.	.	.	.	.	.	.	.	.	.	.	8a/L	.	4r	.
.	.	.	.	.	.	.	.	.	.	.	.	.	.	.	.	.	.	.	8a#/J	.	.	.
=98	=98	=98	=98	=98	=98	=98	=98	=98	=98	=98	=98	=98	=98	=98	=98	=98	=98	=98	=98	=98	=98	=98
! 1.	!	!	!	!	!	!	!	!	!	!	!	!	!	!	!	!	!	!	!	!	!	!
(8..bb\L	p	8g\	.	8G\	.	2r	2r	.	2r	.	2r	.	2r	.	2r	.	2r	.	(8..b\L	.	8d/	.
.	.	8r	.	8r	.	.	.	.	.	.	.	.	.	.	.	.	.	.	.	.	8r	.
32ccc\Jkk)	.	.	.	.	.	.	.	.	.	.	.	.	.	.	.	.	.	.	32cc\Jkk)	.	.	.
24aa'\LL	.	8f#\	.	8D\	.	.	.	.	.	.	.	.	.	.	.	.	.	.	24a'\LL	.	8c/	.
24eee'\	.	.	.	.	.	.	.	.	.	.	.	.	.	.	.	.	.	.	24ee'\	.	.	.
24ddd'\	.	.	.	.	.	.	.	.	.	.	.	.	.	.	.	.	.	.	24dd'\	.	.	.
24ccc'\	.	8r	.	8r	.	.	.	.	.	.	.	.	.	.	.	.	.	.	24cc'\	.	8r	.
24bb'\	.	.	.	.	.	.	.	.	.	.	.	.	.	.	.	.	.	.	24b'\	.	.	.
24aa'\JJ	.	.	.	.	.	.	.	.	.	.	.	.	.	.	.	.	.	.	24a'\JJ	.	.	.
=99	=99	=99	=99	=99	=99	=99	=99	=99	=99	=99	=99	=99	=99	=99	=99	=99	=99	=99	=99	=99	=99	=99
8gg\	.	4g\	.	4E\	.	2r	2r	.	2r	.	2r	.	2r	.	2r	.	2r	.	8g/	.	24B'/LL	.
.	.	.	.	.	.	.	.	.	.	.	.	.	.	.	.	.	.	.	.	.	24e'/	.
.	.	.	.	.	.	.	.	.	.	.	.	.	.	.	.	.	.	.	.	.	24d'/	.
8r	.	.	.	.	.	.	.	.	.	.	.	.	.	.	.	.	.	.	8r	.	24c'/	.
.	.	.	.	.	.	.	.	.	.	.	.	.	.	.	.	.	.	.	.	.	24B'/	.
.	.	.	.	.	.	.	.	.	.	.	.	.	.	.	.	.	.	.	.	.	24A'/JJ	.
24r	.	8r	.	8r	.	.	.	.	.	.	.	.	.	.	.	.	.	.	24r	.	8G/L	.
24eee'\LL	rf	.	.	.	.	.	.	.	.	.	.	.	.	.	.	.	.	.	24ee'\LL	rf	.	.
24ddd'\JJ	.	.	.	.	.	.	.	.	.	.	.	.	.	.	.	.	.	.	24dd'\JJ	.	.	.
24ccc'\LL	.	(8G/	rf	(8Cz/	z	.	.	.	.	.	.	.	.	.	.	.	.	.	24cc'\LL	.	(8ez/J	z
24bb'\	.	.	.	.	.	.	.	.	.	.	.	.	.	.	.	.	.	.	24b'\	.	.	.
24aa'\JJ	.	.	.	.	.	.	.	.	.	.	.	.	.	.	.	.	.	.	24a'\JJ	.	.	.
=100	=100	=100	=100	=100	=100	=100	=100	=100	=100	=100	=100	=100	=100	=100	=100	=100	=100	=100	=100	=100	=100	=100
(24gg\LL	.	8A/)	.	8c\)	.	2r	2r	.	2r	.	2r	.	2r	.	2r	.	2r	.	(24g/LL	.	8d/)	.
24ff#\)	.	.	.	.	.	.	.	.	.	.	.	.	.	.	.	.	.	.	24f#/)	.	.	.
24aa'\JJ	.	.	.	.	.	.	.	.	.	.	.	.	.	.	.	.	.	.	24a'/JJ	.	.	.
(24aa\LL	.	8B'/L	p	8B'\L	p	.	.	.	.	.	.	.	.	.	.	.	.	.	(24a\LL	p	8d'/L	p
24gg\)	.	.	.	.	.	.	.	.	.	.	.	.	.	.	.	.	.	.	24g\)	.	.	.
24ddd'\JJ	.	.	.	.	.	.	.	.	.	.	.	.	.	.	.	.	.	.	24dd'\JJ	.	.	.
(24ddd\LL	.	8D'/	.	8F#'\	.	.	.	.	.	.	.	.	.	.	.	.	.	.	(24dd\LL	.	8a'/	.
24ccc\)	.	.	.	.	.	.	.	.	.	.	.	.	.	.	.	.	.	.	24cc\)	.	.	.
24ccc'\JJ	.	.	.	.	.	.	.	.	.	.	.	.	.	.	.	.	.	.	24cc'\JJ	.	.	.
(24ccc\LL	.	8D'/J	.	8G'\J	.	.	.	.	.	.	.	.	.	.	.	.	.	.	(24cc\LL	.	8g'/J	.
24bb\)	.	.	.	.	.	.	.	.	.	.	.	.	.	.	.	.	.	.	24b\)	.	.	.
24bb'\JJ	.	.	.	.	.	.	.	.	.	.	.	.	.	.	.	.	.	.	24b'\JJ	.	.	.
=101	=101	=101	=101	=101	=101	=101	=101	=101	=101	=101	=101	=101	=101	=101	=101	=101	=101	=101	=101	=101	=101	=101
(8..bb\L	.	4D/	.	4D\	.	2r	2r	.	2r	.	2r	.	2r	.	2r	.	2r	.	(8..b\L	.	(8..g/L	.
32ccc\Jkk)	.	.	.	.	.	.	.	.	.	.	.	.	.	.	.	.	.	.	32cc\Jkk)	.	32a/Jkk)	.
8aa\	.	4r	.	4r	.	.	.	.	.	.	.	.	.	.	.	.	.	.	8a/L	.	8f#'/	.
8r	.	.	.	.	.	.	.	.	.	.	.	.	.	.	.	.	.	.	8b/J	.	8r	.
=102	=102	=102	=102	=102	=102	=102	=102	=102	=102	=102	=102	=102	=102	=102	=102	=102	=102	=102	=102	=102	=102	=102
2r	.	(2A/	.	4.D\	.	2r	2r	.	2r	.	2r	.	2r	.	2r	.	2r	.	(8..cc\L	.	24f#/LL	.
.	.	.	.	.	.	.	.	.	.	.	.	.	.	.	.	.	.	.	.	.	24a/	.
.	.	.	.	.	.	.	.	.	.	.	.	.	.	.	.	.	.	.	.	.	24cc/JJ	.
.	.	.	.	.	.	.	.	.	.	.	.	.	.	.	.	.	.	.	.	.	24b/LL	.
.	.	.	.	.	.	.	.	.	.	.	.	.	.	.	.	.	.	.	.	.	24a/	.
.	.	.	.	.	.	.	.	.	.	.	.	.	.	.	.	.	.	.	32dd\Jkk)	.	24g/JJ	.
.	.	.	.	.	.	.	.	.	.	.	.	.	.	.	.	.	.	.	8cc\L	.	24f#/LL	.
.	.	.	.	.	.	.	.	.	.	.	.	.	.	.	.	.	.	.	.	.	24e/	.
.	.	.	.	.	.	.	.	.	.	.	.	.	.	.	.	.	.	.	.	.	24d/JJ	.
.	.	.	.	8C/	.	.	.	.	.	.	.	.	.	.	.	.	.	.	8cc#\J	.	24a/LL	.
.	.	.	.	.	.	.	.	.	.	.	.	.	.	.	.	.	.	.	.	.	24f#/	.
.	.	.	.	.	.	.	.	.	.	.	.	.	.	.	.	.	.	.	.	.	24d/JJ	.
=103	=103	=103	=103	=103	=103	=103	=103	=103	=103	=103	=103	=103	=103	=103	=103	=103	=103	=103	=103	=103	=103	=103
2r	.	[2G/)	.	[2BB/	.	2r	2r	.	2r	.	2r	.	2r	.	2r	.	2r	.	[2dd\	.	24g/LL	.
.	.	.	.	.	.	.	.	.	.	.	.	.	.	.	.	.	.	.	.	.	24d/	.
.	.	.	.	.	.	.	.	.	.	.	.	.	.	.	.	.	.	.	.	.	24B/JJ	.
.	.	.	.	.	.	.	.	.	.	.	.	.	.	.	.	.	.	.	.	.	24G/LL	.
.	.	.	.	.	.	.	.	.	.	.	.	.	.	.	.	.	.	.	.	.	24B/	.
.	.	.	.	.	.	.	.	.	.	.	.	.	.	.	.	.	.	.	.	.	24d/JJ	.
.	.	.	.	.	.	.	.	.	.	.	.	.	.	.	.	.	.	.	.	.	24g/LL	.
.	.	.	.	.	.	.	.	.	.	.	.	.	.	.	.	.	.	.	.	.	24d/	.
.	.	.	.	.	.	.	.	.	.	.	.	.	.	.	.	.	.	.	.	.	24B/JJ	.
.	.	.	.	.	.	.	.	.	.	.	.	.	.	.	.	.	.	.	.	.	24G/LL	.
.	.	.	.	.	.	.	.	.	.	.	.	.	.	.	.	.	.	.	.	.	24B/	.
.	.	.	.	.	.	.	.	.	.	.	.	.	.	.	.	.	.	.	.	.	24d/JJ	.
=104	=104	=104	=104	=104	=104	=104	=104	=104	=104	=104	=104	=104	=104	=104	=104	=104	=104	=104	=104	=104	=104	=104
2r	.	8G/L]	.	8BB/L]	.	2r	2r	.	2r	.	2r	.	2r	.	2r	.	2r	.	8dd\L]	.	24g/LL	.
.	.	.	.	.	.	.	.	.	.	.	.	.	.	.	.	.	.	.	.	.	24d/	.
.	.	.	.	.	.	.	.	.	.	.	.	.	.	.	.	.	.	.	.	.	24B/JJ	.
.	.	8G'/	.	8BB'/	.	.	.	.	.	.	.	.	.	.	.	.	.	.	8dd'\J	.	24G/LL	.
.	.	.	.	.	.	.	.	.	.	.	.	.	.	.	.	.	.	.	.	.	24B/	.
.	.	.	.	.	.	.	.	.	.	.	.	.	.	.	.	.	.	.	.	.	24d/JJ	.
.	.	8G'/	.	8BB'/	.	.	.	.	.	.	.	.	.	.	.	.	.	.	8dd'\L	.	24g/LL	.
.	.	.	.	.	.	.	.	.	.	.	.	.	.	.	.	.	.	.	.	.	24d/	.
.	.	.	.	.	.	.	.	.	.	.	.	.	.	.	.	.	.	.	.	.	24B/JJ	.
.	.	8G'/J	.	8BB'/J	.	.	.	.	.	.	.	.	.	.	.	.	.	.	(16dd\L	.	24G/LL	.
.	.	.	.	.	.	.	.	.	.	.	.	.	.	.	.	.	.	.	16ee-\JJ)	.	24B/	.
.	.	.	.	.	.	.	.	.	.	.	.	.	.	.	.	.	.	.	.	.	24d/JJ	.
=105	=105	=105	=105	=105	=105	=105	=105	=105	=105	=105	=105	=105	=105	=105	=105	=105	=105	=105	=105	=105	=105	=105
2r	.	[2G/	.	[2C/	.	2r	2r	.	2r	.	2r	.	2r	.	2r	.	2r	.	[2ee-\	.	24g/LL	.
.	.	.	.	.	.	.	.	.	.	.	.	.	.	.	.	.	.	.	.	.	24e-/	.
.	.	.	.	.	.	.	.	.	.	.	.	.	.	.	.	.	.	.	.	.	24c/JJ	.
.	.	.	.	.	.	.	.	.	.	.	.	.	.	.	.	.	.	.	.	.	24G/LL	.
.	.	.	.	.	.	.	.	.	.	.	.	.	.	.	.	.	.	.	.	.	24c/	.
.	.	.	.	.	.	.	.	.	.	.	.	.	.	.	.	.	.	.	.	.	24e-/JJ	.
.	.	.	.	.	.	.	.	.	.	.	.	.	.	.	.	.	.	.	.	.	24g/LL	.
.	.	.	.	.	.	.	.	.	.	.	.	.	.	.	.	.	.	.	.	.	24e-/	.
.	.	.	.	.	.	.	.	.	.	.	.	.	.	.	.	.	.	.	.	.	24c/JJ	.
.	.	.	.	.	.	.	.	.	.	.	.	.	.	.	.	.	.	.	.	.	24G/LL	.
.	.	.	.	.	.	.	.	.	.	.	.	.	.	.	.	.	.	.	.	.	24c/	.
.	.	.	.	.	.	.	.	.	.	.	.	.	.	.	.	.	.	.	.	.	24e-/JJ	.
=106	=106	=106	=106	=106	=106	=106	=106	=106	=106	=106	=106	=106	=106	=106	=106	=106	=106	=106	=106	=106	=106	=106
2r	.	8G/L]	.	8C/L]	.	2r	2r	.	2r	.	2r	.	2r	.	2r	.	2r	.	8ee-\L]	.	24g/LL	.
.	.	.	.	.	.	.	.	.	.	.	.	.	.	.	.	.	.	.	.	.	24e-/	.
.	.	.	.	.	.	.	.	.	.	.	.	.	.	.	.	.	.	.	.	.	24c/JJ	.
.	.	8G/	.	8C/	.	.	.	.	.	.	.	.	.	.	.	.	.	.	8ee-'\	.	24G/LL	.
.	.	.	.	.	.	.	.	.	.	.	.	.	.	.	.	.	.	.	.	.	24c/	.
.	.	.	.	.	.	.	.	.	.	.	.	.	.	.	.	.	.	.	.	.	24e-/JJ	.
.	.	8G/	.	8C/	.	.	.	.	.	.	.	.	.	.	.	.	.	.	8ee-'\	.	24g/LL	.
.	.	.	.	.	.	.	.	.	.	.	.	.	.	.	.	.	.	.	.	.	24e-/	.
.	.	.	.	.	.	.	.	.	.	.	.	.	.	.	.	.	.	.	.	.	24c/JJ	.
.	.	8G/J	.	8C/J	.	.	.	.	.	.	.	.	.	.	.	.	.	.	8ee-'\J	.	24G/LL	.
.	.	.	.	.	.	.	.	.	.	.	.	.	.	.	.	.	.	.	.	.	24c/	.
.	.	.	.	.	.	.	.	.	.	.	.	.	.	.	.	.	.	.	.	.	24e-/JJ	.
=107	=107	=107	=107	=107	=107	=107	=107	=107	=107	=107	=107	=107	=107	=107	=107	=107	=107	=107	=107	=107	=107	=107
2r	.	[2A-/	.	[2C/	.	2r	2r	.	2r	.	2r	.	2r	.	2r	.	2r	.	(8..ee-\L	.	24a-/LL	.
.	.	.	.	.	.	.	.	.	.	.	.	.	.	.	.	.	.	.	.	.	24e-/	.
.	.	.	.	.	.	.	.	.	.	.	.	.	.	.	.	.	.	.	.	.	24c/JJ	.
.	.	.	.	.	.	.	.	.	.	.	.	.	.	.	.	.	.	.	.	.	24A-/LL	.
.	.	.	.	.	.	.	.	.	.	.	.	.	.	.	.	.	.	.	.	.	24c/	.
.	.	.	.	.	.	.	.	.	.	.	.	.	.	.	.	.	.	.	32ffn\Jkk)	.	24e-/JJ	.
.	.	.	.	.	.	.	.	.	.	.	.	.	.	.	.	.	.	.	8ee-'\L	.	24a-/LL	.
.	.	.	.	.	.	.	.	.	.	.	.	.	.	.	.	.	.	.	.	.	24e-/	.
.	.	.	.	.	.	.	.	.	.	.	.	.	.	.	.	.	.	.	.	.	24c/JJ	.
.	.	.	.	.	.	.	.	.	.	.	.	.	.	.	.	.	.	.	8ee-'\J	.	24A-/LL	.
.	.	.	.	.	.	.	.	.	.	.	.	.	.	.	.	.	.	.	.	.	24c/	.
.	.	.	.	.	.	.	.	.	.	.	.	.	.	.	.	.	.	.	.	.	24e-/JJ	.
=108	=108	=108	=108	=108	=108	=108	=108	=108	=108	=108	=108	=108	=108	=108	=108	=108	=108	=108	=108	=108	=108	=108
2r	.	8A-/L]	.	8C/L]	.	2r	2r	.	2r	.	2r	.	2r	.	2r	.	2r	.	(4.ee-\	.	24a-/LL	.
.	.	.	.	.	.	.	.	.	.	.	.	.	.	.	.	.	.	.	.	.	24e-/	.
.	.	.	.	.	.	.	.	.	.	.	.	.	.	.	.	.	.	.	.	.	24c/JJ	.
!	!	! cresc.	!	! cresc.	!	!	!	!	!	!	!	!	!	!	!	!	!	!	!	!	! cresc.	!
.	.	8A-/	.	8C/	.	.	.	.	.	.	.	.	.	.	.	.	.	.	.	.	24A-/LL	.
.	.	.	.	.	.	.	.	.	.	.	.	.	.	.	.	.	.	.	.	.	24c/	.
.	.	.	.	.	.	.	.	.	.	.	.	.	.	.	.	.	.	.	.	.	24e-/JJ	.
.	.	8A-/	.	8C/	.	.	.	.	.	.	.	.	.	.	.	.	.	.	.	.	24a-/LL	.
.	.	.	.	.	.	.	.	.	.	.	.	.	.	.	.	.	.	.	.	.	24e-/	.
.	.	.	.	.	.	.	.	.	.	.	.	.	.	.	.	.	.	.	.	.	24c/JJ	.
!	!	!	!	!	!	!	!	!	!	!	!	!	!	!	!	!	!	!	! cresc.	!	!	!
.	.	8A-/J	.	8C/J	.	.	.	.	.	.	.	.	.	.	.	.	.	.	8een\)	.	24A-/LL	.
.	.	.	.	.	.	.	.	.	.	.	.	.	.	.	.	.	.	.	.	.	24c/	.
.	.	.	.	.	.	.	.	.	.	.	.	.	.	.	.	.	.	.	.	.	24e-/JJ	.
=109	=109	=109	=109	=109	=109	=109	=109	=109	=109	=109	=109	=109	=109	=109	=109	=109	=109	=109	=109	=109	=109	=109
2r	.	[2A-/	<	[2D-\	<	2r	2r	.	2r	.	2r	.	2r	.	2r	.	2r	.	[2ffn\	<	24a-/LL	.
.	.	.	.	.	.	.	.	.	.	.	.	.	.	.	.	.	.	.	.	.	24fn/	.
.	.	.	.	.	.	.	.	.	.	.	.	.	.	.	.	.	.	.	.	.	24d-/JJ	.
.	.	.	.	.	.	.	.	.	.	.	.	.	.	.	.	.	.	.	.	.	24A-/LL	.
.	.	.	.	.	.	.	.	.	.	.	.	.	.	.	.	.	.	.	.	.	24d-/	.
.	.	.	.	.	.	.	.	.	.	.	.	.	.	.	.	.	.	.	.	.	24f/JJ	.
.	.	.	.	.	.	.	.	.	.	.	.	.	.	.	.	.	.	.	.	.	24a-/LL	<
.	.	.	.	.	.	.	.	.	.	.	.	.	.	.	.	.	.	.	.	.	24f/	.
.	.	.	.	.	.	.	.	.	.	.	.	.	.	.	.	.	.	.	.	.	24d-/JJ	.
.	.	.	.	.	.	.	.	.	.	.	.	.	.	.	.	.	.	.	.	.	24A-/LL	.
.	.	.	.	.	.	.	.	.	.	.	.	.	.	.	.	.	.	.	.	.	24d-/	.
.	.	.	.	.	.	.	.	.	.	.	.	.	.	.	.	.	.	.	.	.	24f/JJ	.
=110	=110	=110	=110	=110	=110	=110	=110	=110	=110	=110	=110	=110	=110	=110	=110	=110	=110	=110	=110	=110	=110	=110
2r	.	8A-/L]	]f	8D-\L]	]f	2r	2r	.	2r	.	2r	.	2r	.	2r	.	2r	.	8ffn\L]	]f	24a-/LL	]f
.	.	.	.	.	.	.	.	.	.	.	.	.	.	.	.	.	.	.	.	.	24fn/	.
.	.	.	.	.	.	.	.	.	.	.	.	.	.	.	.	.	.	.	.	.	24d-/JJ	.
.	.	8A-/]	.	8D-\]	.	.	.	.	.	.	.	.	.	.	.	.	.	.	(8ff'\]	.	24A-/LL	.
.	.	.	.	.	.	.	.	.	.	.	.	.	.	.	.	.	.	.	.	.	24d-/	.
.	.	.	.	.	.	.	.	.	.	.	.	.	.	.	.	.	.	.	.	.	24f/JJ	.
.	.	8A-/	.	8D-\	.	.	.	.	.	.	.	.	.	.	.	.	.	.	8ff'\	.	24a-/LL	.
.	.	.	.	.	.	.	.	.	.	.	.	.	.	.	.	.	.	.	.	.	24f/	.
.	.	.	.	.	.	.	.	.	.	.	.	.	.	.	.	.	.	.	.	.	24d-/JJ	.
.	.	8A-/J	.	8D-\J	.	.	.	.	.	.	.	.	.	.	.	.	.	.	8ff'\J)	.	24A-/LL	.
.	.	.	.	.	.	.	.	.	.	.	.	.	.	.	.	.	.	.	.	.	24d-/	.
.	.	.	.	.	.	.	.	.	.	.	.	.	.	.	.	.	.	.	.	.	24f/JJ	.
=111	=111	=111	=111	=111	=111	=111	=111	=111	=111	=111	=111	=111	=111	=111	=111	=111	=111	=111	=111	=111	=111	=111
2r	.	[2A-/	.	[2D-\	.	2r	2r	.	2r	.	2r	.	2r	.	2r	.	2r	.	(8..ffn\L	.	24a-/LL	.
.	.	.	.	.	.	.	.	.	.	.	.	.	.	.	.	.	.	.	.	.	24fn/	.
.	.	.	.	.	.	.	.	.	.	.	.	.	.	.	.	.	.	.	.	.	24d-/JJ	.
.	.	.	.	.	.	.	.	.	.	.	.	.	.	.	.	.	.	.	.	.	24A-/LL	.
.	.	.	.	.	.	.	.	.	.	.	.	.	.	.	.	.	.	.	.	.	24d-/	.
.	.	.	.	.	.	.	.	.	.	.	.	.	.	.	.	.	.	.	32gg-\Jkk)	.	24f/JJ	.
.	.	.	.	.	.	.	.	.	.	.	.	.	.	.	.	.	.	.	8ff\L	.	24a-/LL	.
.	.	.	.	.	.	.	.	.	.	.	.	.	.	.	.	.	.	.	.	.	24f/	.
.	.	.	.	.	.	.	.	.	.	.	.	.	.	.	.	.	.	.	.	.	24d-/JJ	.
.	.	.	.	.	.	.	.	.	.	.	.	.	.	.	.	.	.	.	8ff'\J	.	24A-/LL	.
.	.	.	.	.	.	.	.	.	.	.	.	.	.	.	.	.	.	.	.	.	24d-/	.
.	.	.	.	.	.	.	.	.	.	.	.	.	.	.	.	.	.	.	.	.	24f/JJ	.
=112	=112	=112	=112	=112	=112	=112	=112	=112	=112	=112	=112	=112	=112	=112	=112	=112	=112	=112	=112	=112	=112	=112
2r	.	2A-/_	>	2D-\_	>	2r	2r	.	2r	.	2r	.	2r	.	2r	.	2r	.	[2ffn\	>	24a-/LL	.
.	.	.	.	.	.	.	.	.	.	.	.	.	.	.	.	.	.	.	.	.	24fn/	.
.	.	.	.	.	.	.	.	.	.	.	.	.	.	.	.	.	.	.	.	.	24d-/JJ	.
.	.	.	.	.	.	.	.	.	.	.	.	.	.	.	.	.	.	.	.	.	24A-/LL	>
.	.	.	.	.	.	.	.	.	.	.	.	.	.	.	.	.	.	.	.	.	24d-/	.
.	.	.	.	.	.	.	.	.	.	.	.	.	.	.	.	.	.	.	.	.	24f/JJ	.
.	.	.	.	.	.	.	.	.	.	.	.	.	.	.	.	.	.	.	.	.	24a-/LL	.
.	.	.	.	.	.	.	.	.	.	.	.	.	.	.	.	.	.	.	.	.	24f/	.
.	.	.	.	.	.	.	.	.	.	.	.	.	.	.	.	.	.	.	.	.	24d-/JJ	.
.	.	.	.	.	.	.	.	.	.	.	.	.	.	.	.	.	.	.	.	.	24A-/LL	.
.	.	.	.	.	.	.	.	.	.	.	.	.	.	.	.	.	.	.	.	.	24d-/	.
.	.	.	.	.	.	.	.	.	.	.	.	.	.	.	.	.	.	.	.	.	24f/JJ	.
=113	=113	=113	=113	=113	=113	=113	=113	=113	=113	=113	=113	=113	=113	=113	=113	=113	=113	=113	=113	=113	=113	=113
*	*	*	*	*	*	*v	*v	*	*	*	*	*	*	*	*	*	*	*	*	*	*	*
2r;	.	2A-;/]	]p	2D-;\]	]p	2r;	.	2r;	.	2r;	.	2r;	.	2r;	.	2r;	.	2ff;\]	]p	2a-;/	]p
=114	=114	=114	=114	=114	=114	=114	=114	=114	=114	=114	=114	=114	=114	=114	=114	=114	=114	=114	=114	=114	=114
! 1.	!	!	!	!	!	!	!	!	!	!	!	!	!	!	!	!	!	!	!	!	!
*	*	*	*	*	*	*	*	*	*	*^	*	*	*	*	*	*	*	*	*	*	*
(8..ee\L	p	2r	.	2r	.	(4g#/	p	2r	.	2c#/	2c#\	p	2r	.	2r	.	2r	.	2r	.	2r	.
32ff#\Jkk)	.	.	.	.	.	.	.	.	.	.	.	.	.	.	.	.	.	.	.	.	.	.
8ee'\L	.	.	.	.	.	4a/)	.	.	.	.	.	.	.	.	.	.	.	.	.	.	.	.
8ee'\J	.	.	.	.	.	.	.	.	.	.	.	.	.	.	.	.	.	.	.	.	.	.
=115	=115	=115	=115	=115	=115	=115	=115	=115	=115	=115	=115	=115	=115	=115	=115	=115	=115	=115	=115	=115	=115	=115
! pi\u8 largo	!	!	!	!	!	!	!	!	!	!	!	!	!	!	!	!	!	!	!	!	!	!
(16dd#'\LL	.	2r;	.	2r;	.	2a;/ 2f#/	p	2r;	.	2B#;/	2B#\	.	2r;	.	2r;	.	2r;	.	2r;	.	2r;	.
16ff#'\	.	.	.	.	.	.	.	.	.	.	.	.	.	.	.	.	.	.	.	.	.	.
16aa'\	.	.	.	.	.	.	.	.	.	.	.	.	.	.	.	.	.	.	.	.	.	.
16bb#'\JJ)	.	.	.	.	.	.	.	.	.	.	.	.	.	.	.	.	.	.	.	.	.	.
4ddd#;\	.	.	.	.	.	.	.	.	.	.	.	.	.	.	.	.	.	.	.	.	.	.
=116	=116	=116	=116	=116	=116	=116	=116	=116	=116	=116	=116	=116	=116	=116	=116	=116	=116	=116	=116	=116	=116	=116
! a tempo	!	!	!	!	!	!	!	!	!	!	!	!	!	!	!	!	!	!	!	!	!	!
(8..ddn\L	.	2r	.	2r	.	2g#/ 2e#/	.	2r	.	2Bn/	2Bn\	.	2r	.	2r	.	2r	.	2r	.	2r	.
32ee\Jkk)	.	.	.	.	.	.	.	.	.	.	.	.	.	.	.	.	.	.	.	.	.	.
8dd'\L	.	.	.	.	.	.	.	.	.	.	.	.	.	.	.	.	.	.	.	.	.	.
8dd'\J	.	.	.	.	.	.	.	.	.	.	.	.	.	.	.	.	.	.	.	.	.	.
=117	=117	=117	=117	=117	=117	=117	=117	=117	=117	=117	=117	=117	=117	=117	=117	=117	=117	=117	=117	=117	=117	=117
! pi\u8 largo	!	!	!	!	!	!	!	!	!	!	!	!	!	!	!	!	!	!	!	!	!	!
(16cc#'\LL	.	2r;	.	2r;	.	2cc#;/ 2f#/	.	2r;	.	2A#;/	2A#\	.	2r;	.	2r;	.	2r;	.	2r;	.	2r;	.
16ff#'\	.	.	.	.	.	.	.	.	.	.	.	.	.	.	.	.	.	.	.	.	.	.
16aa#'\	.	.	.	.	.	.	.	.	.	.	.	.	.	.	.	.	.	.	.	.	.	.
16ccc#'\JJ)	.	.	.	.	.	.	.	.	.	.	.	.	.	.	.	.	.	.	.	.	.	.
4fff#;\	.	.	.	.	.	.	.	.	.	.	.	.	.	.	.	.	.	.	.	.	.	.
=118	=118	=118	=118	=118	=118	=118	=118	=118	=118	=118	=118	=118	=118	=118	=118	=118	=118	=118	=118	=118	=118	=118
! a tempo	!	!	!	!	!	!	!	!	!	!	!	!	!	!	!	!	!	!	!	!	!	!
2r	.	2An/_	p	8r	.	2r	.	2r	.	(8..c#/L	[2A\	p	2r	.	2r	.	2r	.	(8..cc#\L	p	[2f#/	p
.	.	.	.	(8c#\L	p	.	.	.	.	.	.	.	.	.	.	.	.	.	.	.	.	.
.	.	.	.	.	.	.	.	.	.	32d/Jkk)	.	.	.	.	.	.	.	.	32dd\Jkk)	.	.	.
.	.	.	.	8A\	.	.	.	.	.	8c#'/L	.	.	.	.	.	.	.	.	8cc#'\L	.	.	.
.	.	.	.	8F#\J)	.	.	.	.	.	8c#'/J	.	.	.	.	.	.	.	.	8aa'\J	.	.	.
=119	=119	=119	=119	=119	=119	=119	=119	=119	=119	=119	=119	=119	=119	=119	=119	=119	=119	=119	=119	=119	=119	=119
*	*	*	*	*	*	*^	*	*	*	*	*	*	*	*	*	*	*	*	*	*	*	*
2r	.	2A/]	.	8r	.	2r	2r	.	2r	.	(8..d/L	2A\]	.	2r	.	2r	.	2r	.	(8..dd\L	.	2f#/]	.
.	.	.	.	(8d\L	.	.	.	.	.	.	.	.	.	.	.	.	.	.	.	.	.	.	.
.	.	.	.	.	.	.	.	.	.	.	32e/Jkk)	.	.	.	.	.	.	.	.	32ee\Jkk)	.	.	.
.	.	.	.	8A\	.	.	.	.	.	.	8d'/L	.	.	.	.	.	.	.	.	8dd'\L	.	.	.
.	.	.	.	8F#\J)	.	.	.	.	.	.	8d'/J	.	.	.	.	.	.	.	.	8aa'\J	.	.	.
=120	=120	=120	=120	=120	=120	=120	=120	=120	=120	=120	=120	=120	=120	=120	=120	=120	=120	=120	=120	=120	=120	=120	=120
2r	.	[2cn\	.	2D\_	.	2r	2r	.	2r	.	(8..cn/L	[2F#\	.	2r	.	2r	.	2r	.	(8..ccn\L	.	[2f#/ 2A/	.
.	.	.	.	.	.	.	.	.	.	.	32d/Jkk)	.	.	.	.	.	.	.	.	32dd\Jkk)	.	.	.
.	.	.	.	.	.	.	.	.	.	.	8c'/L	.	.	.	.	.	.	.	.	8ccn'\L	.	.	.
.	.	.	.	.	.	.	.	.	.	.	8c'/J	.	.	.	.	.	.	.	.	8aa'\J	.	.	.
=121	=121	=121	=121	=121	=121	=121	=121	=121	=121	=121	=121	=121	=121	=121	=121	=121	=121	=121	=121	=121	=121	=121	=121
! zu 2	!	!	!	!	!	!	!	!	!	!	!	!	!	!	!	!	!	!	!	!	!	!	!
*	*	*	*	*	*	*v	*v	*	*	*	*	*	*	*	*	*	*	*	*	*	*	*	*
2cccn\	p	2c\]	.	2D\]	.	2aa\ 2ff#\	p	2r	.	2c/	2F#\]	>]	2r	.	2r	.	32D\LLL	pp	8cc'\L	.	2f#/ 2A/]	.
.	.	.	.	.	.	.	.	.	.	.	.	.	.	.	.	.	32D\	.	.	.	.	.
.	.	.	.	.	.	.	.	.	.	.	.	.	.	.	.	.	32D\	.	.	.	.	.
.	.	.	.	.	.	.	.	.	.	.	.	.	.	.	.	.	32D\	.	.	.	.	.
.	.	.	.	.	.	.	.	.	.	.	.	.	.	.	.	.	32D\	.	8aa'\	.	.	.
.	.	.	.	.	.	.	.	.	.	.	.	.	.	.	.	.	32D\	.	.	.	.	.
.	.	.	.	.	.	.	.	.	.	.	.	.	.	.	.	.	32D\	.	.	.	.	.
.	.	.	.	.	.	.	.	.	.	.	.	.	.	.	.	.	32D\	.	.	.	.	.
.	.	.	.	.	.	.	.	.	.	.	.	.	.	.	.	.	32D\	.	8cc'\	.	.	.
.	.	.	.	.	.	.	.	.	.	.	.	.	.	.	.	.	32D\	.	.	.	.	.
.	.	.	.	.	.	.	.	.	.	.	.	.	.	.	.	.	32D\	.	.	.	.	.
.	.	.	.	.	.	.	.	.	.	.	.	.	.	.	.	.	32D\	.	.	.	.	.
.	.	.	.	.	.	.	.	.	.	.	.	.	.	.	.	.	32D\	.	8aa'\J	.	.	.
.	.	.	.	.	.	.	.	.	.	.	.	.	.	.	.	.	32D\	.	.	.	.	.
.	.	.	.	.	.	.	.	.	.	.	.	.	.	.	.	.	32D\	.	.	.	.	.
.	.	.	.	.	.	.	.	.	.	.	.	.	.	.	.	.	32D\JJJ	.	.	.	.	.
=122	=122	=122	=122	=122	=122	=122	=122	=122	=122	=122	=122	=122	=122	=122	=122	=122	=122	=122	=122	=122	=122	=122
(8..bb\L	ff	8G/	ff	8G\	ff	4bb\xx 4gg\	ff	2r	.	(8..B/L	8G\	ff	4ee\ 4cc\	ff	2r	.	4D\	f	(8..bn\L	ff	8d/ 8B/	ff
.	.	8r	.	8r	.	.	.	.	.	.	8r	.	.	.	.	.	.	.	.	.	8r	.
32ccc\Jkk)	.	.	.	.	.	.	.	.	.	32c/Jkk)	.	.	.	.	.	.	.	.	32cc\Jkk)	.	.	.
24aa'\LL	.	8f#\	.	8D\	.	4r	.	.	.	24A'/LL	4r	.	4dd\ 4g\	.	.	.	4r	.	24a'\LL	.	8c/	.
24eee'\	.	.	.	.	.	.	.	.	.	24e'/	.	.	.	.	.	.	.	.	24ee'\	.	.	.
24ddd'\JJ	.	.	.	.	.	.	.	.	.	24d'/JJ	.	.	.	.	.	.	.	.	24dd'\JJ	.	.	.
24ccc'\LL	.	8r	.	8r	.	.	.	.	.	24c'/LL	.	.	.	.	.	.	.	.	24cc'\LL	.	8r	.
24bb\	.	.	.	.	.	.	.	.	.	24B'/	.	.	.	.	.	.	.	.	24b'\	.	.	.
24aa'\JJ	.	.	.	.	.	.	.	.	.	24A'/JJ	.	.	.	.	.	.	.	.	24a'\JJ	.	.	.
=123	=123	=123	=123	=123	=123	=123	=123	=123	=123	=123	=123	=123	=123	=123	=123	=123	=123	=123	=123	=123	=123	=123
*	*	*	*	*	*	*^	*	*	*	*	*	*	*	*	*	*	*	*	*	*	*	*
8gg\	.	8g\	.	8E\	.	2r	2r	.	2r	.	8G/	4r	.	4cc/ 4e/	.	2r	.	2r	.	8g/	.	24B/LL	.
.	.	.	.	.	.	.	.	.	.	.	.	.	.	.	.	.	.	.	.	.	.	24e'/	.
.	.	.	.	.	.	.	.	.	.	.	.	.	.	.	.	.	.	.	.	.	.	24d'/JJ	.
8r	.	8r	.	8r	.	.	.	.	.	.	8r	.	.	.	.	.	.	.	.	8r	.	24c'/LL	.
.	.	.	.	.	.	.	.	.	.	.	.	.	.	.	.	.	.	.	.	.	.	24B'/	.
.	.	.	.	.	.	.	.	.	.	.	.	.	.	.	.	.	.	.	.	.	.	24A'/JJ	.
!	!	!	!	!	!	!	!	!	!	!	! zu 2	!	!	!	!	!	!	!	!	!	!	!	!
24r	.	8r	.	8r	.	.	.	.	.	.	24r	4ryy	.	4r	.	.	.	.	.	24r	.	8G'/L	.
24eee'\LL	rf	.	.	.	.	.	.	.	.	.	24e'\LL	.	rf	.	.	.	.	.	.	24ee'\LL	rf	.	.
24ddd'\JJ	.	.	.	.	.	.	.	.	.	.	24d'\JJ	.	.	.	.	.	.	.	.	24dd'\JJ	.	.	.
24ccc'\LL	.	(8Gz/	z	(8Cz/	z	.	.	.	.	.	24c'\LL	.	.	.	.	.	.	.	.	24cc'\LL	.	(8e/J	rf
24bb'\	.	.	.	.	.	.	.	.	.	.	24B'\	.	.	.	.	.	.	.	.	24b'\	.	.	.
24aa'\JJ	.	.	.	.	.	.	.	.	.	.	24A'\JJ	.	.	.	.	.	.	.	.	24a'\JJ	.	.	.
=124	=124	=124	=124	=124	=124	=124	=124	=124	=124	=124	=124	=124	=124	=124	=124	=124	=124	=124	=124	=124	=124	=124	=124
*	*	*	*	*	*	*	*	*	*	*	*v	*v	*	*	*	*	*	*	*	*	*	*	*
(24gg\LL	.	8A/)	.	8c\)	.	2r	2r	.	2r	.	(24G\LL	.	(8dd\ 8g\L	.	2r	.	2r	.	(24g/LL	.	8d/)	.
24ff#\)	.	.	.	.	.	.	.	.	.	.	24F#\])	.	.	.	.	.	.	.	24f#/)	.	.	.
24aa'\JJxx	.	.	.	.	.	.	.	.	.	.	24A'\JJ	.	.	.	.	.	.	.	24a'/JJ	.	.	.
(24aa\LL	.	8B'/L	.	8B'\L	.	.	.	.	.	.	(24A\LL	.	8ee\ 8cc\	.	.	.	.	.	(24a/LL	.	8d'/L	.
24gg\)	.	.	.	.	.	.	.	.	.	.	24G\)	.	.	.	.	.	.	.	24g/)	.	.	.
24ddd'\JJ	.	.	.	.	.	.	.	.	.	.	24d'\JJ	.	.	.	.	.	.	.	24dd'/JJ	.	.	.
(24ddd\LL	.	8D'/	.	8F#'\	.	.	.	.	.	.	(24d\LL	.	8ff\ 8dd\	.	.	.	.	.	(24dd\LL	.	8a'/	.
24ccc\)	.	.	.	.	.	.	.	.	.	.	24c\)	.	.	.	.	.	.	.	24cc\)	.	.	.
24ccc'\JJ	.	.	.	.	.	.	.	.	.	.	24c'\JJ	.	.	.	.	.	.	.	24cc'\JJ	.	.	.
(24ccc\LL	.	8D'/J	.	8G'\J	.	.	.	.	.	.	(24c\LL	.	8ee\ 8cc\J)	.	.	.	.	.	(24cc\LL	.	8g'/J	.
24bb\)	.	.	.	.	.	.	.	.	.	.	24B\)	.	.	.	.	.	.	.	24b\)	.	.	.
24bb'\JJ	.	.	.	.	.	.	.	.	.	.	24B'\JJ	.	.	.	.	.	.	.	24b'\JJ	.	.	.
=125	=125	=125	=125	=125	=125	=125	=125	=125	=125	=125	=125	=125	=125	=125	=125	=125	=125	=125	=125	=125	=125	=125
*	*	*	*	*	*	*	*	*	*	*	*	*	*^	*	*	*	*	*	*	*	*	*
(8..bb\L	.	4D/	.	4D\	.	2r	2r	.	2r	.	(8..B\L	.	(8..ee/L	4cc\	.	2r	.	2r	.	(8..b\L	.	(8..g/L	.
32ccc\Jkk)	.	.	.	.	.	.	.	.	.	.	32c\Jkk)	.	32ff/Jkk)	.	.	.	.	.	.	32cc\Jkk)	.	32a/Jkk)	.
8aa'\L	.	4r	.	4r	.	.	.	.	.	.	8A'\L	.	8dd/	8g\	.	.	.	.	.	8a'/L	.	8f#/	.
8bb'\J	.	.	.	.	.	.	.	.	.	.	8B'\J	.	16ryy	8r	.	.	.	.	.	8b'/J	.	8r	.
=126	=126	=126	=126	=126	=126	=126	=126	=126	=126	=126	=126	=126	=126	=126	=126	=126	=126	=126	=126	=126	=126	=126	=126
*	*	*	*	*	*	*	*	*	*	*	*	*	*v	*v	*	*	*	*	*	*	*	*	*
(8..ccc\L	p	(2A/	p	(4.D\	p	(8..cc/L	8f#\	p	2r	.	(8..c\L	p	2dd\ 2g\	p	2r	.	2r	.	(8..cc\L	p	24f#/LL	p
.	.	.	.	.	.	.	.	.	.	.	.	.	.	.	.	.	.	.	.	.	24a/	.
.	.	.	.	.	.	.	.	.	.	.	.	.	.	.	.	.	.	.	.	.	24cc/JJ	.
.	.	.	.	.	.	.	8r	.	.	.	.	.	.	.	.	.	.	.	.	.	24b/LL	.
.	.	.	.	.	.	.	.	.	.	.	.	.	.	.	.	.	.	.	.	.	24a/	.
32ddd\Jkk)	.	.	.	.	.	32dd/Jkk)	.	.	.	.	32d\Jkk)	.	.	.	.	.	.	.	32dd\Jkk)	.	24g/JJ	.
8ccc'\L	.	.	.	.	.	8cc'/L	8r	.	.	.	8c'\L	.	.	.	.	.	.	.	8cc'\L	.	24f#/LL	.
.	.	.	.	.	.	.	.	.	.	.	.	.	.	.	.	.	.	.	.	.	24e/	.
.	.	.	.	.	.	.	.	.	.	.	.	.	.	.	.	.	.	.	.	.	24d/JJ	.
8ccc#'\J	.	.	.	8C/)	.	8cc#'/J	8a'\	.	.	.	8c#'\J	.	.	.	.	.	.	.	8cc#'\J	.	24a/LL	.
.	.	.	.	.	.	.	.	.	.	.	.	.	.	.	.	.	.	.	.	.	24f#/	.
.	.	.	.	.	.	.	.	.	.	.	.	.	.	.	.	.	.	.	.	.	24d/JJ	.
=127	=127	=127	=127	=127	=127	=127	=127	=127	=127	=127	=127	=127	=127	=127	=127	=127	=127	=127	=127	=127	=127	=127
(8..ddd\L	.	2G/)	.	2BB/	.	(8..dd/L	8d\	.	2r	.	(8..d\L	.	4ee\ 4cc\	.	2r	.	2r	.	(8..dd\L	.	24g/LL	.
.	.	.	.	.	.	.	.	.	.	.	.	.	.	.	.	.	.	.	.	.	24d/	.
.	.	.	.	.	.	.	.	.	.	.	.	.	.	.	.	.	.	.	.	.	24B/JJ	.
.	.	.	.	.	.	.	4g\	.	.	.	.	.	.	.	.	.	.	.	.	.	24G/LL	.
.	.	.	.	.	.	.	.	.	.	.	.	.	.	.	.	.	.	.	.	.	24B/	.
32eee\Jkk)	.	.	.	.	.	32ee/Jkk)	.	.	.	.	32e\Jkk)	.	.	.	.	.	.	.	32ee\Jkk)	.	24d/JJ	.
8ddd'\L	.	.	.	.	.	8dd'/L	.	.	.	.	8d'\L	.	4r	.	.	.	.	.	8dd'\L	.	(24g/LL	.
.	.	.	.	.	.	.	.	.	.	.	.	.	.	.	.	.	.	.	.	.	24G/)	.
.	.	.	.	.	.	.	.	.	.	.	.	.	.	.	.	.	.	.	.	.	24g'/JJ	.
8ddd#'\J	.	.	.	.	.	8dd#'/J	8g\	.	.	.	8d#'\J	.	.	.	.	.	.	.	8dd#'\J	.	(24g/LL	.
.	.	.	.	.	.	.	.	.	.	.	.	.	.	.	.	.	.	.	.	.	24G/)	.
.	.	.	.	.	.	.	.	.	.	.	.	.	.	.	.	.	.	.	.	.	24g'/JJ	.
=128	=128	=128	=128	=128	=128	=128	=128	=128	=128	=128	=128	=128	=128	=128	=128	=128	=128	=128	=128	=128	=128	=128
!	!	!	!	!	!	!	!	!	!	!	!	!	! zu 2	!	!	!	!	!	!	!	!	!
2ddd#\	.	2g\	.	2C/	.	2dd#\	2g\	.	2r	.	2d#\	.	2cc\	.	2r	.	2r	.	2dd#\	.	(24g/LL	.
.	.	.	.	.	.	.	.	.	.	.	.	.	.	.	.	.	.	.	.	.	24G/)	.
.	.	.	.	.	.	.	.	.	.	.	.	.	.	.	.	.	.	.	.	.	24g'/JJ	.
.	.	.	.	.	.	.	.	.	.	.	.	.	.	.	.	.	.	.	.	.	(24g/LL	.
.	.	.	.	.	.	.	.	.	.	.	.	.	.	.	.	.	.	.	.	.	24G/)	.
.	.	.	.	.	.	.	.	.	.	.	.	.	.	.	.	.	.	.	.	.	24g'/JJ	.
.	.	.	.	.	.	.	.	.	.	.	.	.	.	.	.	.	.	.	.	.	(24g/LL	.
.	.	.	.	.	.	.	.	.	.	.	.	.	.	.	.	.	.	.	.	.	24G/)	.
.	.	.	.	.	.	.	.	.	.	.	.	.	.	.	.	.	.	.	.	.	24g'/JJ	.
.	.	.	.	.	.	.	.	.	.	.	.	.	.	.	.	.	.	.	.	.	(24g/LL	.
.	.	.	.	.	.	.	.	.	.	.	.	.	.	.	.	.	.	.	.	.	24G/)	.
.	.	.	.	.	.	.	.	.	.	.	.	.	.	.	.	.	.	.	.	.	24g'/JJ	.
=129	=129	=129	=129	=129	=129	=129	=129	=129	=129	=129	=129	=129	=129	=129	=129	=129	=129	=129	=129	=129	=129	=129
(4.fff#\	f	(4.d#\	f	[2C/	f	(4.dd#\	(4.a\	f	2r	.	(4.d#\ (4.A\	f	(4.dd\	f	2r	.	2r	.	(4.ff#\	f	24d#'/LL	f
.	.	.	.	.	.	.	.	.	.	.	.	.	.	.	.	.	.	.	.	.	24f#'/	.
.	.	.	.	.	.	.	.	.	.	.	.	.	.	.	.	.	.	.	.	.	24a'/JJ	.
.	.	.	.	.	.	.	.	.	.	.	.	.	.	.	.	.	.	.	.	.	24d#'/LL	.
.	.	.	.	.	.	.	.	.	.	.	.	.	.	.	.	.	.	.	.	.	24f#'/	.
.	.	.	.	.	.	.	.	.	.	.	.	.	.	.	.	.	.	.	.	.	24a'/JJ	.
.	.	.	.	.	.	.	.	.	.	.	.	.	.	.	.	.	.	.	.	.	24d#'/LL	.
.	.	.	.	.	.	.	.	.	.	.	.	.	.	.	.	.	.	.	.	.	24f#'/	.
.	.	.	.	.	.	.	.	.	.	.	.	.	.	.	.	.	.	.	.	.	24a'/JJ	.
8eee\)	.	8e\)	.	.	.	8ee\)	8g\)	.	.	.	8e\ 8G\)	.	8cc\)	.	.	.	.	.	8ee\)	.	(24g/LL	.
.	.	.	.	.	.	.	.	.	.	.	.	.	.	.	.	.	.	.	.	.	24G/)	.
.	.	.	.	.	.	.	.	.	.	.	.	.	.	.	.	.	.	.	.	.	24g'/JJ	.
=130	=130	=130	=130	=130	=130	=130	=130	=130	=130	=130	=130	=130	=130	=130	=130	=130	=130	=130	=130	=130	=130	=130
*	*	*	*	*	*	*	*	*	*	*	*^	*	*	*	*	*	*	*	*	*	*	*
4eee\	.	[2e\	>	2C/_	>	[2ee\	[2g\	>]	2r	.	[2e\	[2G\	>]	[2cc\	>	2r	.	2r	.	[2ee\	>	(24g/LL	>
.	.	.	.	.	.	.	.	.	.	.	.	.	.	.	.	.	.	.	.	.	.	24G/)	.
.	.	.	.	.	.	.	.	.	.	.	.	.	.	.	.	.	.	.	.	.	.	(24g/JJ	.
.	.	.	.	.	.	.	.	.	.	.	.	.	.	.	.	.	.	.	.	.	.	&(24g/LL)	.
.	.	.	.	.	.	.	.	.	.	.	.	.	.	.	.	.	.	.	.	.	.	24G/&)	.
.	.	.	.	.	.	.	.	.	.	.	.	.	.	.	.	.	.	.	.	.	.	24g'/JJ	.
4r	.	.	.	.	.	.	.	.	.	.	.	.	.	.	.	.	.	.	.	.	.	(24g/LL	.
.	.	.	.	.	.	.	.	.	.	.	.	.	.	.	.	.	.	.	.	.	.	24G/)	.
.	.	.	.	.	.	.	.	.	.	.	.	.	.	.	.	.	.	.	.	.	.	24g'/JJ	.
.	.	.	.	.	.	.	.	.	.	.	.	.	.	.	.	.	.	.	.	.	.	(24g/LL	.
.	.	.	.	.	.	.	.	.	.	.	.	.	.	.	.	.	.	.	.	.	.	24G/)	.
.	.	.	.	.	.	.	.	.	.	.	.	.	.	.	.	.	.	.	.	.	.	24g'/JJ	.
=131	=131	=131	=131	=131	=131	=131	=131	=131	=131	=131	=131	=131	=131	=131	=131	=131	=131	=131	=131	=131	=131	=131	=131
*	*	*	*	*	*	*v	*v	*	*	*	*	*	*	*	*	*	*	*	*	*	*	*	*
*	*	*	*	*	*	*	*	*	*	*v	*v	*	*	*	*	*	*	*	*	*	*	*
(24g/LL	p	2e\_	]p	2C/_	]p	4ee\ 4g\]	.	2r	.	4e\ 4G\]	.	4cc\]	]	2r	.	2r	.	2ee\_	]p	[2g/	]p
24e/)	.	.	.	.	.	.	.	.	.	.	.	.	.	.	.	.	.	.	.	.	.
24cc'/JJ	.	.	.	.	.	.	.	.	.	.	.	.	.	.	.	.	.	.	.	.	.
(24cc\LL	.	.	.	.	.	.	.	.	.	.	.	.	.	.	.	.	.	.	.	.	.
24g\)	.	.	.	.	.	.	.	.	.	.	.	.	.	.	.	.	.	.	.	.	.
24ee'\JJ	.	.	.	.	.	.	.	.	.	.	.	.	.	.	.	.	.	.	.	.	.
(24ee\LL	.	.	.	.	.	4r	.	.	.	4r	.	4r	.	.	.	.	.	.	.	.	.
24cc\)	.	.	.	.	.	.	.	.	.	.	.	.	.	.	.	.	.	.	.	.	.
24ee'\JJ	.	.	.	.	.	.	.	.	.	.	.	.	.	.	.	.	.	.	.	.	.
(24gg\LL	.	.	.	.	.	.	.	.	.	.	.	.	.	.	.	.	.	.	.	.	.
24ee\)	.	.	.	.	.	.	.	.	.	.	.	.	.	.	.	.	.	.	.	.	.
24ccc'\JJ	.	.	.	.	.	.	.	.	.	.	.	.	.	.	.	.	.	.	.	.	.
=132	=132	=132	=132	=132	=132	=132	=132	=132	=132	=132	=132	=132	=132	=132	=132	=132	=132	=132	=132	=132	=132
*	*	*	*	*	*	*^	*	*	*	*	*	*	*	*	*	*	*	*	*	*	*
(24ccc\LL	.	4e\]	.	4C/]	.	2r	2r	.	2r	.	2r	.	2r	.	2r	.	2r	.	4ee\]	.	4g/]	.
24gg\)	.	.	.	.	.	.	.	.	.	.	.	.	.	.	.	.	.	.	.	.	.	.
24eee'\JJ	.	.	.	.	.	.	.	.	.	.	.	.	.	.	.	.	.	.	.	.	.	.
(24eee\LL	.	.	.	.	.	.	.	.	.	.	.	.	.	.	.	.	.	.	.	.	.	.
24ccc\)	.	.	.	.	.	.	.	.	.	.	.	.	.	.	.	.	.	.	.	.	.	.
24eee'\JJ	.	.	.	.	.	.	.	.	.	.	.	.	.	.	.	.	.	.	.	.	.	.
(24eee\LL	.	4r	.	4r	.	.	.	.	.	.	.	.	.	.	.	.	.	.	4r	.	4r	.
24ccc\)	.	.	.	.	.	.	.	.	.	.	.	.	.	.	.	.	.	.	.	.	.	.
24eee'\JJ	.	.	.	.	.	.	.	.	.	.	.	.	.	.	.	.	.	.	.	.	.	.
(24eee\LL	.	.	.	.	.	.	.	.	.	.	.	.	.	.	.	.	.	.	.	.	.	.
24ccc\)	.	.	.	.	.	.	.	.	.	.	.	.	.	.	.	.	.	.	.	.	.	.
24eee'\JJ	.	.	.	.	.	.	.	.	.	.	.	.	.	.	.	.	.	.	.	.	.	.
=133	=133	=133	=133	=133	=133	=133	=133	=133	=133	=133	=133	=133	=133	=133	=133	=133	=133	=133	=133	=133	=133	=133
!	!	!	!	!	!	!	!	!	!	!	! zu 2	!	!	!	!	!	!	!	!	!	!	!
(24eee\LL	.	2r	.	2r	.	(4.gg/	[2ee\	p	2r	.	[2c\	p	2r	.	2r	.	2r	.	2r	.	2r	.
24ccc\)	.	.	.	.	.	.	.	.	.	.	.	.	.	.	.	.	.	.	.	.	.	.
24eee'\JJ	.	.	.	.	.	.	.	.	.	.	.	.	.	.	.	.	.	.	.	.	.	.
(24eee\LL	.	.	.	.	.	.	.	.	.	.	.	.	.	.	.	.	.	.	.	.	.	.
24ccc\)	.	.	.	.	.	.	.	.	.	.	.	.	.	.	.	.	.	.	.	.	.	.
24eee'\JJ	.	.	.	.	.	.	.	.	.	.	.	.	.	.	.	.	.	.	.	.	.	.
(24eee\LL	.	.	.	.	.	.	.	.	.	.	.	.	.	.	.	.	.	.	.	.	.	.
24ccc\)	.	.	.	.	.	.	.	.	.	.	.	.	.	.	.	.	.	.	.	.	.	.
24eee'\JJ	.	.	.	.	.	.	.	.	.	.	.	.	.	.	.	.	.	.	.	.	.	.
(24eee\LL	.	.	.	.	.	8gg#/)	.	.	.	.	.	.	.	.	.	.	.	.	.	.	.	.
24ccc\)	.	.	.	.	.	.	.	.	.	.	.	.	.	.	.	.	.	.	.	.	.	.
24eee'\JJ	.	.	.	.	.	.	.	.	.	.	.	.	.	.	.	.	.	.	.	.	.	.
=134	=134	=134	=134	=134	=134	=134	=134	=134	=134	=134	=134	=134	=134	=134	=134	=134	=134	=134	=134	=134	=134	=134
(24eee\LL	.	(4.a\	.	(4.A\	.	2aa/	2ee\]	.	2r	.	2c\]	.	2r	.	2r	.	2r	.	(8..ee\L	.	(8..cc\L	.
24ccc\)	.	.	.	.	.	.	.	.	.	.	.	.	.	.	.	.	.	.	.	.	.	.
24eee'\JJ	.	.	.	.	.	.	.	.	.	.	.	.	.	.	.	.	.	.	.	.	.	.
(24eee\LL	.	.	.	.	.	.	.	.	.	.	.	.	.	.	.	.	.	.	.	.	.	.
24ccc\)	.	.	.	.	.	.	.	.	.	.	.	.	.	.	.	.	.	.	.	.	.	.
24eee'\JJ	.	.	.	.	.	.	.	.	.	.	.	.	.	.	.	.	.	.	32ffn\Jkk])	.	32dd\Jkk)	.
(24eee\LL	.	.	.	.	.	.	.	.	.	.	.	.	.	.	.	.	.	.	8ee'\L	.	8cc'\L	.
24ccc\)	.	.	.	.	.	.	.	.	.	.	.	.	.	.	.	.	.	.	.	.	.	.
24eee'\JJ	.	.	.	.	.	.	.	.	.	.	.	.	.	.	.	.	.	.	.	.	.	.
(24eee\LL	.	8g\)	.	8G\)	.	.	.	.	.	.	.	.	.	.	.	.	.	.	8ee'\J	.	8cc'\J	.
24ccc\)	.	.	.	.	.	.	.	.	.	.	.	.	.	.	.	.	.	.	.	.	.	.
24eee'\JJ	.	.	.	.	.	.	.	.	.	.	.	.	.	.	.	.	.	.	.	.	.	.
=135	=135	=135	=135	=135	=135	=135	=135	=135	=135	=135	=135	=135	=135	=135	=135	=135	=135	=135	=135	=135	=135	=135
!	!	!	!	!	!	!	!	!	!	!	!	!	!	!	! zu 2	!	!	!	!	!	!	!
4.ccc\	rf	4.f#\	rf	4.F#\	rf	4.ccc\	4.dd\	rf	2r	.	4.F#\	rf	4dd\ 4g\	rf	4cc\	rf	4D\	rf	(16dP/L	.	4.a/ 4.d/	rf
.	.	.	.	.	.	.	.	.	.	.	.	.	.	.	.	.	.	.	16ddP/J	.	.	.
.	.	.	.	.	.	.	.	.	.	.	.	.	.	.	.	.	.	.	4cccp\)	rf	.	.
.	.	.	.	.	.	.	.	.	.	.	.	.	4r	.	4r	.	4r	.	.	.	.	.
8bb\	p	8g\	p	8G\	p	8bb\	8dd\	p	.	.	8G\	p	.	.	.	.	.	.	8bb\	p	8b'\	p
=136	=136	=136	=136	=136	=136	=136	=136	=136	=136	=136	=136	=136	=136	=136	=136	=136	=136	=136	=136	=136	=136	=136
8aa\L	.	8c\	.	8C/	.	8aa\L	8cc\L	.	2r	.	8C/	.	2r	.	2r	.	2r	.	8aa'\L	.	8cc'\L	.
8gg\	.	8r	.	8r	.	8gg\	8b\	.	.	.	8r	.	.	.	.	.	.	.	8gg'\	.	8b'\	.
8ff#\	.	8d\	.	8D\	.	8ff#\	8a\	.	.	.	8D\	.	.	.	.	.	.	.	8ff#'\	.	8a'\	.
8aa\J	.	8r	.	8r	.	8aa\J	8cc\J	.	.	.	8r	.	.	.	.	.	.	.	8aa'\J	.	8cc'\J	.
=137	=137	=137	=137	=137	=137	=137	=137	=137	=137	=137	=137	=137	=137	=137	=137	=137	=137	=137	=137	=137	=137	=137
*	*	*	*	*	*	*v	*v	*	*	*	*	*	*	*	*	*	*	*	*	*	*	*
4gg\	f	4.c#\	f	4.E\	f	4gg\ 4cc#\	f	2r	.	4.E\	f	4cc/] 4c/	f	4g/	f	4AA/	f	4.gg\ 4.g\	f	4.cc#\	f
4r	.	.	.	.	.	4r	.	.	.	.	.	4r	.	4r	.	4r	.	.	.	.	.
.	.	24d\LL	p	8r	.	.	.	.	.	8r	.	.	.	.	.	.	.	24ff#\LL	p	24a/LL	p
.	.	24d\	.	.	.	.	.	.	.	.	.	.	.	.	.	.	.	24ff#\	.	24a/	.
.	.	24d\JJ	.	.	.	.	.	.	.	.	.	.	.	.	.	.	.	24ff#\JJ	.	24a/JJ	.
=138	=138	=138	=138	=138	=138	=138	=138	=138	=138	=138	=138	=138	=138	=138	=138	=138	=138	=138	=138	=138	=138
*	*	*	*	*	*	*^	*	*	*	*	*	*	*	*	*	*	*	*	*	*	*
2r	.	24e\LL	.	4r	.	2r	2r	.	2r	.	2r	.	2r	.	2r	.	2r	.	24ee\LL	.	24g/LL	.
.	.	24e\	.	.	.	.	.	.	.	.	.	.	.	.	.	.	.	.	24ee\	.	24g/	.
.	.	24e\JJ	.	.	.	.	.	.	.	.	.	.	.	.	.	.	.	.	24ee\JJ	.	24g/JJ	.
.	.	24f#\LL	.	.	.	.	.	.	.	.	.	.	.	.	.	.	.	.	24dd\LL	.	24f#/LL	.
.	.	24f#\	.	.	.	.	.	.	.	.	.	.	.	.	.	.	.	.	24dd\	.	24f#/	.
.	.	24f#\JJ	.	.	.	.	.	.	.	.	.	.	.	.	.	.	.	.	24dd\JJ	.	24f#/JJ	.
.	.	24g\LL	.	8r	.	.	.	.	.	.	.	.	.	.	.	.	.	.	24cc#\LL	.	24e/LL	.
.	.	24g\	.	.	.	.	.	.	.	.	.	.	.	.	.	.	.	.	24cc#\	.	24e/	.
.	.	24g\JJ	.	.	.	.	.	.	.	.	.	.	.	.	.	.	.	.	24cc#\JJ	.	24e/JJ	.
.	.	24c#\LL	.	24c#\LL	p	.	.	.	.	.	.	.	.	.	.	.	.	.	24ee\LL	.	24g/LL	.
.	.	24c#\	.	24c#\	.	.	.	.	.	.	.	.	.	.	.	.	.	.	24ee\	.	24g/	.
.	.	24c#\JJ	.	24c#\JJ	.	.	.	.	.	.	.	.	.	.	.	.	.	.	24ee\JJ	.	24g/JJ	.
=139	=139	=139	=139	=139	=139	=139	=139	=139	=139	=139	=139	=139	=139	=139	=139	=139	=139	=139	=139	=139	=139	=139
2r	.	24d\LL	.	24d\LL	.	2r	2r	.	2r	.	2r	.	2r	.	2r	.	2r	.	24dd\LL	.	24f#/LL	.
.	.	24d\	.	24d\	.	.	.	.	.	.	.	.	.	.	.	.	.	.	24dd\	.	24f#/	.
.	.	24d\JJ	.	24d\JJ	.	.	.	.	.	.	.	.	.	.	.	.	.	.	24dd\JJ	.	24f#/JJ	.
.	.	24F#/LL	.	24F#\LL	.	.	.	.	.	.	.	.	.	.	.	.	.	.	24ccn\LL	.	24e-/LL	.
.	.	24F#/	.	24F#\	.	.	.	.	.	.	.	.	.	.	.	.	.	.	24cc\	.	24e-/	.
.	.	24F#/JJ	.	24F#\JJ	.	.	.	.	.	.	.	.	.	.	.	.	.	.	24cc\JJ	.	24e-/JJ	.
.	.	24G/LL	.	24G\LL	.	.	.	.	.	.	.	.	.	.	.	.	.	.	24b\LL	.	24d/LL	.
.	.	24G/	.	24G\	.	.	.	.	.	.	.	.	.	.	.	.	.	.	24b\	.	24d/	.
.	.	24G/JJ	.	24G\JJ	.	.	.	.	.	.	.	.	.	.	.	.	.	.	24b\JJ	.	24d/JJ	.
.	.	24E-/LL	.	24E-\LL	.	.	.	.	.	.	.	.	.	.	.	.	.	.	24a/LL	.	24c/LL	.
.	.	24E-/	.	24E-\	.	.	.	.	.	.	.	.	.	.	.	.	.	.	24a/	.	24c/	.
.	.	24E-/JJ	.	24E-\JJ	.	.	.	.	.	.	.	.	.	.	.	.	.	.	24a/JJ	.	24c/JJ	.
=140	=140	=140	=140	=140	=140	=140	=140	=140	=140	=140	=140	=140	=140	=140	=140	=140	=140	=140	=140	=140	=140	=140
2r	.	24D/LL	.	24D\LL	.	2r	2r	.	2r	.	2r	.	2r	.	2r	.	2r	.	24g#/LL	.	24B/LL	.
.	.	24D/	.	24D\	.	.	.	.	.	.	.	.	.	.	.	.	.	.	24g#/	.	24B/	.
.	.	24D/JJ	.	24D\JJ	.	.	.	.	.	.	.	.	.	.	.	.	.	.	24g#/JJ	.	24B/JJ	.
.	.	24C#/LL	.	24C#/LL	.	.	.	.	.	.	.	.	.	.	.	.	.	.	24gn/LL	.	24B-/LL	.
.	.	24C#/	.	24C#/	.	.	.	.	.	.	.	.	.	.	.	.	.	.	24g/	.	24B-/	.
.	.	24C#/JJ	.	24C#/JJ	.	.	.	.	.	.	.	.	.	.	.	.	.	.	24g/JJ	.	24B-/JJ	.
!	!	!	!	!	!	!	!	!	!	!	!	!	!	!	!	!	!	!	! (16aP/LL	!	!	!
!	!	!	!	!	!	!	!	!	!	!	!	!	!	!	!	!	!	!	! 16gP/	!	!	!
!	!	!	!	!	!	!	!	!	!	!	!	!	!	!	!	!	!	!	! 16f#P/JJ	!	!	!
.	.	24D/LL	.	24D\LL	.	.	.	.	.	.	.	.	.	.	.	.	.	.	8gp/L	.	(8A/L	.
.	.	24D/	.	24D\	.	.	.	.	.	.	.	.	.	.	.	.	.	.	.	.	.	.
.	.	24D/JJ	.	24D\JJ	.	.	.	.	.	.	.	.	.	.	.	.	.	.	.	.	.	.
.	.	24D/LL	.	24D\LL	.	.	.	.	.	.	.	.	.	.	.	.	.	.	16a/L	.	8c/J)	.
.	.	24D/	.	24D\	.	.	.	.	.	.	.	.	.	.	.	.	.	.	16f#/JJ)	.	.	.
.	.	24D/JJ	.	24D\JJ	.	.	.	.	.	.	.	.	.	.	.	.	.	.	.	.	.	.
=141	=141	=141	=141	=141	=141	=141	=141	=141	=141	=141	=141	=141	=141	=141	=141	=141	=141	=141	=141	=141	=141	=141
! 1.	!	!	!	!	!	!	!	!	!	!	! 1.	!	!	!	!	!	!	!	!	!	!	!
4.g/	p	(8D/L	p	[2GG/	p	2r	2r	.	2r	.	(8G\L	p	2r	.	2r	.	2r	.	4.g/ 4.G/	p	(8B/L	p
.	.	8B/	.	.	.	.	.	.	.	.	8B\	.	.	.	.	.	.	.	.	.	8d/	.
.	.	8d/	.	.	.	.	.	.	.	.	8d\	.	.	.	.	.	.	.	.	.	8B/J)	.
(16b\LL	.	8B/J)	.	.	.	.	.	.	.	.	8B\J)	.	.	.	.	.	.	.	(16b\LL	.	8d/	.
16dd\JJ)	.	.	.	.	.	.	.	.	.	.	.	.	.	.	.	.	.	.	16dd\JJ)	.	.	.
=142	=142	=142	=142	=142	=142	=142	=142	=142	=142	=142	=142	=142	=142	=142	=142	=142	=142	=142	=142	=142	=142	=142
(16dd\LL	.	2c\	.	2GG/_	.	2r	2r	.	2r	.	2c\	.	2r	.	2r	.	2r	.	(16dd\LL	.	(16d#/LL	.
16cc\)	.	.	.	.	.	.	.	.	.	.	.	.	.	.	.	.	.	.	16cc\)	.	16e/)	.
(16cc\	.	.	.	.	.	.	.	.	.	.	.	.	.	.	.	.	.	.	(16cc\	.	(16e/	.
16b\JJ)	.	.	.	.	.	.	.	.	.	.	.	.	.	.	.	.	.	.	16b\JJ)	.	16fn/JJ)	.
(16b/LL	.	.	.	.	.	.	.	.	.	.	.	.	.	.	.	.	.	.	(16b/LL	.	(16f/LL	.
16a/)	.	.	.	.	.	.	.	.	.	.	.	.	.	.	.	.	.	.	16a/)	.	16f#/)	.
(16a/	.	.	.	.	.	.	.	.	.	.	.	.	.	.	.	.	.	.	(16a/	.	(16f#/	.
16g/JJ)	.	.	.	.	.	.	.	.	.	.	.	.	.	.	.	.	.	.	16g/JJ)	.	16g/JJ)	.
=143	=143	=143	=143	=143	=143	=143	=143	=143	=143	=143	=143	=143	=143	=143	=143	=143	=143	=143	=143	=143	=143	=143
4.g/	.	(16B\LL	.	2GG/_	.	2r	2r	.	2r	.	(16B\LL	.	2r	.	2r	.	2r	.	4.g/	.	(16g/LL	.
.	.	16d\	.	.	.	.	.	.	.	.	16d\	.	.	.	.	.	.	.	.	.	16dn/	.
.	.	16g\	.	.	.	.	.	.	.	.	16g\	.	.	.	.	.	.	.	.	.	16b/	.
.	.	16f#\JJ	.	.	.	.	.	.	.	.	16f#\JJ	.	.	.	.	.	.	.	.	.	16a/JJ	.
.	.	16e\LL	.	.	.	.	.	.	.	.	16e\LL	.	.	.	.	.	.	.	.	.	16g/LL	.
.	.	16d\	.	.	.	.	.	.	.	.	16d\	.	.	.	.	.	.	.	.	.	16f#/	.
(16b\LL	.	16c\	.	.	.	.	.	.	.	.	16c\	.	.	.	.	.	.	.	(16b\LL	.	16e/	.
16dd\JJ)	.	16B\JJ)	.	.	.	.	.	.	.	.	16B\JJ)	.	.	.	.	.	.	.	16dd\JJ)	.	16d/JJ)	.
=144	=144	=144	=144	=144	=144	=144	=144	=144	=144	=144	=144	=144	=144	=144	=144	=144	=144	=144	=144	=144	=144	=144
(16dd\LL	.	2c\	.	2GG/]	.	2r	2r	.	2r	.	2c\	.	2r	.	2r	.	2r	.	(16dd\LL	.	(16d#/LL	.
16cc\)	.	.	.	.	.	.	.	.	.	.	.	.	.	.	.	.	.	.	16cc\)	.	16e/)	.
(16cc\	.	.	.	.	.	.	.	.	.	.	.	.	.	.	.	.	.	.	(16cc\	.	(16e/	.
16b\JJ)	.	.	.	.	.	.	.	.	.	.	.	.	.	.	.	.	.	.	16b\JJ)	.	16fn/JJ)	.
(16b/LL	.	.	.	.	.	.	.	.	.	.	.	.	.	.	.	.	.	.	(16b/LL	.	(16f/LL	.
16a/)	.	.	.	.	.	.	.	.	.	.	.	.	.	.	.	.	.	.	16a/)	.	16f#/)	.
(16a/	.	.	.	.	.	.	.	.	.	.	.	.	.	.	.	.	.	.	(16a/	.	(16f#/	.
16g/JJ)	.	.	.	.	.	.	.	.	.	.	.	.	.	.	.	.	.	.	16g/JJ)	.	16g/JJ)	.
*	*	*	*	*	*	*	*	*	*	*	*	*	*clefF4	*	*	*	*	*	*	*	*	*
=145	=145	=145	=145	=145	=145	=145	=145	=145	=145	=145	=145	=145	=145	=145	=145	=145	=145	=145	=145	=145	=145	=145
*	*	*	*	*	*	*v	*v	*	*	*	*	*	*	*	*	*	*	*	*	*	*	*
!	!	!	!	!	!	! 1.	!	!	!	!	!	!	!	!	!	!	!	!	!	!	!
!	!	!	!	!	!	!	!	!	!	!	!	!	!	!	!	!	!	!	!	!	!
4.g/	.	(16B\LL	.	4GG/	.	(16gg\LL	p	2r	.	(16B\LL	.	[2G/ [2GG/	p	2r	.	2r	.	4.g/	.	4.g/	.
.	.	16d\	.	.	.	16dd\	.	.	.	16d\	.	.	.	.	.	.	.	.	.	.	.
.	.	16g\	.	.	.	16bb\	.	.	.	16g\	.	.	.	.	.	.	.	.	.	.	.
.	.	16f#\JJ	.	.	.	16aa\JJ	.	.	.	16f#\JJ	.	.	.	.	.	.	.	.	.	.	.
.	.	16e\LL	.	4r	.	16gg\LL	.	.	.	16e\LL	.	.	.	.	.	.	.	.	.	.	.
.	.	16d\	.	.	.	16ff#\	.	.	.	16d\	.	.	.	.	.	.	.	.	.	.	.
(16bb\LL	.	16c\	.	.	.	16ee\	.	.	.	16c\	.	.	.	.	.	.	.	8dd\	.	(16b\LL	.
16ddd\JJ)	.	16B\JJ)	.	.	.	16dd\JJ)	.	.	.	16B\JJ)	.	.	.	.	.	.	.	.	.	16dd\JJ)	.
=146	=146	=146	=146	=146	=146	=146	=146	=146	=146	=146	=146	=146	=146	=146	=146	=146	=146	=146	=146	=146	=146
(16ddd\LL	.	2c\	.	4GG/	.	(16dd#\LL	.	2r	.	2c\	<	2G/ 2GG/_	.	2r	.	2r	.	(16dd#\LL	.	(16dd\LL	.
16ccc\)	.	.	.	.	.	16ee\)	.	.	.	.	.	.	.	.	.	.	.	16ee\)	.	16cc\)	.
(16ccc\	.	.	.	.	.	(16ee\	.	.	.	.	.	.	.	.	.	.	.	(16ee\	.	(16cc\	.
16bb\JJ)	.	.	.	.	.	16ffn\JJ)	.	.	.	.	.	.	.	.	.	.	.	16ffn\JJ)	.	16b\JJ)	.
(16bb\LL	.	.	.	4r	.	(16ff\LL	.	.	.	.	.	.	.	.	.	.	.	(16ff\LL	.	(16b/LL	.
16aa\)	.	.	.	.	.	16ff#\)	.	.	.	.	.	.	.	.	.	.	.	16ff#\)	.	16a/)	.
(16aa\	.	.	.	.	.	(16ff#\	.	.	.	.	.	.	.	.	.	.	.	(16ff#\	.	(16a/	.
16gg\JJ)	.	.	.	.	.	16gg\JJ)	.	.	.	.	.	.	.	.	.	.	.	16gg\JJ)	.	16g/JJ)	.
=147	=147	=147	=147	=147	=147	=147	=147	=147	=147	=147	=147	=147	=147	=147	=147	=147	=147	=147	=147	=147	=147
4.gg\	.	(16B\LL	.	4GG/	.	(16gg\LL	.	2r	.	(16B\LL	]	2G/ 2GG/_	.	2r	.	2r	.	(16gg\LL	.	4.g/	.
.	.	16d\	.	.	.	16dd\	.	.	.	16d\	.	.	.	.	.	.	.	16dd\	.	.	.
.	.	16g\	.	.	.	16bb\	.	.	.	16g\	.	.	.	.	.	.	.	16bb\	.	.	.
.	.	16f#\JJ	.	.	.	16aa\JJ	.	.	.	16f#\JJ	.	.	.	.	.	.	.	16aa\JJ	.	.	.
.	.	16e\LL	.	4r	.	16gg\LL	.	.	.	16e\LL	.	.	.	.	.	.	.	16gg\LL	.	.	.
.	.	16d\	.	.	.	16ff#\	.	.	.	16d\	.	.	.	.	.	.	.	16ff#\	.	.	.
(16bb\LL	.	16c\	.	.	.	16ee\	.	.	.	16c\	.	.	.	.	.	.	.	16ee\	.	(16b\LL	.
16ddd\JJ)	.	16B\JJ)	.	.	.	16dd\JJ)	.	.	.	16B\JJ)	.	.	.	.	.	.	.	16dd\JJ)	.	16dd\JJ)	.
=148	=148	=148	=148	=148	=148	=148	=148	=148	=148	=148	=148	=148	=148	=148	=148	=148	=148	=148	=148	=148	=148
*	*	*	*	*	*	*	*	*	*	*^	*	*	*	*	*	*	*	*	*	*	*
(16ddd\LL	.	2c\	.	4GG/	.	(16dd#\LL	.	2r	.	(2c/	[2GG\	.	4G/ 2GG/]	.	2r	.	2r	.	(16dd#\LL	.	(16dd\LL	.
16ccc\)	.	.	.	.	.	16ee\)	.	.	.	.	.	.	.	.	.	.	.	.	16ee\)	.	16cc\)	.
(16ccc\	.	.	.	.	.	(16ee\	.	.	.	.	.	.	.	.	.	.	.	.	(16ee\	.	(16cc\	.
16bb\JJ)	.	.	.	.	.	16ffn\JJ)	.	.	.	.	.	.	.	.	.	.	.	.	16ffn\JJ)	.	16b\JJ)	.
(16bb\LL	.	.	.	4r	.	(16ff\LL	.	.	.	.	.	.	4r	.	.	.	.	.	(16ff\LL	.	(16b/LL	.
16aa\)	.	.	.	.	.	16ff#\)	.	.	.	.	.	.	.	.	.	.	.	.	16ff#\)	.	16a/)	.
(16aa\	.	.	.	.	.	(16ff#\	.	.	.	.	.	.	.	.	.	.	.	.	(16ff#\	.	(16a/	.
16gg\JJ)	.	.	.	.	.	16gg\JJ)	.	.	.	.	.	.	.	.	.	.	.	.	16gg\JJ)	.	16g/JJ)	.
*	*	*	*	*	*	*	*	*	*	*	*	*	*clefG2	*	*	*	*	*	*	*	*	*
=149	=149	=149	=149	=149	=149	=149	=149	=149	=149	=149	=149	=149	=149	=149	=149	=149	=149	=149	=149	=149	=149	=149
8gg\	.	8B/	.	4GG/	.	8gg\	.	2r	.	8B/)	8GG\]	.	(16g\LL 16B\	pp	2r	.	2r	.	8gg\	.	8g/	.
.	.	.	.	.	.	.	.	.	.	.	.	.	16a\ 16d\)	.	.	.	.	.	.	.	.	.
8r	.	8r	.	.	.	8r	.	.	.	32ryy	8r	.	(16a\ 16d\	.	.	.	.	.	8r	.	8r	.
.	.	.	.	.	.	.	.	.	.	32ryy	.	.	.	.	.	.	.	.	.	.	.	.
.	.	.	.	.	.	.	.	.	.	32ryy	.	.	16b\ 16g\JJ)	.	.	.	.	.	.	.	.	.
.	.	.	.	.	.	.	.	.	.	32ryy	.	.	.	.	.	.	.	.	.	.	.	.
8r	.	8r	.	8r	.	8r	.	.	.	32ryy	8r	.	(16b\ 16g\LL	.	.	.	.	.	8r	.	8r	.
.	.	.	.	.	.	.	.	.	.	32ryy	.	.	.	.	.	.	.	.	.	.	.	.
.	.	.	.	.	.	.	.	.	.	32ryy	.	.	16a\ 16d\)	.	.	.	.	.	.	.	.	.
.	.	.	.	.	.	.	.	.	.	32ryy	.	.	.	.	.	.	.	.	.	.	.	.
!	!	!	!	!	!	!	!	!	!	!	! zu 2	!	!	!	!	!	!	!	!	!	!	!
(16ccc\LL	pp	(16a\LL	pp	8D\	pp	(16ff#\LL	pp	.	.	32ryy	8D\	pp	(16a\ 16d\	.	.	.	.	.	(16cc\LL	pp	(16f#/LL	pp
.	.	.	.	.	.	.	.	.	.	32ryy	.	.	.	.	.	.	.	.	.	.	.	.
16bb\JJ)	.	16g\JJ)	.	.	.	16gg\JJ)	.	.	.	32ryy	.	.	16g\ 16B\JJ)	.	.	.	.	.	16b\JJ)	.	16g/JJ)	.
.	.	.	.	.	.	.	.	.	.	32ryy	.	.	.	.	.	.	.	.	.	.	.	.
=150	=150	=150	=150	=150	=150	=150	=150	=150	=150	=150	=150	=150	=150	=150	=150	=150	=150	=150	=150	=150	=150	=150
*	*	*	*	*	*	*	*	*	*	*v	*v	*	*	*	*	*	*	*	*	*	*	*
8bb\	.	8g\	.	8G\	.	8gg\	.	2r	.	8G\	.	(16g\ 16B\LL	.	2r	.	2r	.	8b\	.	8g/	.
.	.	.	.	.	.	.	.	.	.	.	.	16a\ 16d\)	.	.	.	.	.	.	.	.	.
8r	.	8r	.	8r	.	8r	.	.	.	8r	.	(16a\ 16d\	.	.	.	.	.	8r	.	8r	.
.	.	.	.	.	.	.	.	.	.	.	.	16b\ 16g\JJ)	.	.	.	.	.	.	.	.	.
8r	.	8r	.	8r	.	8r	.	.	.	8r	.	(16b\ 16g\LL	.	.	.	.	.	8r	.	8r	.
.	.	.	.	.	.	.	.	.	.	.	.	16a\ 16d\)	.	.	.	.	.	.	.	.	.
(16ff#\LL	.	(16A/LL	.	8D\	.	(16cc\LL	.	.	.	8D\	.	(16a\ 16d\	.	.	.	.	.	(16f#/LL	.	(16c/LL	.
16gg\JJ)	.	16G/JJ)	.	.	.	16b\JJ)	.	.	.	.	.	16g\ 16B\JJ)	.	.	.	.	.	16g/JJ)	.	16B/JJ)	.
=151	=151	=151	=151	=151	=151	=151	=151	=151	=151	=151	=151	=151	=151	=151	=151	=151	=151	=151	=151	=151	=151
8gg\	.	8G/	.	8GG/	.	8b\	.	2r	.	8GG/	.	8g/ 8B/	.	2r	.	2r	.	8g/	.	8B/	.
8r	.	8r	.	8r	.	8r	.	.	.	8r	.	8r	.	.	.	.	.	8r	.	8r	.
8dd\	.	8D/	.	8GG/	.	8dd\	.	.	.	8G\	.	8g/ 8B/	.	.	.	.	.	8g/	.	8B/	.
8r	.	8r	.	8r	.	8r	.	.	.	8r	.	8r	.	.	.	.	.	8r	.	8r	.
=152	=152	=152	=152	=152	=152	=152	=152	=152	=152	=152	=152	=152	=152	=152	=152	=152	=152	=152	=152	=152	=152
4b\	.	4D/	.	4GG/	.	4b\	.	2r	.	4GG/	.	4g/ 4B/	.	2r	.	2r	.	4g/	.	4B/	.
4r	.	4r	.	4r	.	4r	.	.	.	4r	.	4r	.	.	.	.	.	4r	.	4r	.
==|!	==|!	==|!	==|!	==|!	==|!	==|!	==|!	==|!	==|!	==|!	==|!	==|!	==|!	==|!	==|!	==|!	==|!	==|!	==|!	==|!	==|!
*-	*-	*-	*-	*-	*-	*-	*-	*-	*-	*-	*-	*-	*-	*-	*-	*-	*-	*-	*-	*-	*-
!!!RWG: Appoggiaturas of spine 'Violino I' need manual editing in measures: 32, 60, 140
!!!RWG: Key is interpreted using the Humdrum key tool.
!!!OPT: London
!!!AFT: stage2
!!!END: 1995/11/07
!!format changes:
!!content changes:
!!public access: complete
!!!KEY: 1983507829
!!!EMD: Converted from MuseData to Humdrum Dec 16, 2000, by Andreas Kornstaedt using muse2kern.
